luts/Z-Log2/gain -2/zLog2_zRGB-ax2_32_gain-2.cube
TITLE "Generated by ZCAM"
LUT_3D_SIZE 32
0.016055 0.016055 0.016055
0.016055 0.016055 0.016055
0.016055 0.016055 0.016055
0.017378 0.016055 0.016055
0.039999 0.016055 0.016055
0.075112 0.016055 0.016055
0.112797 0.016055 0.016055
0.151329 0.016055 0.016055
0.193942 0.016055 0.016055
0.239269 0.016055 0.016055
0.287852 0.016055 0.016055
0.338498 0.016055 0.016055
0.387433 0.016055 0.016055
0.435398 0.016055 0.016055
0.482299 0.016055 0.016055
0.527928 0.016055 0.016055
0.572653 0.016055 0.016055
0.616371 0.016055 0.016055
0.659327 0.016055 0.021107
0.701303 0.016055 0.046020
0.742254 0.016055 0.083161
0.782836 0.016055 0.120650
0.820576 0.016055 0.160121
0.822913 0.016055 0.176221
0.822913 0.016055 0.187274
0.822913 0.016055 0.195855
0.822913 0.016055 0.202562
0.822913 0.016055 0.207846
0.822913 0.016055 0.212029
0.822913 0.016055 0.215348
0.822913 0.016055 0.217993
0.822913 0.016055 0.220099
0.016055 0.016055 0.016055
0.016055 0.016055 0.016055
0.016055 0.016055 0.016055
0.017378 0.016055 0.016055
0.039999 0.016055 0.016055
0.075112 0.016055 0.016055
0.112797 0.016055 0.016055
0.151329 0.016055 0.016055
0.193942 0.016055 0.016055
0.239269 0.016055 0.016055
0.287852 0.016055 0.016055
0.338498 0.016055 0.016055
0.387433 0.016055 0.016055
0.435398 0.016055 0.016055
0.482299 0.016055 0.016055
0.527928 0.016055 0.016055
0.572653 0.016055 0.016055
0.616371 0.016055 0.016055
0.659327 0.016055 0.021107
0.701303 0.016055 0.046020
0.742254 0.016055 0.083161
0.782836 0.016055 0.120650
0.820576 0.016055 0.160121
0.822913 0.016055 0.176221
0.822913 0.016055 0.187274
0.822913 0.016055 0.195855
0.822913 0.016055 0.202562
0.822913 0.016055 0.207846
0.822913 0.016055 0.212029
0.822913 0.016055 0.215348
0.822913 0.016055 0.217993
0.822913 0.016055 0.220099
0.016055 0.016055 0.016055
0.016055 0.016055 0.016055
0.016055 0.016055 0.016055
0.017378 0.016055 0.016055
0.039999 0.016055 0.016055
0.075112 0.016055 0.016055
0.112797 0.016055 0.016055
0.151329 0.016055 0.016055
0.193942 0.016055 0.016055
0.239269 0.016055 0.016055
0.287852 0.016055 0.016055
0.338498 0.016055 0.016055
0.387433 0.016055 0.016055
0.435398 0.016055 0.016055
0.482299 0.016055 0.016055
0.527928 0.016055 0.016055
0.572653 0.016055 0.016055
0.616371 0.016055 0.016055
0.659327 0.016055 0.021107
0.701303 0.016055 0.046020
0.742254 0.016055 0.083161
0.782836 0.016055 0.120650
0.820576 0.016055 0.160121
0.822913 0.016055 0.176221
0.822913 0.016055 0.187274
0.822913 0.016055 0.195855
0.822913 0.016055 0.202562
0.822913 0.016055 0.207846
0.822913 0.016055 0.212029
0.822913 0.016055 0.215348
0.822913 0.016055 0.217993
0.822913 0.016055 0.220099
0.016055 0.016055 0.016055
0.016055 0.016055 0.016055
0.016055 0.016055 0.016055
0.016055 0.016055 0.016055
0.016055 0.016055 0.016055
0.041420 0.016055 0.016055
0.084769 0.016055 0.016055
0.127940 0.016055 0.016055
0.173335 0.016055 0.016055
0.221864 0.016055 0.016055
0.272722 0.016055 0.016055
0.326293 0.016055 0.016055
0.378058 0.016055 0.016055
0.427944 0.016055 0.016055
0.476485 0.016055 0.016055
0.523353 0.016055 0.016055
0.569048 0.016055 0.016055
0.613530 0.016055 0.016055
0.657078 0.016055 0.016055
0.699547 0.016055 0.017806
0.740853 0.016055 0.048531
0.781738 0.016055 0.093464
0.819788 0.016055 0.136693
0.822912 0.016055 0.158496
0.822913 0.016055 0.173675
0.822912 0.016055 0.185309
0.822912 0.016055 0.194323
0.822913 0.016055 0.201362
0.822913 0.016055 0.206900
0.822913 0.016055 0.211276
0.822912 0.016055 0.214751
0.822913 0.016055 0.217511
0.016055 0.027912 0.016055
0.016055 0.027912 0.016055
0.016055 0.027912 0.016055
0.016055 0.018575 0.016055
0.016055 0.016420 0.016055
0.034100 0.016055 0.016055
0.076712 0.016055 0.016055
0.121838 0.016055 0.016055
0.167928 0.016055 0.016055
0.217309 0.016055 0.016055
0.268833 0.016055 0.016055
0.323103 0.016055 0.016055
0.375642 0.016055 0.016055
0.426031 0.016055 0.016055
0.474996 0.016055 0.016055
0.522188 0.016055 0.016055
0.568133 0.016055 0.016055
0.612811 0.016055 0.016055
0.656510 0.016055 0.016055
0.699104 0.016055 0.016055
0.740500 0.016055 0.040469
0.781461 0.016055 0.085782
0.819589 0.016055 0.130609
0.822913 0.016055 0.153891
0.822913 0.016055 0.170145
0.822912 0.016055 0.182594
0.822913 0.016055 0.192211
0.822913 0.016055 0.199708
0.822913 0.016055 0.205594
0.822912 0.016055 0.210243
0.822913 0.016055 0.213930
0.822913 0.016055 0.216859
0.016055 0.057094 0.016055
0.016055 0.057094 0.016055
0.016055 0.057094 0.016055
0.016055 0.044827 0.016055
0.016055 0.042017 0.016055
0.025598 0.038615 0.016055
0.066004 0.034533 0.016055
0.114035 0.029648 0.016055
0.161091 0.023890 0.016055
0.211556 0.017272 0.016055
0.263947 0.016055 0.016055
0.319076 0.016055 0.016055
0.372605 0.016055 0.016055
0.423634 0.016055 0.016055
0.473134 0.016055 0.016055
0.520734 0.016055 0.016055
0.566992 0.016055 0.016055
0.611916 0.016055 0.016055
0.655802 0.016055 0.016055
0.698552 0.016055 0.016055
0.740061 0.016055 0.031333
0.781117 0.016055 0.075543
0.819342 0.016055 0.122923
0.822913 0.016055 0.148089
0.822913 0.016055 0.165706
0.822913 0.016055 0.179186
0.822912 0.016055 0.189568
0.822913 0.016055 0.197643
0.822913 0.016055 0.203970
0.822913 0.016055 0.208958
0.822913 0.016055 0.212908
0.822912 0.016055 0.216043
0.016055 0.095524 0.016055
0.016055 0.095524 0.016055
0.016055 0.095524 0.016055
0.016055 0.084585 0.016055
0.016055 0.081692 0.016055
0.016094 0.077996 0.016055
0.052878 0.073317 0.016055
0.103945 0.067212 0.016055
0.152447 0.059613 0.016055
0.204256 0.050544 0.016055
0.257792 0.039949 0.016055
0.313975 0.028236 0.016055
0.368771 0.016055 0.016055
0.420624 0.016055 0.016055
0.470800 0.016055 0.016055
0.518916 0.016055 0.016055
0.565567 0.016055 0.016055
0.610800 0.016055 0.016055
0.654921 0.016055 0.016055
0.697866 0.016055 0.016055
0.739515 0.016055 0.020947
0.780689 0.016055 0.061829
0.819034 0.016055 0.113034
0.822913 0.016055 0.140751
0.822912 0.016055 0.160102
0.822913 0.016055 0.174902
0.822913 0.016055 0.186254
0.822913 0.016055 0.195058
0.822913 0.016055 0.201939
0.822913 0.016055 0.207353
0.822912 0.016055 0.211638
0.822913 0.016055 0.215031
0.016055 0.133075 0.016055
0.016055 0.133075 0.016055
0.016055 0.133075 0.016055
0.016055 0.124278 0.016055
0.016055 0.122029 0.016055
0.016055 0.119198 0.016055
0.037662 0.115650 0.016055
0.090412 0.111177 0.016055
0.141461 0.105480 0.016055
0.194935 0.098086 0.016055
0.250009 0.088356 0.016055
0.307501 0.075174 0.016055
0.363902 0.057450 0.016055
0.416832 0.037046 0.016055
0.467863 0.016355 0.016055
0.516637 0.016055 0.016055
0.563786 0.016055 0.016055
0.609408 0.016055 0.016055
0.653823 0.016055 0.016055
0.697010 0.016055 0.016055
0.738837 0.016055 0.016055
0.780157 0.016055 0.045386
0.818652 0.016055 0.100025
0.822912 0.016055 0.131444
0.822913 0.016055 0.153025
0.822912 0.016055 0.169483
0.822913 0.016055 0.182083
0.822913 0.016055 0.191816
0.822913 0.016055 0.199400
0.822912 0.016055 0.205350
0.822913 0.016055 0.210050
0.822913 0.016055 0.213771
0.016055 0.174080 0.016055
0.016055 0.174080 0.016055
0.016055 0.174080 0.016055
0.016055 0.166168 0.016055
0.016055 0.164150 0.016055
0.016055 0.161635 0.016055
0.021570 0.158492 0.016055
0.071430 0.154564 0.016055
0.127422 0.149639 0.016055
0.182941 0.143443 0.016055
0.240134 0.135624 0.016055
0.299260 0.125744 0.016055
0.357664 0.112956 0.016055
0.412030 0.095795 0.016055
0.464158 0.071046 0.016055
0.513774 0.038513 0.016055
0.561554 0.016055 0.016055
0.607667 0.016055 0.016055
0.652452 0.016055 0.016055
0.695942 0.016055 0.016055
0.737992 0.016055 0.016055
0.779496 0.016055 0.027865
0.818176 0.016055 0.082055
0.822913 0.016055 0.119505
0.822913 0.016055 0.144042
0.822912 0.016055 0.162611
0.822913 0.016055 0.176820
0.822913 0.016055 0.187736
0.822913 0.016055 0.196215
0.822913 0.016055 0.202844
0.822913 0.016055 0.208068
0.822913 0.016055 0.212199
0.016055 0.218444 0.016055
0.016055 0.218444 0.016055
0.016055 0.218444 0.016055
0.016055 0.211684 0.016055
0.016055 0.209960 0.016055
0.016055 0.207809 0.016055
0.016055 0.205121 0.016055
0.046272 0.201754 0.016055
0.109029 0.197520 0.016055
0.167346 0.192183 0.016055
0.227489 0.185425 0.016055
0.288627 0.176822 0.016055
0.349616 0.165790 0.016055
0.405914 0.151593 0.016055
0.459461 0.133258 0.016055
0.510165 0.109062 0.016055
0.558749 0.073174 0.016055
0.605486 0.025603 0.016055
0.650738 0.016055 0.016055
0.694609 0.016055 0.016055
0.736939 0.016055 0.016055
0.778672 0.016055 0.016055
0.817582 0.016055 0.056543
0.822913 0.016055 0.103687
0.822913 0.016055 0.132568
0.822913 0.016055 0.153881
0.822913 0.016055 0.170137
0.822913 0.016055 0.182586
0.822913 0.016055 0.192205
0.822913 0.016055 0.199703
0.822913 0.016055 0.205589
0.822913 0.016055 0.210234
0.016055 0.265462 0.016055
0.016055 0.265462 0.016055
0.016055 0.265462 0.016055
0.016055 0.259643 0.016055
0.016055 0.258169 0.016055
0.016055 0.256331 0.016055
0.016055 0.254039 0.016055
0.020688 0.251177 0.016055
0.082971 0.247597 0.016055
0.146942 0.243115 0.016055
0.210936 0.237485 0.016055
0.274893 0.230370 0.016055
0.339137 0.221282 0.016055
0.398075 0.209557 0.016055
0.453475 0.194306 0.016055
0.505595 0.174199 0.016055
0.555213 0.147322 0.016055
0.602746 0.111039 0.016055
0.648591 0.053407 0.016055
0.692940 0.016055 0.016055
0.735625 0.016055 0.016055
0.777644 0.016055 0.016055
0.816840 0.016055 0.028021
0.822912 0.016055 0.081284
0.822913 0.016055 0.117739
0.822913 0.016055 0.142733
0.822913 0.016055 0.161611
0.822912 0.016055 0.176055
0.822913 0.016055 0.187144
0.822913 0.016055 0.195753
0.822912 0.016055 0.202482
0.822912 0.016055 0.207777
0.016055 0.315814 0.016055
0.016055 0.315814 0.016055
0.016055 0.315814 0.016055
0.016055 0.310902 0.016055
0.016055 0.309656 0.016055
0.016055 0.308103 0.016055
0.016055 0.306164 0.016055
0.016055 0.303743 0.016055
0.044848 0.300715 0.016055
0.120078 0.296899 0.016055
0.188944 0.292076 0.016055
0.257131 0.285972 0.016055
0.325336 0.278239 0.016055
0.387946 0.268442 0.016055
0.445793 0.255900 0.016055
0.499777 0.239721 0.016055
0.550732 0.218496 0.016055
0.599292 0.189659 0.016055
0.645893 0.149488 0.016055
0.690848 0.091404 0.016055
0.733983 0.016055 0.016055
0.776362 0.016055 0.016055
0.815913 0.016055 0.016055
0.822913 0.016055 0.048822
0.822913 0.016055 0.097658
0.822912 0.016055 0.128412
0.822913 0.016055 0.150725
0.822913 0.016055 0.167718
0.822913 0.016055 0.180729
0.822912 0.016055 0.190766
0.822912 0.016055 0.198577
0.822913 0.016055 0.204697
0.016055 0.365854 0.016055
0.016055 0.365854 0.016055
0.016055 0.365854 0.016055
0.016055 0.362071 0.016055
0.016055 0.361109 0.016055
0.016055 0.359908 0.016055
0.016055 0.358407 0.016055
0.016055 0.356528 0.016055
0.016055 0.354172 0.016055
0.081237 0.351207 0.016055
0.159140 0.347463 0.016055
0.233820 0.342720 0.016055
0.306803 0.336679 0.016055
0.374731 0.328934 0.016055
0.435825 0.318866 0.016055
0.492318 0.305708 0.016055
0.545026 0.288400 0.016055
0.594917 0.265455 0.016055
0.642494 0.234829 0.016055
0.688217 0.192020 0.016055
0.731926 0.128790 0.016055
0.774757 0.024410 0.016055
0.814752 0.016055 0.016055
0.822913 0.016055 0.016055
0.822913 0.016055 0.067691
0.822912 0.016055 0.109525
0.822912 0.016055 0.136712
0.822912 0.016055 0.157029
0.822912 0.016055 0.172548
0.822913 0.016055 0.184438
0.822913 0.016055 0.193648
0.822912 0.016055 0.200824
0.016055 0.414107 0.016055
0.016055 0.414107 0.016055
0.016055 0.414107 0.016055
0.016055 0.411112 0.016055
0.016055 0.410354 0.016055
0.016055 0.409410 0.016055
0.016055 0.408233 0.016055
0.016055 0.406765 0.016055
0.016055 0.404931 0.016055
0.025918 0.402634 0.016055
0.118387 0.399751 0.016055
0.202159 0.396122 0.016055
0.281760 0.391537 0.016055
0.356989 0.385721 0.016055
0.422730 0.378303 0.016055
0.482650 0.368721 0.016055
0.537704 0.356085 0.016055
0.589343 0.339089 0.016055
0.638190 0.315752 0.016055
0.684896 0.283085 0.016055
0.729345 0.237313 0.016055
0.772740 0.169202 0.016055
0.813293 0.051413 0.016055
0.822913 0.016055 0.016055
0.822912 0.016055 0.029796
0.822912 0.016055 0.082479
0.822912 0.016055 0.118490
0.822913 0.016055 0.143286
0.822913 0.016055 0.162032
0.822913 0.016055 0.176377
0.822912 0.016055 0.187393
0.822912 0.016055 0.195940
0.016055 0.461614 0.016055
0.016055 0.461614 0.016055
0.016055 0.461614 0.016055
0.016055 0.459256 0.016055
0.016055 0.458660 0.016055
0.016055 0.457918 0.016055
0.016055 0.456995 0.016055
0.016055 0.455844 0.016055
0.016055 0.454407 0.016055
0.016055 0.452612 0.016055
0.053413 0.450362 0.016055
0.157261 0.447538 0.016055
0.247781 0.443979 0.016055
0.332295 0.439472 0.016055
0.405254 0.433736 0.016055
0.469918 0.426387 0.016055
0.528223 0.416901 0.016055
0.582184 0.404499 0.016055
0.632710 0.388036 0.016055
0.680687 0.365755 0.016055
0.726094 0.333801 0.016055
0.770196 0.285785 0.016055
0.811456 0.213189 0.016055
0.822912 0.078200 0.016055
0.822913 0.016055 0.016055
0.822912 0.016055 0.042689
0.822913 0.016055 0.093276
0.822913 0.016055 0.125471
0.822913 0.016055 0.148496
0.822912 0.016055 0.166015
0.822913 0.016055 0.179423
0.822913 0.016055 0.189744
0.016055 0.507785 0.016055
0.016055 0.507785 0.016055
0.016055 0.507785 0.016055
0.016055 0.505937 0.016055
0.016055 0.505471 0.016055
0.016055 0.504892 0.016055
0.016055 0.504171 0.016055
0.016055 0.503274 0.016055
0.016055 0.502155 0.016055
0.016055 0.500760 0.016055
0.016055 0.499017 0.016055
0.090972 0.496834 0.016055
0.200137 0.494093 0.016055
0.296883 0.490640 0.016055
0.381377 0.486271 0.016055
0.452828 0.480709 0.016055
0.515777 0.473571 0.016055
0.572902 0.464320 0.016055
0.625681 0.452189 0.016055
0.675323 0.436024 0.016055
0.721984 0.413976 0.016055
0.766976 0.382960 0.016055
0.809134 0.336493 0.016055
0.822913 0.235631 0.016055
0.822913 0.095567 0.016055
0.822913 0.016055 0.016055
0.822913 0.016055 0.054573
0.822912 0.016055 0.101352
0.822913 0.016055 0.130938
0.822913 0.016055 0.152639
0.822912 0.016055 0.169187
0.822913 0.016055 0.181847
0.016055 0.552955 0.016055
0.016055 0.552955 0.016055
0.016055 0.552955 0.016055
0.016055 0.551496 0.016055
0.016055 0.551129 0.016055
0.016055 0.550672 0.016055
0.016055 0.550104 0.016055
0.016055 0.549397 0.016055
0.016055 0.548517 0.016055
0.016055 0.547421 0.016055
0.016055 0.546052 0.016055
0.016055 0.544342 0.016055
0.127991 0.542200 0.016055
0.245636 0.539510 0.016055
0.347278 0.536122 0.016055
0.429322 0.531838 0.016055
0.499148 0.526390 0.016055
0.560712 0.519413 0.016055
0.616583 0.510397 0.016055
0.668440 0.498607 0.016055
0.716770 0.482928 0.016055
0.762884 0.461460 0.016055
0.806186 0.431004 0.016055
0.822912 0.359808 0.016055
0.822912 0.244982 0.016055
0.822913 0.108068 0.016055
0.822913 0.016055 0.016055
0.822913 0.016055 0.064298
0.822913 0.016055 0.107541
0.822912 0.016055 0.135287
0.822912 0.016055 0.155943
0.822913 0.016055 0.171713
0.016055 0.597146 0.016055
0.016055 0.597146 0.016055
0.016055 0.597146 0.016055
0.016055 0.595999 0.016055
0.016055 0.595710 0.016055
0.016055 0.595351 0.016055
0.016055 0.594905 0.016055
0.016055 0.594350 0.016055
0.016055 0.593660 0.016055
0.016055 0.592802 0.016055
0.016055 0.591731 0.016055
0.016055 0.590394 0.016055
0.016055 0.588723 0.016055
0.167985 0.586630 0.016055
0.294578 0.584001 0.016055
0.395810 0.580687 0.016055
0.476336 0.576494 0.016055
0.544409 0.571160 0.016055
0.604663 0.564328 0.016055
0.659511 0.555498 0.016055
0.710101 0.543939 0.016055
0.757667 0.528562 0.016055
0.802425 0.507615 0.016055
0.822912 0.455086 0.016055
0.822913 0.365401 0.016055
0.822913 0.252328 0.016055
0.822913 0.117441 0.016055
0.822913 0.016055 0.019847
0.822913 0.016055 0.072495
0.822913 0.016055 0.112352
0.822913 0.016055 0.138764
0.822913 0.016055 0.158578
0.016055 0.640430 0.016055
0.016055 0.640430 0.016055
0.016055 0.640430 0.016055
0.016055 0.639520 0.016055
0.016055 0.639291 0.016055
0.016055 0.639007 0.016055
0.016055 0.638654 0.016055
0.016055 0.638216 0.016055
0.016055 0.637670 0.016055
0.016055 0.636992 0.016055
0.016055 0.636147 0.016055
0.016055 0.635095 0.016055
0.016055 0.633781 0.016055
0.029134 0.632140 0.016055
0.211617 0.630084 0.016055
0.345014 0.627503 0.016055
0.443569 0.624253 0.016055
0.522043 0.620143 0.016055
0.588740 0.614921 0.016055
0.647781 0.608241 0.016055
0.701462 0.599617 0.016055
0.750992 0.588330 0.016055
0.797584 0.573287 0.016055
0.822912 0.534207 0.016055
0.822913 0.458459 0.016055
0.822913 0.369761 0.016055
0.822912 0.258128 0.016055
0.822912 0.124726 0.016055
0.822912 0.016055 0.025820
0.822912 0.016055 0.078691
0.822913 0.016055 0.116135
0.822912 0.016055 0.141539
0.016055 0.682915 0.016055
0.016055 0.682915 0.016055
0.016055 0.682915 0.016055
0.016055 0.682198 0.016055
0.016055 0.682018 0.016055
0.016055 0.681794 0.016055
0.016055 0.681516 0.016055
0.016055 0.681171 0.016055
0.016055 0.680742 0.016055
0.016055 0.680208 0.016055
0.016055 0.679544 0.016055
0.016055 0.678718 0.016055
0.016055 0.677688 0.016055
0.016055 0.676403 0.016055
0.058314 0.674796 0.016055
0.257857 0.672783 0.016055
0.393618 0.670257 0.016055
0.490160 0.667072 0.016055
0.566849 0.663041 0.016055
0.632117 0.657911 0.016055
0.690058 0.651339 0.016055
0.742397 0.642850 0.016055
0.791268 0.631753 0.016055
0.822912 0.604020 0.016055
0.822912 0.536309 0.016055
0.822912 0.461125 0.016055
0.822913 0.373190 0.016055
0.822912 0.262720 0.016055
0.822912 0.130425 0.016055
0.822912 0.016055 0.030955
0.822912 0.016055 0.083520
0.822913 0.016055 0.119139
0.016055 0.724187 0.016055
0.016055 0.724187 0.016055
0.016055 0.724187 0.016055
0.016055 0.723623 0.016055
0.016055 0.723481 0.016055
0.016055 0.723305 0.016055
0.016055 0.723087 0.016055
0.016055 0.722816 0.016055
0.016055 0.722479 0.016055
0.016055 0.722061 0.016055
0.016055 0.721541 0.016055
0.016055 0.720895 0.016055
0.016055 0.720091 0.016055
0.016055 0.719089 0.016055
0.016055 0.717841 0.016055
0.096306 0.716282 0.016055
0.307569 0.714332 0.016055
0.441413 0.711884 0.016055
0.535586 0.708803 0.016055
0.610661 0.704904 0.016055
0.674743 0.699937 0.016055
0.731151 0.693552 0.016055
0.782963 0.685273 0.016055
0.822912 0.668343 0.016055
0.822912 0.605338 0.016055
0.822913 0.537980 0.016055
0.822912 0.463240 0.016055
0.822913 0.375904 0.016055
0.822912 0.266372 0.016055
0.822912 0.134951 0.016055
0.822912 0.016055 0.035238
0.822913 0.016055 0.087277
0.016055 0.765103 0.016055
0.016055 0.765103 0.016055
0.016055 0.765103 0.016055
0.016055 0.764650 0.016055
0.016055 0.764537 0.016055
0.016055 0.764395 0.016055
0.016055 0.764220 0.016055
0.016055 0.764002 0.016055
0.016055 0.763732 0.016055
0.016055 0.763396 0.016055
0.016055 0.762979 0.016055
0.016055 0.762460 0.016055
0.016055 0.761815 0.016055
0.016055 0.761011 0.016055
0.016055 0.760009 0.016055
0.016055 0.758759 0.016055
0.133429 0.757198 0.016055
0.357731 0.755243 0.016055
0.488069 0.752793 0.016055
0.580112 0.749716 0.016055
0.653686 0.745836 0.016055
0.716207 0.740907 0.016055
0.771978 0.734606 0.016055
0.820680 0.726485 0.016055
0.822912 0.669142 0.016055
0.822912 0.606389 0.016055
0.822912 0.539311 0.016055
0.822913 0.464923 0.016055
0.822913 0.378060 0.016055
0.822912 0.269283 0.016055
0.822912 0.138567 0.016055
0.822913 0.016055 0.038797
0.016055 0.804485 0.016055
0.016055 0.804485 0.016055
0.016055 0.804485 0.016055
0.016055 0.804149 0.016055
0.016055 0.804065 0.016055
0.016055 0.803960 0.016055
0.016055 0.803830 0.016055
0.016055 0.803669 0.016055
0.016055 0.803468 0.016055
0.016055 0.803220 0.016055
0.016055 0.802910 0.016055
0.016055 0.802526 0.016055
0.016055 0.802048 0.016055
0.016055 0.801452 0.016055
0.016055 0.800710 0.016055
0.016055 0.799782 0.016055
0.016055 0.798619 0.016055
0.174070 0.797160 0.016055
0.405978 0.795322 0.016055
0.533535 0.793002 0.016055
0.623648 0.790060 0.016055
0.695809 0.786316 0.016055
0.757103 0.781530 0.016055
0.810761 0.775384 0.016055
0.822912 0.729486 0.016055
0.822912 0.669781 0.016055
0.822912 0.607229 0.016055
0.822912 0.540375 0.016055
0.822912 0.466266 0.016055
0.822912 0.379780 0.016055
0.822912 0.271608 0.016055
0.822913 0.141453 0.016055
0.016055 0.822912 0.016055
0.016055 0.822912 0.016055
0.016055 0.822912 0.016055
0.016055 0.822913 0.016055
0.016055 0.822913 0.016055
0.016055 0.822913 0.016055
0.016055 0.822912 0.016055
0.016055 0.822912 0.016055
0.016055 0.822913 0.016055
0.016055 0.822913 0.016055
0.016055 0.822912 0.016055
0.016055 0.822912 0.016055
0.016055 0.822912 0.016055
0.016055 0.822912 0.016055
0.016055 0.822912 0.016055
0.016055 0.822912 0.016055
0.016055 0.822912 0.016055
0.016055 0.822913 0.016055
0.208541 0.822913 0.016055
0.442778 0.822913 0.016055
0.570005 0.822912 0.016055
0.661617 0.822912 0.016055
0.735941 0.822912 0.016055
0.797056 0.819415 0.016055
0.822912 0.788932 0.016055
0.822913 0.729827 0.016055
0.822913 0.670291 0.016055
0.822912 0.607901 0.016055
0.822913 0.541226 0.016055
0.822912 0.467341 0.016055
0.822912 0.381154 0.016055
0.822913 0.273465 0.016055
0.016055 0.822912 0.016055
0.016055 0.822912 0.016055
0.016055 0.822912 0.016055
0.016055 0.822913 0.016055
0.016055 0.822912 0.016055
0.016055 0.822912 0.016055
0.016055 0.822912 0.016055
0.016055 0.822912 0.016055
0.016055 0.822912 0.016055
0.016055 0.822913 0.016055
0.016055 0.822912 0.016055
0.016055 0.822913 0.016055
0.016055 0.822913 0.016055
0.016055 0.822913 0.016055
0.016055 0.822913 0.016055
0.016055 0.822913 0.016055
0.016055 0.822913 0.016055
0.016055 0.822913 0.016055
0.016055 0.822912 0.016055
0.219566 0.822913 0.016055
0.446544 0.822913 0.016055
0.571693 0.822912 0.016055
0.662438 0.822912 0.016055
0.736297 0.822913 0.016055
0.800899 0.822912 0.016055
0.822913 0.789051 0.016055
0.822912 0.730101 0.016055
0.822912 0.670701 0.016055
0.822913 0.608440 0.016055
0.822912 0.541909 0.016055
0.822912 0.468201 0.016055
0.822912 0.382252 0.016055
0.016055 0.822913 0.016055
0.016055 0.822913 0.016055
0.016055 0.822913 0.016055
0.016055 0.822912 0.016055
0.016055 0.822913 0.016055
0.016055 0.822912 0.016055
0.016055 0.822913 0.016055
0.016055 0.822913 0.016055
0.016055 0.822912 0.016055
0.016055 0.822912 0.016055
0.016055 0.822913 0.016055
0.016055 0.822913 0.016055
0.016055 0.822912 0.016055
0.016055 0.822913 0.016055
0.016055 0.822913 0.016055
0.016055 0.822912 0.016055
0.016055 0.822913 0.016055
0.016055 0.822912 0.016055
0.016055 0.822912 0.016055
0.016055 0.822912 0.016055
0.228087 0.822912 0.016055
0.449512 0.822913 0.016055
0.573035 0.822912 0.016055
0.663094 0.822912 0.016055
0.736581 0.822912 0.016055
0.800954 0.822912 0.016055
0.822913 0.789147 0.016055
0.822912 0.730321 0.016055
0.822913 0.671030 0.016055
0.822912 0.608873 0.016055
0.822913 0.542456 0.016055
0.822913 0.468889 0.016055
0.016055 0.822912 0.016055
0.016055 0.822912 0.016055
0.016055 0.822912 0.016055
0.016055 0.822912 0.016055
0.016055 0.822912 0.016055
0.016055 0.822912 0.016055
0.016055 0.822913 0.016055
0.016055 0.822913 0.016055
0.016055 0.822913 0.016055
0.016055 0.822912 0.016055
0.016055 0.822912 0.016055
0.016055 0.822913 0.016055
0.016055 0.822913 0.016055
0.016055 0.822913 0.016055
0.016055 0.822912 0.016055
0.016055 0.822913 0.016055
0.016055 0.822912 0.016055
0.016055 0.822913 0.016055
0.016055 0.822912 0.016055
0.016055 0.822912 0.016055
0.016055 0.822912 0.016055
0.234734 0.822912 0.016055
0.451865 0.822913 0.016055
0.574105 0.822912 0.016055
0.663618 0.822913 0.016055
0.736809 0.822913 0.016055
0.800998 0.822913 0.016055
0.822912 0.789223 0.016055
0.822912 0.730498 0.016055
0.822913 0.671294 0.016055
0.822912 0.609220 0.016055
0.822913 0.542895 0.016055
0.016055 0.822913 0.016055
0.016055 0.822913 0.016055
0.016055 0.822913 0.016055
0.016055 0.822912 0.016055
0.016055 0.822912 0.016055
0.016055 0.822912 0.016055
0.016055 0.822913 0.016055
0.016055 0.822913 0.016055
0.016055 0.822913 0.016055
0.016055 0.822913 0.016055
0.016055 0.822913 0.016055
0.016055 0.822913 0.016055
0.016055 0.822912 0.016055
0.016055 0.822913 0.016055
0.016055 0.822912 0.016055
0.016055 0.822913 0.016055
0.016055 0.822912 0.016055
0.016055 0.822913 0.016055
0.016055 0.822912 0.016055
0.016055 0.822913 0.016055
0.016055 0.822913 0.016055
0.016055 0.822913 0.016055
0.239974 0.822912 0.016055
