luts/Z-Log2/gain -2/zLog2_zRGB-ax2_32_gain-2.cube
TITLE "Generated by ZCAM"
LUT_3D_SIZE 8
DOMAIN_MIN 0.000000 0.000000 0.000000
DOMAIN_MAX 0.903226 0.903226 0.903226
0.016055 0.016055 0.016055
0.039999 0.016055 0.016055
0.193942 0.016055 0.016055
0.387433 0.016055 0.016055
0.572653 0.016055 0.016055
0.742254 0.016055 0.083161
0.822913 0.016055 0.187274
0.822913 0.016055 0.212029
0.016055 0.027912 0.016055
0.016055 0.016420 0.016055
0.167928 0.016055 0.016055
0.375642 0.016055 0.016055
0.568133 0.016055 0.016055
0.740500 0.016055 0.040469
0.822913 0.016055 0.170145
0.822913 0.016055 0.205594
0.016055 0.174080 0.016055
0.016055 0.164150 0.016055
0.127422 0.149639 0.016055
0.357664 0.112956 0.016055
0.561554 0.016055 0.016055
0.737992 0.016055 0.016055
0.822913 0.016055 0.144042
0.822913 0.016055 0.196215
0.016055 0.365854 0.016055
0.016055 0.361109 0.016055
0.016055 0.354172 0.016055
0.306803 0.336679 0.016055
0.545026 0.288400 0.016055
0.731926 0.128790 0.016055
0.822913 0.016055 0.067691
0.822912 0.016055 0.172548
0.016055 0.552955 0.016055
0.016055 0.551129 0.016055
0.016055 0.548517 0.016055
0.127991 0.542200 0.016055
0.499148 0.526390 0.016055
0.716770 0.482928 0.016055
0.822912 0.244982 0.016055
0.822913 0.016055 0.107541
0.016055 0.724187 0.016055
0.016055 0.723481 0.016055
0.016055 0.722479 0.016055
0.016055 0.720091 0.016055
0.307569 0.714332 0.016055
0.674743 0.699937 0.016055
0.822912 0.605338 0.016055
0.822912 0.266372 0.016055
0.016055 0.822912 0.016055
0.016055 0.822912 0.016055
0.016055 0.822912 0.016055
0.016055 0.822913 0.016055
0.016055 0.822913 0.016055
0.446544 0.822913 0.016055
0.800899 0.822912 0.016055
0.822913 0.608440 0.016055
0.016055 0.822913 0.016055
0.016055 0.822912 0.016055
0.016055 0.822912 0.016055
0.016055 0.822912 0.016055
0.016055 0.822912 0.016055
0.016055 0.822912 0.016055
0.455227 0.822912 0.016055
0.801062 0.822912 0.016055
0.016055 0.016055 0.025635
0.030526 0.016055 0.030374
0.187269 0.016055 0.037378
0.384368 0.016055 0.056213
0.571466 0.016055 0.100548
0.741791 0.016055 0.177774
0.822912 0.016055 0.234853
0.822912 0.016055 0.231306
0.016055 0.016055 0.016055
0.016055 0.016055 0.016055
0.160638 0.016055 0.016055
0.372404 0.016055 0.018875
0.566916 0.016055 0.059770
0.740032 0.016055 0.149656
0.822913 0.016055 0.220644
0.822913 0.016055 0.225355
0.016055 0.158656 0.016055
0.016055 0.148299 0.016055
0.119300 0.133183 0.016055
0.354079 0.093797 0.016055
0.560294 0.016055 0.016055
0.737517 0.016055 0.105721
0.822913 0.016055 0.198976
0.822913 0.016055 0.216671
0.016055 0.358486 0.016055
0.016055 0.353529 0.016055
0.016055 0.346293 0.016055
0.302216 0.328062 0.016055
0.543650 0.277791 0.016055
0.731436 0.111245 0.016055
0.822912 0.016055 0.139234
0.822913 0.016055 0.194810
0.016055 0.550133 0.016055
0.016055 0.548279 0.016055
0.016055 0.545628 0.016055
0.119887 0.539212 0.016055
0.497403 0.523144 0.016055
0.716240 0.478855 0.016055
0.822913 0.236907 0.016055
0.822913 0.016055 0.134635
0.016055 0.723098 0.016055
0.016055 0.722388 0.016055
0.016055 0.721380 0.016055
0.016055 0.718979 0.016055
0.302994 0.713186 0.016055
0.674064 0.698689 0.016055
0.822912 0.603975 0.016055
0.822913 0.263201 0.016055
0.016055 0.822912 0.016055
0.016055 0.822913 0.016055
0.016055 0.822913 0.016055
0.016055 0.822913 0.016055
0.016055 0.822913 0.016055
0.445298 0.822912 0.016055
0.801122 0.822912 0.016055
0.822912 0.607879 0.016055
0.016055 0.822912 0.016055
0.016055 0.822913 0.016055
0.016055 0.822913 0.016055
0.016055 0.822913 0.016055
0.016055 0.822912 0.016055
0.016055 0.822913 0.016055
0.454737 0.822912 0.016055
0.801155 0.822912 0.016055
0.016055 0.016055 0.173305
0.018439 0.016055 0.177036
0.177580 0.016055 0.182223
0.379968 0.016055 0.194136
0.569775 0.016055 0.220441
0.741134 0.016055 0.274714
0.822913 0.016055 0.291965
0.822912 0.016055 0.256629
0.016055 0.016055 0.144813
0.016055 0.016055 0.148854
0.150103 0.016055 0.154495
0.367731 0.016055 0.167513
0.565184 0.016055 0.196264
0.739369 0.016055 0.254514
0.822913 0.016055 0.280128
0.822913 0.016055 0.251145
0.016055 0.135741 0.099963
0.016055 0.124784 0.104782
0.107319 0.108465 0.111313
0.348887 0.061242 0.125982
0.558500 0.016055 0.158218
0.736845 0.016055 0.223857
0.822913 0.016055 0.262560
0.822912 0.016055 0.243223
0.016055 0.347520 0.016055
0.016055 0.342263 0.016055
0.016055 0.334592 0.016055
0.295582 0.315185 0.016055
0.541689 0.262284 0.039711
0.730742 0.082939 0.135345
0.822913 0.016055 0.216203
0.822912 0.016055 0.223598
0.016055 0.546073 0.016055
0.016055 0.544178 0.016055
0.016055 0.541469 0.016055
0.107945 0.534910 0.016055
0.494910 0.518463 0.016055
0.715489 0.472941 0.016055
0.822913 0.225108 0.051611
0.822913 0.016055 0.169712
0.016055 0.721549 0.016055
0.016055 0.720833 0.016055
0.016055 0.719818 0.016055
0.016055 0.717398 0.016055
0.296384 0.711555 0.016055
0.673099 0.696907 0.016055
0.822913 0.602026 0.016055
0.822912 0.258668 0.016055
0.016055 0.822913 0.016055
0.016055 0.822913 0.016055
0.016055 0.822913 0.016055
0.016055 0.822913 0.016055
0.016055 0.822912 0.016055
0.443512 0.822913 0.016055
0.801438 0.822912 0.016055
0.822913 0.607084 0.016055
0.016055 0.822913 0.016055
0.016055 0.822913 0.016055
0.016055 0.822913 0.016055
0.016055 0.822913 0.016055
0.016055 0.822913 0.016055
0.016055 0.822913 0.016055
0.454040 0.822912 0.016055
0.801288 0.822912 0.016055
0.016055 0.016055 0.366662
0.016055 0.016055 0.368440
0.153377 0.016055 0.370924
0.369183 0.016055 0.376666
0.565719 0.016055 0.389647
0.739573 0.016055 0.417594
0.822913 0.016055 0.390404
0.822913 0.016055 0.310072
0.016055 0.016055 0.353134
0.016055 0.016055 0.355055
0.124051 0.016055 0.357735
0.356169 0.016055 0.363911
0.561027 0.016055 0.377699
0.737793 0.016055 0.407122
0.822912 0.016055 0.383370
0.822912 0.016055 0.305534
0.016055 0.071023 0.332178
0.016055 0.055246 0.334313
0.074497 0.034801 0.337294
0.336040 0.016055 0.344169
0.554190 0.016055 0.359504
0.735247 0.016055 0.391370
0.822913 0.016055 0.372938
0.822912 0.016055 0.298972
0.016055 0.318857 0.272834
0.016055 0.312776 0.275532
0.016055 0.303932 0.279321
0.279189 0.281737 0.288125
0.536973 0.222670 0.307851
0.729090 0.016055 0.348634
0.822912 0.016055 0.345095
0.822913 0.016055 0.282579
0.016055 0.536119 0.053250
0.016055 0.534124 0.059075
0.016055 0.531268 0.067767
0.075282 0.524347 0.087069
0.488890 0.506929 0.124334
0.713702 0.458174 0.196556
0.822913 0.194805 0.254996
0.822913 0.016055 0.239602
0.016055 0.717840 0.016055
0.016055 0.717111 0.016055
0.016055 0.716077 0.016055
0.016055 0.713609 0.016055
0.280035 0.707641 0.016055
0.670798 0.692616 0.016055
0.822912 0.597310 0.016055
0.822913 0.247692 0.097633
0.016055 0.822912 0.016055
0.016055 0.822913 0.016055
0.016055 0.822913 0.016055
0.016055 0.822912 0.016055
0.016055 0.822913 0.016055
0.439170 0.822913 0.016055
0.802193 0.822912 0.016055
0.822912 0.605186 0.016055
0.016055 0.822913 0.016055
0.016055 0.822912 0.016055
0.016055 0.822912 0.016055
0.016055 0.822912 0.016055
0.016055 0.822913 0.016055
0.016055 0.822913 0.016055
0.452376 0.822913 0.016055
0.801602 0.822912 0.016055
0.016055 0.016055 0.554346
0.016055 0.016055 0.555037
0.087413 0.016055 0.556009
0.340817 0.016055 0.558285
0.555772 0.016055 0.563557
0.735831 0.016055 0.575457
0.822912 0.016055 0.522052
0.822913 0.016055 0.401374
0.016055 0.016055 0.549239
0.016055 0.016055 0.549949
0.045534 0.016055 0.550948
0.325612 0.016055 0.553286
0.550820 0.016055 0.558699
0.734014 0.016055 0.570901
0.822912 0.016055 0.518816
0.822913 0.016055 0.398609
0.016055 0.016055 0.541780
0.016055 0.016055 0.542518
0.016055 0.016055 0.543556
0.302026 0.016055 0.545988
0.543593 0.016055 0.551612
0.731416 0.016055 0.564268
0.822912 0.016055 0.514105
0.822913 0.016055 0.394624
0.016055 0.234590 0.522908
0.016055 0.226623 0.523723
0.016055 0.214924 0.524867
0.237185 0.185155 0.527545
0.525349 0.101040 0.533728
0.725129 0.016055 0.547595
0.822913 0.016055 0.502263
0.822913 0.016055 0.384837
0.016055 0.510328 0.469256
0.016055 0.508045 0.470333
0.016055 0.504772 0.471845
0.016055 0.496818 0.475368
0.473848 0.476608 0.483433
0.709408 0.418075 0.501223
0.822913 0.107339 0.469403
0.822913 0.016055 0.359225
0.016055 0.708780 0.215285
0.016055 0.708014 0.218508
0.016055 0.706925 0.222998
0.016055 0.704325 0.233303
0.238135 0.698008 0.256427
0.665238 0.682014 0.305653
0.822913 0.585492 0.340102
0.822913 0.220153 0.276468
0.016055 0.822913 0.016055
0.016055 0.822913 0.016055
0.016055 0.822912 0.016055
0.016055 0.822913 0.016055
0.016055 0.822912 0.016055
0.428185 0.822913 0.016055
0.804015 0.822913 0.016055
0.822912 0.600597 0.016055
0.016055 0.822912 0.016055
0.016055 0.822913 0.016055
0.016055 0.822912 0.016055
0.016055 0.822913 0.016055
0.016055 0.822912 0.016055
0.016055 0.822913 0.016055
0.448338 0.822912 0.016055
0.802351 0.822912 0.016055
0.016055 0.016055 0.725715
0.016055 0.016055 0.725983
0.016055 0.016055 0.726361
0.254078 0.016055 0.727252
0.529946 0.016055 0.729340
0.726677 0.016055 0.734183
0.822913 0.016055 0.673094
0.822913 0.016055 0.527206
0.016055 0.016055 0.723752
0.016055 0.016055 0.724023
0.016055 0.016055 0.724405
0.233154 0.016055 0.725305
0.524267 0.016055 0.727414
0.724768 0.016055 0.732307
0.822913 0.016055 0.672061
0.822913 0.016055 0.525899
0.016055 0.016055 0.720944
0.016055 0.016055 0.721219
0.016055 0.016055 0.721606
0.200813 0.016055 0.722519
0.515945 0.016055 0.724660
0.722038 0.016055 0.729624
0.822913 0.016055 0.670576
0.822913 0.016055 0.524031
0.016055 0.016055 0.714150
0.016055 0.016055 0.714435
0.016055 0.016055 0.714836
0.107093 0.016055 0.715780
0.494738 0.016055 0.717993
0.715437 0.016055 0.723127
0.822913 0.016055 0.666946
0.822913 0.016055 0.519506
0.016055 0.430665 0.696977
0.016055 0.427202 0.697293
0.016055 0.422209 0.697737
0.016055 0.409913 0.698782
0.432677 0.377668 0.701224
0.698807 0.271787 0.706849
0.822913 0.016055 0.657611
0.822913 0.016055 0.508150
0.016055 0.685186 0.647670
0.016055 0.684300 0.648089
0.016055 0.683041 0.648678
0.016055 0.680028 0.650064
0.108572 0.672696 0.653298
0.651356 0.654051 0.660717
0.822913 0.552992 0.630197
0.822912 0.141057 0.476831
0.016055 0.822913 0.364773
0.016055 0.822912 0.366513
0.016055 0.822913 0.368951
0.016055 0.822912 0.374635
0.016055 0.822912 0.387717
0.397346 0.822912 0.417140
0.808546 0.822912 0.479278
0.822912 0.589116 0.356435
0.016055 0.822912 0.016055
0.016055 0.822912 0.016055
0.016055 0.822912 0.016055
0.016055 0.822912 0.016055
0.016055 0.822913 0.016055
0.016055 0.822912 0.016055
0.438148 0.822912 0.016055
0.804160 0.822912 0.016055
0.016055 0.016055 0.822912
0.016055 0.016055 0.822912
0.016055 0.016055 0.822912
0.016055 0.016055 0.822912
0.383487 0.016055 0.822912
0.636279 0.016055 0.822912
0.816315 0.016055 0.822912
0.822913 0.016055 0.674785
0.016055 0.016055 0.822912
0.016055 0.016055 0.822912
0.016055 0.016055 0.822912
0.016055 0.016055 0.822912
0.375859 0.016055 0.822912
0.634864 0.016055 0.822912
0.816302 0.016055 0.822912
0.822913 0.016055 0.674360
0.016055 0.016055 0.822913
0.016055 0.016055 0.822912
0.016055 0.016055 0.822912
0.016055 0.016055 0.822912
0.364428 0.016055 0.822912
0.632824 0.016055 0.822912
0.816285 0.016055 0.822912
0.822912 0.016055 0.673754
0.016055 0.016055 0.822912
0.016055 0.016055 0.822912
0.016055 0.016055 0.822912
0.016055 0.016055 0.822913
0.333443 0.016055 0.822912
0.627809 0.016055 0.822912
0.816242 0.016055 0.822912
0.822913 0.016055 0.672302
0.016055 0.016055 0.822912
0.016055 0.016055 0.822912
0.016055 0.016055 0.822912
0.016055 0.016055 0.822912
0.232074 0.016055 0.822912
0.614735 0.016055 0.822912
0.816135 0.016055 0.822912
0.822913 0.016055 0.668755
0.016055 0.577193 0.822912
0.016055 0.575721 0.822912
0.016055 0.573624 0.822912
0.016055 0.568591 0.822912
0.016055 0.556233 0.822912
0.574451 0.524008 0.822912
0.815849 0.421532 0.822912
0.822912 0.016055 0.659647
0.016055 0.822912 0.790184
0.016055 0.822913 0.790694
0.016055 0.822913 0.791414
0.016055 0.822912 0.793116
0.016055 0.822913 0.797126
0.271227 0.822912 0.806532
0.813806 0.816147 0.821848
0.822913 0.557652 0.632975
0.016055 0.822912 0.379247
0.016055 0.822913 0.379937
0.016055 0.822913 0.380907
0.016055 0.822912 0.383192
0.016055 0.822913 0.388548
0.016055 0.822913 0.400959
0.409696 0.822912 0.428869
0.808655 0.822912 0.488149
0.016055 0.016055 0.822912
0.016055 0.016055 0.822912
0.016055 0.016055 0.822912
0.016055 0.016055 0.822912
0.016055 0.016055 0.822912
0.394975 0.016055 0.822912
0.638452 0.016055 0.822912
0.816306 0.016055 0.822912
0.016055 0.016055 0.822912
0.016055 0.016055 0.822912
0.016055 0.016055 0.822912
0.016055 0.016055 0.822912
0.016055 0.016055 0.822912
0.391985 0.016055 0.822912
0.637871 0.016055 0.822912
0.816301 0.016055 0.822912
0.016055 0.016055 0.822912
0.016055 0.016055 0.822912
0.016055 0.016055 0.822912
0.016055 0.016055 0.822912
0.016055 0.016055 0.822912
0.387672 0.016055 0.822912
0.637043 0.016055 0.822912
0.816293 0.016055 0.822912
0.016055 0.016055 0.822912
0.016055 0.016055 0.822912
0.016055 0.016055 0.822912
0.016055 0.016055 0.822912
0.016055 0.016055 0.822912
0.377059 0.016055 0.822912
0.635055 0.016055 0.822912
0.816275 0.016055 0.822912
0.016055 0.016055 0.822912
0.016055 0.016055 0.822912
0.016055 0.016055 0.822912
0.016055 0.016055 0.822912
0.016055 0.016055 0.822912
0.348741 0.016055 0.822912
0.630170 0.016055 0.822912
0.816232 0.016055 0.822912
0.016055 0.016055 0.822912
0.016055 0.016055 0.822912
0.016055 0.016055 0.822912
0.016055 0.016055 0.822912
0.016055 0.016055 0.822912
0.255603 0.016055 0.822912
0.617453 0.016055 0.822912
0.816126 0.016055 0.822912
0.016055 0.581344 0.822912
0.016055 0.580740 0.822912
0.016055 0.579883 0.822912
0.016055 0.577846 0.822912
0.016055 0.572958 0.822912
0.016055 0.560969 0.822912
0.578485 0.529808 0.822912
0.815842 0.432011 0.822912
0.016055 0.822913 0.790557
0.016055 0.822912 0.790770
0.016055 0.822912 0.791072
0.016055 0.822913 0.791785
0.016055 0.822912 0.793470
0.016055 0.822913 0.797440
0.297276 0.822912 0.806750
0.814908 0.817239 0.822912
