luts/Z-Log2/gain -2/zLog2_zRGB-ax2_32_gain-2_desatuation.cube
TITLE "Generated by ZCAM"
LUT_3D_SIZE 32
0.016055 0.016055 0.016055
0.016055 0.016055 0.016055
0.016055 0.016055 0.016055
0.016055 0.016055 0.016055
0.017880 0.016471 0.016471
0.041752 0.021138 0.021138
0.078558 0.025543 0.025543
0.116895 0.026530 0.026530
0.156577 0.023682 0.023682
0.200236 0.015968 0.015968
0.246455 -0.005352 -0.005352
0.296076 -0.037752 -0.037752
0.346976 -0.050129 -0.050129
0.395898 -0.059914 -0.059914
0.443956 -0.069525 -0.069525
0.490772 -0.078888 -0.078888
0.536373 -0.088008 -0.088008
0.581028 -0.096939 -0.096939
0.624663 -0.105667 -0.105667
0.667534 -0.114241 -0.114241
0.709296 -0.111852 -0.111852
0.750246 -0.069300 -0.069300
0.790597 -0.021901 0.000404
0.827425 0.026096 0.081411
0.859269 0.071242 0.159465
0.887169 0.113576 0.231863
0.911030 0.151838 0.301190
0.930471 0.184416 0.365266
0.946141 0.211591 0.425169
0.959156 0.234786 0.481603
0.969211 0.253090 0.531469
0.976816 0.267160 0.576291
0.016055 0.016055 0.016055
0.016055 0.016055 0.016055
0.016055 0.016055 0.016055
0.016055 0.016055 0.016055
0.017880 0.016471 0.016471
0.041752 0.021138 0.021138
0.078558 0.025543 0.025543
0.116895 0.026530 0.026530
0.156577 0.023682 0.023682
0.200236 0.015968 0.015968
0.246455 -0.005352 -0.005352
0.296076 -0.037752 -0.037752
0.346976 -0.050129 -0.050129
0.395898 -0.059914 -0.059914
0.443956 -0.069525 -0.069525
0.490772 -0.078888 -0.078888
0.536373 -0.088008 -0.088008
0.581028 -0.096939 -0.096939
0.624663 -0.105667 -0.105667
0.667534 -0.114241 -0.114241
0.709296 -0.111852 -0.111852
0.750246 -0.069300 -0.069300
0.790597 -0.021901 0.000404
0.827425 0.026096 0.081411
0.859269 0.071242 0.159465
0.887169 0.113576 0.231863
0.911030 0.151838 0.301190
0.930471 0.184416 0.365266
0.946141 0.211591 0.425169
0.959156 0.234786 0.481603
0.969211 0.253090 0.531469
0.976816 0.267160 0.576291
0.016055 0.016055 0.016055
0.016055 0.016055 0.016055
0.016055 0.016055 0.016055
0.016055 0.016055 0.016055
0.017880 0.016471 0.016471
0.041752 0.021138 0.021138
0.078558 0.025543 0.025543
0.116895 0.026530 0.026530
0.156577 0.023682 0.023682
0.200236 0.015968 0.015968
0.246455 -0.005352 -0.005352
0.296076 -0.037752 -0.037752
0.346976 -0.050129 -0.050129
0.395898 -0.059914 -0.059914
0.443956 -0.069525 -0.069525
0.490772 -0.078888 -0.078888
0.536373 -0.088008 -0.088008
0.581028 -0.096939 -0.096939
0.624663 -0.105667 -0.105667
0.667534 -0.114241 -0.114241
0.709296 -0.111852 -0.111852
0.750246 -0.069300 -0.069300
0.790597 -0.021901 0.000404
0.827425 0.026096 0.081411
0.859269 0.071242 0.159465
0.887169 0.113576 0.231863
0.911030 0.151838 0.301190
0.930471 0.184416 0.365266
0.946141 0.211591 0.425169
0.959156 0.234786 0.481603
0.969211 0.253090 0.531469
0.976816 0.267160 0.576291
0.016055 0.016055 0.016055
0.016055 0.016055 0.016055
0.016055 0.016055 0.016055
0.016055 0.016055 0.016055
0.016055 0.016055 0.016055
0.027539 0.018531 0.018531
0.061354 0.023906 0.023906
0.103907 0.026607 0.026607
0.145200 0.024901 0.024901
0.190341 0.018159 0.018159
0.238067 -0.000848 -0.000848
0.288797 -0.032382 -0.032382
0.341217 -0.048977 -0.048977
0.391427 -0.059020 -0.059020
0.440423 -0.068819 -0.068819
0.488016 -0.078337 -0.078337
0.534197 -0.087573 -0.087573
0.579314 -0.096597 -0.096597
0.623309 -0.105396 -0.105396
0.666465 -0.114027 -0.114027
0.708463 -0.112661 -0.112661
0.749576 -0.070041 -0.070041
0.790079 -0.022544 -0.014909
0.827061 0.025599 0.063574
0.859012 0.070864 0.146157
0.886990 0.113295 0.221079
0.910909 0.151638 0.292179
0.930393 0.184282 0.357972
0.946089 0.211500 0.419021
0.959122 0.234725 0.476812
0.969190 0.253052 0.527864
0.976803 0.267136 0.573475
0.016055 0.016055 0.016055
0.016055 0.016055 0.016055
0.016055 0.016055 0.016055
0.016055 0.016055 0.016055
0.016055 0.016055 0.016055
0.024237 0.017853 0.017853
0.057138 0.023392 0.023392
0.100471 0.026557 0.026557
0.142292 0.025161 0.025161
0.187803 0.018673 0.018673
0.235932 0.000254 0.000254
0.286939 -0.031046 -0.031046
0.339746 -0.048683 -0.048683
0.390292 -0.058792 -0.058792
0.439526 -0.068639 -0.068639
0.487318 -0.078198 -0.078198
0.533647 -0.087463 -0.087463
0.578881 -0.096510 -0.096510
0.622968 -0.105328 -0.105328
0.666195 -0.113973 -0.113973
0.708253 -0.112863 -0.112863
0.749408 -0.070227 -0.070227
0.789949 -0.022706 -0.018443
0.826970 0.025475 0.059048
0.858948 0.070769 0.142619
0.886945 0.113224 0.218325
0.910878 0.151588 0.289869
0.930373 0.184249 0.356105
0.946076 0.211477 0.417460
0.959114 0.234709 0.475586
0.969185 0.253043 0.526948
0.976800 0.267130 0.572760
0.019800 0.034118 0.019800
0.019800 0.034118 0.019800
0.019800 0.034118 0.019800
0.018830 0.029039 0.018830
0.018584 0.027802 0.018584
0.021606 0.026269 0.018273
0.051909 0.029519 0.022692
0.096102 0.031784 0.026451
0.138658 0.028631 0.025456
0.184625 0.019557 0.019295
0.233265 0.001604 0.001604
0.284620 -0.029397 -0.029397
0.337907 -0.048315 -0.048315
0.388876 -0.058509 -0.058509
0.438409 -0.068416 -0.068416
0.486450 -0.078024 -0.078024
0.532964 -0.087327 -0.087327
0.578343 -0.096403 -0.096403
0.622544 -0.105243 -0.105243
0.665861 -0.113906 -0.113906
0.707992 -0.113115 -0.113115
0.749199 -0.070457 -0.070457
0.789787 -0.022907 -0.022611
0.826856 0.025320 0.053732
0.858867 0.070652 0.138084
0.886889 0.113137 0.214890
0.910840 0.151526 0.286975
0.930349 0.184207 0.353767
0.946060 0.211449 0.415515
0.959103 0.234690 0.474052
0.969179 0.253031 0.525805
0.976796 0.267122 0.571870
0.024597 0.067713 0.024597
0.024597 0.067713 0.024597
0.024597 0.067713 0.024597
0.023894 0.061254 0.023894
0.023707 0.059682 0.023707
0.023472 0.057778 0.023472
0.047248 0.055471 0.023176
0.090500 0.057699 0.026245
0.134108 0.055795 0.025778
0.180638 0.047693 0.020038
0.229923 0.027946 0.003256
0.281722 -0.007223 -0.027366
0.335605 -0.035494 -0.047855
0.387108 -0.055400 -0.058156
0.437015 -0.068137 -0.068137
0.485367 -0.077807 -0.077807
0.532113 -0.087156 -0.087156
0.577675 -0.096269 -0.096269
0.622017 -0.105137 -0.105137
0.665445 -0.113823 -0.113823
0.707669 -0.113428 -0.113428
0.748940 -0.070743 -0.070743
0.789586 -0.023155 -0.023155
0.826715 0.025128 0.047657
0.858768 0.070506 0.132218
0.886819 0.113028 0.210586
0.910793 0.151449 0.283342
0.930319 0.184156 0.350830
0.946040 0.211414 0.413087
0.959090 0.234666 0.472125
0.969171 0.253016 0.524377
0.976791 0.267113 0.570758
0.026627 0.106789 0.026627
0.026627 0.106789 0.026627
0.026627 0.106789 0.026627
0.026581 0.101848 0.026581
0.026559 0.100578 0.026559
0.026527 0.098992 0.026527
0.045777 0.097008 0.026477
0.084657 0.094508 0.026400
0.128415 0.094653 0.026109
0.175619 0.089982 0.020918
0.225723 0.074697 0.005268
0.278098 0.043669 -0.024875
0.332714 0.013227 -0.047277
0.384899 -0.010257 -0.057714
0.435272 -0.035966 -0.067788
0.484017 -0.062533 -0.077537
0.531052 -0.086944 -0.086944
0.576842 -0.096102 -0.096102
0.621362 -0.105006 -0.105006
0.664929 -0.113720 -0.113720
0.707267 -0.113815 -0.113815
0.748618 -0.071098 -0.071098
0.789336 -0.023464 -0.023464
0.826540 0.024889 0.040510
0.858645 0.070324 0.124564
0.886733 0.112893 0.205125
0.910735 0.151353 0.278757
0.930281 0.184092 0.347134
0.946015 0.211370 0.410047
0.959074 0.234637 0.469702
0.969161 0.252999 0.522588
0.976785 0.267101 0.569368
0.024864 0.145601 0.024864
0.024864 0.145601 0.024864
0.024864 0.145601 0.024864
0.025240 0.141354 0.025240
0.025329 0.140278 0.025329
0.025434 0.138944 0.025434
0.038246 0.137283 0.025559
0.078497 0.135218 0.025705
0.122159 0.132645 0.025871
0.169272 0.130967 0.021940
0.220415 0.121540 0.007711
0.273563 0.097786 -0.021831
0.329072 0.070838 -0.046548
0.382130 0.050292 -0.057160
0.433090 0.026962 -0.067352
0.482328 -0.000822 -0.077200
0.529730 -0.035236 -0.086680
0.575805 -0.073121 -0.095895
0.620546 -0.104843 -0.104843
0.664286 -0.113591 -0.113591
0.706768 -0.114297 -0.114297
0.748218 -0.071539 -0.071539
0.789026 -0.023848 -0.023848
0.826322 0.024593 0.032176
0.858491 0.070099 0.114405
0.886626 0.112726 0.198173
0.910662 0.151234 0.272972
0.930235 0.184012 0.342468
0.945984 0.211316 0.406230
0.959054 0.234601 0.466644
0.969149 0.252976 0.520338
0.976777 0.267087 0.567628
0.018547 0.188436 0.018547
0.018547 0.188436 0.018547
0.018547 0.188436 0.018547
0.019281 0.184695 0.019281
0.019461 0.183750 0.019461
0.019682 0.182575 0.019682
0.024063 0.181109 0.019953
0.063723 0.179283 0.020282
0.113807 0.177006 0.020681
0.161630 0.174155 0.021163
0.213683 0.169396 0.010647
0.267865 0.152266 -0.018123
0.324450 0.127615 -0.045624
0.378650 0.108220 -0.056464
0.430351 0.087053 -0.066804
0.480213 0.063307 -0.076777
0.528077 0.036037 -0.086349
0.574510 0.002971 -0.095636
0.619530 -0.041058 -0.104640
0.663486 -0.094529 -0.113431
0.706146 -0.114894 -0.114894
0.747720 -0.072086 -0.072086
0.788641 -0.024324 -0.024324
0.826051 0.024224 0.024224
0.858301 0.069820 0.102232
0.886493 0.112518 0.189133
0.910573 0.151086 0.265664
0.930177 0.183914 0.336549
0.945946 0.211249 0.401423
0.959029 0.234555 0.462776
0.969133 0.252948 0.517501
0.976768 0.267069 0.565443
0.001189 0.234090 0.001189
0.001189 0.234090 0.001189
0.001189 0.234090 0.001189
0.002764 0.230927 0.002764
0.003157 0.230127 0.003157
0.003639 0.229134 0.003639
0.004237 0.227895 0.004237
0.035815 0.226354 0.004970
0.093671 0.224427 0.005875
0.147856 0.222017 0.006985
0.204573 0.218998 0.008344
0.260665 0.209690 -0.013623
0.318562 0.188805 -0.044446
0.374252 0.170428 -0.055585
0.426904 0.150704 -0.066115
0.477557 0.128814 -0.076245
0.526007 0.103981 -0.085935
0.572893 0.074886 -0.095313
0.618263 0.040124 -0.104387
0.662489 -0.002925 -0.113232
0.705373 -0.058561 -0.115636
0.747102 -0.072765 -0.072765
0.788162 -0.024916 -0.024916
0.825715 0.023766 0.023766
0.858064 0.069473 0.088324
0.886328 0.112261 0.177023
0.910461 0.150903 0.256374
0.930105 0.183791 0.329005
0.945899 0.211166 0.395348
0.958997 0.234499 0.457871
0.969115 0.252914 0.513897
0.976756 0.267047 0.562692
-0.028092 0.282762 -0.028092
-0.028092 0.282762 -0.028092
-0.028092 0.282762 -0.028092
-0.026173 0.279995 -0.026173
-0.025695 0.279298 -0.025695
-0.025103 0.278432 -0.025103
-0.024372 0.277356 -0.024372
-0.008604 0.276018 -0.023469
0.054619 0.274355 -0.022357
0.118489 0.272284 -0.020987
0.183553 0.269697 -0.019301
0.249541 0.266464 -0.017231
0.311035 0.252686 -0.042941
0.368659 0.235049 -0.054466
0.422548 0.216571 -0.065244
0.474209 0.196506 -0.075576
0.523411 0.174298 -0.085416
0.570867 0.148832 -0.094907
0.616680 0.118688 -0.104070
0.661245 0.081830 -0.112983
0.704409 0.039417 -0.116558
0.746333 0.024297 -0.073608
0.787565 -0.007077 -0.025652
0.825295 0.023197 0.023197
0.857770 0.069041 0.073366
0.886122 0.111940 0.160079
0.910322 0.150675 0.244524
0.930016 0.183639 0.319296
0.945840 0.211062 0.387644
0.958959 0.234430 0.451633
0.969091 0.252871 0.509285
0.976741 0.267020 0.559209
-0.047508 0.333868 -0.047508
-0.047508 0.333868 -0.047508
-0.047508 0.333868 -0.047508
-0.047062 0.331638 -0.047062
-0.046949 0.331076 -0.046949
-0.046809 0.330374 -0.046809
-0.046634 0.329502 -0.046634
-0.046417 0.328413 -0.046417
0.005748 0.327055 -0.046145
0.080252 0.325356 -0.045805
0.151141 0.323228 -0.045380
0.223739 0.320560 -0.044846
0.298238 0.317202 -0.044174
0.361474 0.303265 -0.053029
0.417021 0.285736 -0.064138
0.469971 0.267017 -0.074728
0.520141 0.246566 -0.084762
0.568326 0.223522 -0.094399
0.614698 0.197039 -0.103674
0.659690 0.165688 -0.112672
0.703205 0.130112 -0.117704
0.745374 0.120628 -0.074655
0.786821 0.106104 -0.026567
0.824772 0.072982 0.022487
0.857404 0.068505 0.068505
0.885867 0.111542 0.137911
0.910149 0.150392 0.228992
0.929905 0.183450 0.306696
0.945767 0.210934 0.377785
0.958911 0.234343 0.443589
0.969063 0.252818 0.503340
0.976723 0.266986 0.554777
-0.057399 0.383324 -0.057399
-0.057399 0.383324 -0.057399
-0.057399 0.383324 -0.057399
-0.057055 0.381605 -0.057055
-0.056968 0.381172 -0.056968
-0.056861 0.380633 -0.056861
-0.056727 0.379965 -0.056727
-0.056560 0.379132 -0.056560
-0.037149 0.378094 -0.056353
0.042717 0.376801 -0.056094
0.118294 0.375187 -0.055771
0.195200 0.373167 -0.055367
0.272557 0.370632 -0.054860
0.349065 0.367440 -0.054222
0.409955 0.354091 -0.062725
0.464579 0.336994 -0.073650
0.516009 0.318795 -0.083936
0.565126 0.298759 -0.093759
0.612213 0.276042 -0.103177
0.657743 0.249324 -0.112283
0.701700 0.218140 -0.119131
0.744179 0.211521 -0.075957
0.785893 0.204133 -0.027706
0.824119 0.188603 0.021603
0.856948 0.152281 0.067837
0.885549 0.111046 0.115278
0.909935 0.150039 0.207047
0.929767 0.183215 0.290236
0.945677 0.210775 0.364892
0.958851 0.234236 0.433213
0.969027 0.252752 0.495613
0.976700 0.266944 0.549101
-0.067055 0.431603 -0.067055
-0.067055 0.431603 -0.067055
-0.067055 0.431603 -0.067055
-0.066780 0.430232 -0.066780
-0.066712 0.429888 -0.066712
-0.066626 0.429458 -0.066626
-0.066519 0.428926 -0.066519
-0.066386 0.428262 -0.066386
-0.066221 0.427437 -0.066221
-0.008348 0.426410 -0.066016
0.078753 0.425130 -0.065760
0.161283 0.423531 -0.065440
0.242857 0.421532 -0.065040
0.324015 0.419027 -0.064539
0.397834 0.415880 -0.063910
0.457675 0.402755 -0.072269
0.510760 0.386095 -0.082886
0.561081 0.368331 -0.092950
0.609086 0.348852 -0.102551
0.655299 0.326843 -0.111794
0.699815 0.301185 -0.120697
0.742685 0.297896 -0.077577
0.784735 0.295010 -0.029125
0.823303 0.287148 0.020499
0.856379 0.267618 0.067005
0.885153 0.225146 0.110429
0.909667 0.149601 0.174987
0.929596 0.182922 0.268606
0.945564 0.210577 0.347799
0.958777 0.234102 0.419812
0.968982 0.252670 0.485453
0.976672 0.266892 0.541774
-0.076499 0.478827 -0.076499
-0.076499 0.478827 -0.076499
-0.076499 0.478827 -0.076499
-0.076285 0.477755 -0.076285
-0.076231 0.477485 -0.076231
-0.076164 0.477151 -0.076164
-0.076081 0.476734 -0.076081
-0.075977 0.476217 -0.075977
-0.075849 0.475573 -0.075849
-0.066988 0.474772 -0.075688
0.029060 0.473774 -0.075489
0.119388 0.472529 -0.075240
0.207497 0.470973 -0.074929
0.294389 0.469027 -0.074539
0.373455 0.466584 -0.074051
0.445810 0.463512 -0.073436
0.504050 0.450749 -0.081544
0.555943 0.434465 -0.091923
0.605136 0.417095 -0.101761
0.652223 0.397992 -0.111179
0.697444 0.376353 -0.120223
0.740817 0.373202 -0.079593
0.783285 0.373948 -0.030893
0.822280 0.373896 0.019119
0.855668 0.366194 0.065968
0.884659 0.343269 0.109660
0.909333 0.294937 0.149054
0.929382 0.184110 0.237610
0.945424 0.210330 0.324690
0.958685 0.233936 0.402248
0.968927 0.252568 0.471833
0.976637 0.266827 0.532231
-0.085673 0.524695 -0.085673
-0.085673 0.524695 -0.085673
-0.085673 0.524695 -0.085673
-0.085504 0.523851 -0.085504
-0.085462 0.523639 -0.085462
-0.085409 0.523376 -0.085409
-0.085344 0.523048 -0.085344
-0.085262 0.522642 -0.085262
-0.085161 0.522136 -0.085161
-0.085036 0.521508 -0.085036
-0.043722 0.520726 -0.084879
0.065875 0.519752 -0.084684
0.164127 0.518538 -0.084442
0.258127 0.517022 -0.084138
0.344991 0.515126 -0.083759
0.421987 0.512748 -0.083284
0.492528 0.509760 -0.082686
0.549369 0.497313 -0.090608
0.600120 0.481430 -0.100758
0.648336 0.464482 -0.110401
0.694454 0.445872 -0.119625
0.738474 0.441621 -0.082105
0.781467 0.443280 -0.033101
0.820995 0.446215 0.017390
0.854779 0.445731 0.064672
0.884041 0.437940 0.108700
0.908916 0.414892 0.148372
0.929115 0.359620 0.192622
0.945249 0.230499 0.293179
0.958570 0.233730 0.378489
0.968858 0.252442 0.453470
0.976594 0.266746 0.519455
-0.094658 0.569618 -0.094658
-0.094658 0.569618 -0.094658
-0.094658 0.569618 -0.094658
-0.094524 0.568952 -0.094524
-0.094491 0.568784 -0.094491
-0.094449 0.568577 -0.094449
-0.094398 0.568319 -0.094398
-0.094334 0.567998 -0.094334
-0.094254 0.567600 -0.094254
-0.094155 0.567106 -0.094155
-0.094032 0.566491 -0.094032
-0.006542 0.565726 -0.093879
0.107580 0.564773 -0.093689
0.212300 0.563585 -0.093451
0.309988 0.562101 -0.093154
0.393934 0.560245 -0.092783
0.469352 0.557918 -0.092318
0.538067 0.554992 -0.091732
0.593705 0.542818 -0.099475
0.643400 0.527262 -0.109414
0.690669 0.510645 -0.118868
0.735526 0.504465 -0.085239
0.779184 0.505604 -0.035858
0.819377 0.509610 0.015221
0.853664 0.512639 0.063051
0.883268 0.511861 0.107500
0.908395 0.502940 0.147519
0.928782 0.478350 0.181536
0.945032 0.419836 0.243530
0.958428 0.281787 0.344921
0.968772 0.252284 0.428586
0.976540 0.266646 0.501733
-0.103435 0.613503 -0.103435
-0.103435 0.613503 -0.103435
-0.103435 0.613503 -0.103435
-0.103330 0.612978 -0.103330
-0.103303 0.612846 -0.103303
-0.103271 0.612683 -0.103271
-0.103230 0.612480 -0.103230
-0.103180 0.612228 -0.103180
-0.103117 0.611915 -0.103117
-0.103039 0.611526 -0.103039
-0.102943 0.611043 -0.102943
-0.102822 0.610442 -0.102822
0.030172 0.609694 -0.102673
0.153088 0.608763 -0.102487
0.264460 0.607603 -0.102255
0.359639 0.606154 -0.101965
0.442049 0.604342 -0.101602
0.515374 0.602070 -0.101148
0.582665 0.599215 -0.100577
0.637093 0.587316 -0.108153
0.685854 0.572082 -0.117905
0.731806 0.563667 -0.089153
0.776309 0.563257 -0.039306
0.817332 0.566871 0.012492
0.852262 0.571135 0.061018
0.882298 0.573699 0.105997
0.907741 0.571754 0.146452
0.928365 0.561026 0.180825
0.944761 0.534590 0.209165
0.958249 0.476810 0.295957
0.968665 0.328197 0.393913
0.976473 0.266521 0.476414
-0.112052 0.656590 -0.112052
-0.112052 0.656590 -0.112052
-0.112052 0.656590 -0.112052
-0.111969 0.656173 -0.111969
-0.111948 0.656069 -0.111948
-0.111922 0.655939 -0.111922
-0.111890 0.655778 -0.111890
-0.111850 0.655578 -0.111850
-0.111800 0.655331 -0.111800
-0.111738 0.655023 -0.111738
-0.111662 0.654640 -0.111662
-0.111567 0.654165 -0.111567
-0.091242 0.653574 -0.111449
0.070337 0.652839 -0.111302
0.202177 0.651923 -0.111118
0.315757 0.650781 -0.110890
0.408504 0.649355 -0.110605
0.488676 0.647572 -0.110248
0.560456 0.645337 -0.109801
0.626245 0.642528 -0.109240
0.679688 0.630846 -0.116672
0.727088 0.620159 -0.094051
0.772666 0.617422 -0.043634
0.814735 0.619729 0.009047
0.850493 0.624023 0.058462
0.881077 0.628054 0.104110
0.906920 0.629560 0.145112
0.927841 0.625575 0.179935
0.944422 0.612681 0.208570
0.958026 0.585548 0.232750
0.968531 0.527313 0.341693
0.976389 0.370478 0.439830
-0.120477 0.698713 -0.120477
-0.120477 0.698713 -0.120477
-0.120477 0.698713 -0.120477
-0.120412 0.698388 -0.120412
-0.120395 0.698306 -0.120395
-0.120375 0.698204 -0.120375
-0.120350 0.698079 -0.120350
-0.120319 0.697922 -0.120319
-0.120280 0.697729 -0.120280
-0.120232 0.697488 -0.120232
-0.120172 0.697189 -0.120172
-0.120097 0.696818 -0.120097
-0.120005 0.696356 -0.120005
-0.060617 0.695781 -0.119890
0.115049 0.695066 -0.119747
0.254879 0.694176 -0.119569
0.365290 0.693064 -0.119347
0.456012 0.691676 -0.119069
0.534310 0.689939 -0.118722
0.604472 0.687759 -0.118286
0.669071 0.685017 -0.117737
0.721070 0.675039 -0.100190
0.768007 0.669291 -0.049105
0.811421 0.669563 0.004683
0.848250 0.673021 0.055237
0.879534 0.677284 0.101733
0.905885 0.680364 0.143427
0.927181 0.679951 0.178814
0.943997 0.673838 0.207825
0.957747 0.659619 0.232248
0.968365 0.631040 0.254648
0.976285 0.572507 0.385025
-0.080749 0.739741 -0.080749
-0.080749 0.739741 -0.080749
-0.080749 0.739741 -0.080749
-0.081027 0.739481 -0.081027
-0.081097 0.739416 -0.081097
-0.081183 0.739335 -0.081183
-0.081291 0.739235 -0.081291
-0.081424 0.739111 -0.081424
-0.081589 0.738957 -0.081589
-0.081794 0.738765 -0.081794
-0.082048 0.738528 -0.082048
-0.082363 0.738233 -0.082363
-0.082754 0.737866 -0.082754
-0.083239 0.737411 -0.083239
0.016796 0.736845 -0.083841
0.191819 0.736140 -0.084589
0.327225 0.735263 -0.085517
0.429248 0.734170 -0.086671
0.512873 0.732806 -0.088106
0.585539 0.731100 -0.089891
0.651072 0.728964 -0.092113
0.711326 0.726280 -0.094882
0.762018 0.719119 -0.056032
0.807165 0.716733 -0.000868
0.845390 0.718792 0.051149
0.877576 0.722676 0.098727
0.904575 0.726407 0.141299
0.926349 0.727922 0.177402
0.943464 0.725498 0.206890
0.957397 0.717853 0.231618
0.968156 0.701927 0.251154
0.976155 0.672084 0.287205
-0.034356 0.780430 -0.034356
-0.034356 0.780430 -0.034356
-0.034356 0.780430 -0.034356
-0.034602 0.780226 -0.034602
-0.034664 0.780175 -0.034664
-0.034740 0.780111 -0.034740
-0.034835 0.780032 -0.034835
-0.034953 0.779935 -0.034953
-0.035099 0.779814 -0.035099
-0.035281 0.779663 -0.035281
-0.035506 0.779477 -0.035506
-0.035785 0.779245 -0.035785
-0.036131 0.778957 -0.036131
-0.036561 0.778600 -0.036561
-0.037094 0.778156 -0.037094
0.098005 0.777603 -0.037757
0.275218 0.776916 -0.038580
0.400345 0.776060 -0.039602
0.493899 0.774993 -0.040875
0.570769 0.773657 -0.042461
0.637576 0.771981 -0.044443
0.697728 0.769873 -0.046922
0.753149 0.767216 -0.050028
0.801661 0.762698 -0.007957
0.841727 0.762559 0.045953
0.875076 0.765248 0.094907
0.902908 0.768716 0.138600
0.925294 0.771046 0.175618
0.942791 0.770712 0.205713
0.956957 0.766944 0.230826
0.967894 0.757816 0.250674
0.975991 0.740355 0.265625
0.013992 0.818457 0.013992
0.013992 0.818457 0.013992
0.013992 0.818457 0.013992
0.013795 0.818310 0.013795
0.013746 0.818273 0.013746
0.013685 0.818227 0.013685
0.013609 0.818170 0.013609
0.013515 0.818100 0.013515
0.013398 0.818012 0.013398
0.013253 0.817903 0.013253
0.013073 0.817769 0.013073
0.012850 0.817601 0.012850
0.012573 0.817393 0.012573
0.012229 0.817134 0.012229
0.011801 0.816812 0.011801
0.011269 0.816412 0.011269
0.180950 0.815914 0.010608
0.355772 0.815292 0.009784
0.470194 0.814516 0.008757
0.555896 0.813546 0.007476
0.626509 0.812330 0.005876
0.688036 0.810802 0.003872
0.743066 0.808879 0.001360
0.794169 0.806447 -0.001799
0.836987 0.804311 0.039298
0.871859 0.805678 0.090024
0.900776 0.808649 0.135162
0.923952 0.811279 0.173351
0.941940 0.812068 0.204225
0.956400 0.810342 0.229827
0.967564 0.804784 0.250069
0.975787 0.793929 0.265244
0.059874 0.851471 0.059874
0.059874 0.851471 0.059874
0.059874 0.851471 0.059874
0.059726 0.851368 0.059726
0.059689 0.851343 0.059689
0.059642 0.851311 0.059642
0.059585 0.851271 0.059585
0.059514 0.851222 0.059514
0.059426 0.851161 0.059426
0.059317 0.851085 0.059317
0.059181 0.850991 0.059181
0.059012 0.850874 0.059012
0.058804 0.850729 0.058804
0.058544 0.850549 0.058544
0.058222 0.850326 0.058222
0.057821 0.850048 0.057821
0.057323 0.849702 0.057323
0.260758 0.849271 0.056704
0.428990 0.848735 0.055933
0.534646 0.848065 0.054972
0.613845 0.847227 0.053772
0.679242 0.846178 0.052273
0.735757 0.844861 0.050397
0.787075 0.843205 0.048045
0.831118 0.841113 0.045088
0.867681 0.840779 0.083733
0.898027 0.843244 0.130751
0.922230 0.846256 0.170452
0.940855 0.848230 0.202333
0.955693 0.848459 0.228559
0.967146 0.845963 0.249304
0.975529 0.839475 0.264765
0.103053 0.880391 0.103053
0.103053 0.880391 0.103053
0.103053 0.880391 0.103053
0.102941 0.880319 0.102941
0.102913 0.880301 0.102913
0.102879 0.880279 0.102879
0.102836 0.880251 0.102836
0.102782 0.880216 0.102782
0.102716 0.880173 0.102716
0.102634 0.880120 0.102634
0.102533 0.880054 0.102533
0.102406 0.879972 0.102406
0.102250 0.879870 0.102250
0.102055 0.879744 0.102055
0.101814 0.879587 0.101814
0.101514 0.879392 0.101514
0.101141 0.879149 0.101141
0.100677 0.878848 0.100677
0.337243 0.878472 0.100100
0.496475 0.878003 0.099381
0.594237 0.877418 0.098484
0.667783 0.876686 0.097364
0.728353 0.875769 0.095963
0.781262 0.874616 0.094207
0.826855 0.873163 0.091998
0.862969 0.871322 0.089212
0.894439 0.872139 0.125032
0.919997 0.874983 0.166708
0.939461 0.877505 0.199908
0.954789 0.878995 0.226940
0.966615 0.878733 0.248332
0.975204 0.875817 0.264161
0.142485 0.905305 0.142485
0.142485 0.905305 0.142485
0.142485 0.905305 0.142485
0.142404 0.905256 0.142404
0.142384 0.905243 0.142384
0.142359 0.905228 0.142359
0.142328 0.905209 0.142328
0.142290 0.905185 0.142290
0.142242 0.905156 0.142242
0.142183 0.905119 0.142183
0.142109 0.905074 0.142109
0.142018 0.905018 0.142018
0.141905 0.904948 0.141905
0.141765 0.904862 0.141765
0.141591 0.904755 0.141591
0.141374 0.904621 0.141374
0.141105 0.904455 0.141105
0.140771 0.904249 0.140771
0.140355 0.903992 0.140355
0.409815 0.903673 0.139837
0.557760 0.903274 0.139191
0.648883 0.902775 0.138386
0.717650 0.902151 0.137379
0.774147 0.901369 0.136117
0.822746 0.900386 0.134534
0.860686 0.899144 0.132541
0.890714 0.897569 0.130019
0.917065 0.899038 0.161816
0.937652 0.901736 0.196768
0.953625 0.903878 0.224859
