luts/Z-Log2/gain -2/zLog2_zRGB-ax2_32_gain-2_desatuation.cube
TITLE "Generated by ZCAM"
LUT_3D_SIZE 8
DOMAIN_MIN 0.000000 0.000000 0.000000
DOMAIN_MAX 0.903226 0.903226 0.903226
0.016055 0.016055 0.016055
0.017880 0.016471 0.016471
0.156577 0.023682 0.023682
0.346976 -0.050129 -0.050129
0.536373 -0.088008 -0.088008
0.709296 -0.111852 -0.111852
0.859269 0.071242 0.159465
0.946141 0.211591 0.425169
0.016055 0.016055 0.016055
0.016055 0.016055 0.016055
0.142292 0.025161 0.025161
0.339746 -0.048683 -0.048683
0.533647 -0.087463 -0.087463
0.708253 -0.112863 -0.112863
0.858948 0.070769 0.142619
0.946076 0.211477 0.417460
0.024864 0.145601 0.024864
0.025329 0.140278 0.025329
0.122159 0.132645 0.025871
0.329072 0.070838 -0.046548
0.529730 -0.035236 -0.086680
0.706768 -0.114297 -0.114297
0.858491 0.070099 0.114405
0.945984 0.211316 0.406230
-0.047508 0.333868 -0.047508
-0.046949 0.331076 -0.046949
0.005748 0.327055 -0.046145
0.298238 0.317202 -0.044174
0.520141 0.246566 -0.084762
0.703205 0.130112 -0.117704
0.857404 0.068505 0.068505
0.945767 0.210934 0.377785
-0.085673 0.524695 -0.085673
-0.085462 0.523639 -0.085462
-0.085161 0.522136 -0.085161
0.164127 0.518538 -0.084442
0.492528 0.509760 -0.082686
0.694454 0.445872 -0.119625
0.854779 0.445731 0.064672
0.945249 0.230499 0.293179
-0.120477 0.698713 -0.120477
-0.120395 0.698306 -0.120395
-0.120280 0.697729 -0.120280
-0.120005 0.696356 -0.120005
0.365290 0.693064 -0.119347
0.669071 0.685017 -0.117737
0.848250 0.673021 0.055237
0.943997 0.673838 0.207825
0.059874 0.851471 0.059874
0.059689 0.851343 0.059689
0.059426 0.851161 0.059426
0.058804 0.850729 0.058804
0.057323 0.849702 0.057323
0.613845 0.847227 0.053772
0.831118 0.841113 0.045088
0.940855 0.848230 0.202333
0.205059 0.942417 0.205059
0.205014 0.942391 0.205014
0.204949 0.942354 0.204949
0.204796 0.942267 0.204796
0.204433 0.942059 0.204433
0.203568 0.941563 0.203568
0.804539 0.940363 0.201476
0.933170 0.937353 0.196250
0.016055 0.016055 0.016055
0.016055 0.016055 0.016055
0.152842 0.024118 0.024860
0.345087 -0.049751 -0.040165
0.535654 -0.087865 -0.054802
0.709020 -0.112120 -0.016228
0.859184 0.071117 0.231309
0.946123 0.211561 0.461263
0.016055 0.016055 0.016055
0.016055 0.016055 0.016055
0.138418 0.025474 0.025474
0.337786 -0.048291 -0.048291
0.532919 -0.087318 -0.076066
0.707975 -0.113132 -0.040268
0.858862 0.070644 0.218479
0.946059 0.211447 0.454879
0.025552 0.137370 0.025552
0.025913 0.131950 0.025913
0.117730 0.124160 0.026303
0.327001 0.060193 -0.046134
0.528986 -0.049312 -0.086531
0.706488 -0.114566 -0.078230
0.858406 0.069973 0.199338
0.945967 0.211286 0.445397
-0.046643 0.329547 -0.046643
-0.046071 0.326686 -0.046071
0.000081 0.322568 -0.045248
0.296381 0.312497 -0.043233
0.519359 0.240487 -0.084606
0.702919 0.122302 -0.117976
0.857317 0.068377 0.149291
0.945750 0.210904 0.421042
-0.085347 0.523065 -0.085347
-0.085134 0.522000 -0.085134
-0.084831 0.520484 -0.084831
0.160882 0.516855 -0.084105
0.491816 0.507998 -0.082333
0.694151 0.443559 -0.119564
0.854690 0.443028 0.064542
0.945232 0.222381 0.352313
-0.120351 0.698085 -0.120351
-0.120269 0.697676 -0.120269
-0.120153 0.697097 -0.120153
-0.119878 0.695718 -0.119878
0.363847 0.692414 -0.119217
0.668793 0.684334 -0.117601
0.848153 0.672255 0.055099
0.943979 0.672976 0.207793
0.059588 0.851273 0.059588
0.059402 0.851144 0.059402
0.059139 0.850962 0.059139
0.058515 0.850530 0.058515
0.057033 0.849500 0.057033
0.613270 0.847020 0.053475
0.830995 0.840892 0.044776
0.940835 0.848011 0.202298
0.204989 0.942377 0.204989
0.204943 0.942351 0.204943
0.204879 0.942314 0.204879
0.204725 0.942226 0.204725
0.204362 0.942018 0.204362
0.203496 0.941522 0.203496
0.804361 0.940321 0.201402
0.933141 0.937306 0.196170
0.024903 0.024903 0.145183
0.024710 0.024710 0.147208
0.147665 0.024421 0.150050
0.342384 -0.049211 0.119548
0.534634 -0.087661 0.099386
0.708630 -0.112499 0.111650
0.859064 0.070940 0.309460
0.946099 0.211518 0.501387
0.026017 0.026017 0.130142
0.025896 0.025896 0.132238
0.133072 0.025707 0.135181
0.334984 -0.047731 0.103489
0.531884 -0.087111 0.083088
0.707582 -0.113511 0.096121
0.858741 0.070467 0.299717
0.946034 0.211404 0.496517
0.026248 0.125479 0.109229
0.026454 0.119841 0.110862
0.111311 0.111810 0.113062
0.324037 0.043882 0.079736
0.527930 -0.066936 0.058980
0.706091 -0.114947 0.072934
0.858284 0.069795 0.285450
0.945943 0.211243 0.489377
-0.045386 0.323260 -0.016348
-0.044795 0.320303 -0.012566
-0.008144 0.316052 -0.007021
0.293731 0.305701 0.006931
0.518249 0.231714 -0.007218
0.702514 0.110937 0.012245
0.857194 0.068198 0.248965
0.945726 0.210861 0.470952
-0.084882 0.520738 -0.084882
-0.084666 0.519659 -0.084666
-0.084359 0.518125 -0.084359
0.156234 0.514451 -0.083624
0.490806 0.505481 -0.081830
0.693723 0.440248 -0.119479
0.854563 0.439145 0.138280
0.945207 0.212064 0.416975
-0.120173 0.697194 -0.120173
-0.120090 0.696782 -0.120090
-0.119974 0.696199 -0.119974
-0.119697 0.694813 -0.119697
0.361792 0.691490 -0.119032
0.668400 0.683365 -0.117407
0.848017 0.671166 0.054904
0.943953 0.671750 0.207748
0.059183 0.850992 0.059183
0.058996 0.850863 0.058996
0.058733 0.850680 0.058733
0.058108 0.850247 0.058108
0.056621 0.849214 0.056621
0.612457 0.846725 0.053055
0.830821 0.840580 0.044336
0.940807 0.847700 0.202250
0.204889 0.942320 0.204889
0.204844 0.942294 0.204844
0.204779 0.942257 0.204779
0.204625 0.942169 0.204625
0.204262 0.941961 0.204262
0.203394 0.941464 0.203394
0.804108 0.940260 0.201297
0.933099 0.937241 0.196056
-0.047603 -0.047603 0.334347
-0.047815 -0.047815 0.335407
0.094134 -0.048113 0.336894
0.334948 -0.048808 0.340369
0.532203 -0.087175 0.311575
0.707704 -0.113394 0.301972
0.858779 0.070521 0.431585
0.946042 0.211417 0.568895
-0.046026 -0.046026 0.326459
-0.046247 -0.046247 0.327565
0.077540 -0.046557 0.329114
0.327303 -0.047278 0.332720
0.529418 -0.086618 0.303313
0.706650 -0.114410 0.293652
0.858455 0.070046 0.426100
0.945977 0.211303 0.565680
-0.043680 0.050623 0.314729
-0.043914 0.042252 0.315898
0.051808 0.029634 0.317540
0.315944 -0.002529 0.321371
0.525412 -0.085816 0.291085
0.705151 -0.115848 0.281320
0.857997 0.069373 0.418104
0.945885 0.211142 0.561019
-0.042256 0.307612 0.279939
-0.041626 0.304458 0.282145
-0.024306 0.299938 0.285266
0.286840 0.288315 0.292026
0.515600 0.210267 0.259199
0.701552 0.082490 0.249338
0.856903 0.067771 0.397967
0.945668 0.210759 0.549430
-0.083759 0.515124 0.136210
-0.083537 0.514013 0.138482
-0.083221 0.512434 0.141676
0.144947 0.508649 0.149142
0.488407 0.499403 0.166330
0.692707 0.432211 0.161346
0.854263 0.429654 0.339509
0.945149 0.209846 0.518197
-0.119747 0.695066 -0.119747
-0.119664 0.694649 -0.119664
-0.119546 0.694058 -0.119546
-0.119265 0.692654 -0.119265
0.356855 0.689287 -0.118591
0.667470 0.681053 -0.116945
0.847694 0.668566 0.109608
0.943893 0.668812 0.407158
0.058222 0.850326 0.058222
0.058034 0.850196 0.058034
0.057769 0.850011 0.057769
0.057140 0.849575 0.057140
0.055645 0.848534 0.055645
0.610519 0.846027 0.052057
0.830408 0.839837 0.043290
0.940741 0.846961 0.202135
0.204653 0.942185 0.204653
0.204607 0.942158 0.204607
0.204542 0.942121 0.204542
0.204388 0.942033 0.204388
0.204023 0.941824 0.204023
0.203152 0.941325 0.203152
0.803509 0.940117 0.201047
0.933001 0.937085 0.195787
-0.085835 -0.085835 0.525503
-0.085915 -0.085915 0.525905
0.016798 -0.086028 0.526472
0.277834 -0.086295 0.527804
0.525417 -0.086917 0.530916
0.705494 -0.115520 0.506126
0.858102 0.069527 0.573315
0.945906 0.211179 0.662317
-0.085244 -0.085244 0.522551
-0.085326 -0.085326 0.522959
-0.004617 -0.085441 0.523535
0.268441 -0.085711 0.524888
0.522544 -0.086343 0.528047
0.704427 -0.116540 0.502738
0.857776 0.069050 0.570748
0.945841 0.211064 0.660585
-0.084394 -0.084394 0.518301
-0.084478 -0.084478 0.518718
-0.039550 -0.084595 0.519306
0.254627 -0.084872 0.520689
0.518409 -0.085518 0.523918
0.702907 -0.117987 0.497857
0.857314 0.068372 0.567061
0.945749 0.210902 0.658102
-0.082308 0.218274 0.507870
-0.082396 0.213844 0.508311
-0.082520 0.207510 0.508931
0.219197 0.192175 0.510390
0.508273 0.153525 0.513794
0.699257 0.006286 0.486078
0.856211 0.066760 0.558051
0.945531 0.210518 0.652069
-0.080969 0.501175 0.476669
-0.080731 0.499983 0.477516
-0.080391 0.498286 0.478712
0.116489 0.494216 0.481536
0.482000 0.483582 0.487549
0.690279 0.411917 0.457697
0.853550 0.405354 0.534908
0.945010 0.209602 0.636784
-0.118719 0.689925 0.336741
-0.118633 0.689496 0.337760
-0.118511 0.688886 0.339195
-0.118221 0.687437 0.342561
0.344725 0.683963 0.350383
0.665258 0.675464 0.368150
0.846927 0.662260 0.465817
0.943749 0.661628 0.593265
0.055927 0.848731 0.055927
0.055737 0.848598 0.055737
0.055468 0.848411 0.055468
0.054830 0.847966 0.054830
0.053314 0.846907 0.053314
0.605863 0.844356 0.049678
0.829428 0.838058 0.049175
0.940584 0.845183 0.382537
0.204092 0.941863 0.204092
0.204046 0.941837 0.204046
0.203980 0.941799 0.203980
0.203825 0.941711 0.203825
0.203457 0.941499 0.203457
0.202578 0.940996 0.202578
0.802081 0.939776 0.200454
0.932767 0.936715 0.195147
-0.120653 -0.120653 0.699595
-0.120684 -0.120684 0.699750
-0.120728 -0.120728 0.699969
0.190944 -0.120278 0.700485
0.474245 -0.119134 0.701697
0.699310 -0.116446 0.704526
0.856480 0.067154 0.719868
0.945584 0.210612 0.771585
-0.120426 -0.120426 0.698462
-0.120458 -0.120458 0.698618
-0.120502 -0.120502 0.698839
0.179187 -0.120606 0.699358
0.470396 -0.120189 0.700579
0.698198 -0.117493 0.703427
0.856149 0.066669 0.718774
0.945519 0.210497 0.770773
-0.120103 -0.120103 0.696846
-0.120135 -0.120135 0.697004
-0.120179 -0.120179 0.697227
0.162484 -0.120284 0.697752
0.465170 -0.120531 0.698986
0.696612 -0.118977 0.701863
0.855678 0.065981 0.717217
0.945426 0.210333 0.769617
-0.119326 0.030903 0.692961
-0.119359 0.024412 0.693123
-0.119404 0.015124 0.693351
0.119991 -0.007926 0.693889
0.452767 -0.075816 0.695153
0.692812 -0.120354 0.698102
0.854554 0.064345 0.713476
0.945206 0.209946 0.766853
-0.117415 0.419573 0.683403
-0.117449 0.417790 0.683574
-0.117497 0.415249 0.683815
-0.007537 0.409136 0.684385
0.420132 0.394058 0.685723
0.683510 0.354281 0.688843
0.851842 0.331677 0.704263
0.944680 0.209023 0.760128
-0.116158 0.677118 0.654746
-0.116065 0.676654 0.655075
-0.115933 0.675997 0.655541
-0.115621 0.674436 0.656641
0.313277 0.670690 0.659238
0.659318 0.660863 0.664735
0.845089 0.646406 0.680128
0.943408 0.643119 0.742833
0.050378 0.844848 0.591937
0.050181 0.844710 0.592158
0.049904 0.844514 0.592470
0.049246 0.844051 0.593203
0.047683 0.842949 0.594922
0.594390 0.840295 0.598899
0.827088 0.833715 0.607865
0.940211 0.840811 0.690928
0.202747 0.941092 0.202747
0.202700 0.941065 0.202700
0.202633 0.941027 0.202633
0.202474 0.940936 0.202474
0.202098 0.940720 0.202098
0.201201 0.940205 0.201201
0.798639 0.938957 0.199031
0.932211 0.935828 0.319872
0.060891 0.060891 0.852175
0.060962 0.060962 0.852224
0.061062 0.061062 0.852293
0.176727 0.061298 0.852455
0.492846 0.061854 0.852839
0.696155 0.063159 0.853739
0.852724 0.066203 0.855830
0.944812 0.209255 0.878102
0.060376 0.060376 0.851818
0.060447 0.060447 0.851867
0.060547 0.060547 0.851936
0.162129 0.060783 0.852100
0.488984 0.061341 0.852485
0.694906 0.062651 0.853389
0.852375 0.065705 0.855488
0.944745 0.209137 0.877822
0.059644 0.059644 0.851312
0.059716 0.059716 0.851361
0.059816 0.059816 0.851431
0.139820 0.060054 0.851595
0.483389 0.060614 0.851983
0.693125 0.061930 0.852891
0.851880 0.064997 0.855002
0.944650 0.208971 0.877425
0.057903 0.057903 0.850105
0.057975 0.057975 0.850155
0.058077 0.058077 0.850225
0.075179 0.058317 0.850392
0.469491 0.058883 0.850784
0.688840 0.060212 0.851705
0.850699 0.063312 0.853844
0.944425 0.208576 0.876478
0.053713 0.351715 0.847186
0.053787 0.349011 0.847237
0.053891 0.345118 0.847310
0.054138 0.335607 0.847482
0.432212 0.311498 0.847888
0.678266 0.245568 0.848838
0.847847 0.059260 0.851046
0.943889 0.207635 0.874191
0.043402 0.649095 0.839916
0.043480 0.648572 0.839972
0.043590 0.647830 0.840050
0.043851 0.646064 0.840235
0.302368 0.641820 0.840671
0.650391 0.631363 0.841694
0.840747 0.603900 0.844070
0.942588 0.587679 0.868494
0.036549 0.835015 0.820443
0.036337 0.834862 0.820503
0.036037 0.834646 0.820588
0.035324 0.834132 0.820790
0.033629 0.832908 0.821268
0.564235 0.829946 0.822411
0.821461 0.822540 0.825219
0.939313 0.829504 0.853163
0.199453 0.939200 0.787850
0.199403 0.939171 0.787929
0.199333 0.939131 0.788042
0.199166 0.939035 0.788306
0.198770 0.938807 0.788930
0.197825 0.938262 0.790390
0.790147 0.936944 0.793773
0.930865 0.933650 0.801344
0.205667 0.205667 0.942765
0.205684 0.205684 0.942775
0.205709 0.205709 0.942789
0.205767 0.205767 0.942822
0.450779 0.205904 0.942900
0.710324 0.206226 0.943084
0.863245 0.206980 0.943515
0.943251 0.208732 0.944514
0.205540 0.205540 0.942692
0.205558 0.205558 0.942702
0.205582 0.205582 0.942716
0.205641 0.205641 0.942750
0.444212 0.205777 0.942828
0.709101 0.206100 0.943012
0.862911 0.206856 0.943444
0.943181 0.208611 0.944445
0.205361 0.205361 0.942590
0.205379 0.205379 0.942600
0.205403 0.205403 0.942614
0.205462 0.205462 0.942647
0.434539 0.205599 0.942726
0.707357 0.205922 0.942911
0.862438 0.206680 0.943344
0.943081 0.208440 0.944347
0.204936 0.204936 0.942346
0.204953 0.204953 0.942356
0.204978 0.204978 0.942371
0.205037 0.205037 0.942404
0.409791 0.205175 0.942483
0.703156 0.205500 0.942669
0.861310 0.206263 0.943105
0.942845 0.208033 0.944115
0.203920 0.203920 0.941765
0.203937 0.203937 0.941775
0.203963 0.203963 0.941789
0.204022 0.204022 0.941823
0.340106 0.204162 0.941904
0.692740 0.204493 0.942093
0.858579 0.205267 0.942536
0.942280 0.207062 0.943562
0.201454 0.603942 0.940351
0.201473 0.603084 0.940361
0.201499 0.601864 0.940376
0.201561 0.598940 0.940412
0.201706 0.591801 0.940495
0.664929 0.573488 0.940692
0.851723 0.518577 0.941153
0.940909 0.204713 0.942219
0.195234 0.831814 0.936765
0.195254 0.831652 0.936777
0.195282 0.831424 0.936794
0.195350 0.830881 0.936833
0.195509 0.829587 0.936925
0.568308 0.826454 0.937142
0.832616 0.818559 0.937650
0.937438 0.797177 0.938827
0.190990 0.934305 0.928167
0.190934 0.934273 0.928173
0.190855 0.934227 0.928181
0.190668 0.934118 0.928200
0.190224 0.933860 0.928244
0.189166 0.933244 0.928347
0.768044 0.931749 0.928585
0.927759 0.928220 0.929361
