luts/Z-Log2/gain -2/zLog2_zRGB-ax2_32_gain-2_desatuation.cube
TITLE "Generated by ZCAM"
LUT_3D_SIZE 5
DOMAIN_MIN 0.000000 0.000000 0.000000
DOMAIN_MAX 0.903226 0.903226 0.903226
0.016055 0.016055 0.016055
0.116895 0.026530 0.026530
0.443956 -0.069525 -0.069525
0.750246 -0.069300 -0.069300
0.946141 0.211591 0.425169
0.026627 0.106789 0.026627
0.084657 0.094508 0.026400
0.435272 -0.035966 -0.067788
0.748618 -0.071098 -0.071098
0.946015 0.211370 0.410047
-0.067055 0.431603 -0.067055
-0.066386 0.428262 -0.066386
0.397834 0.415880 -0.063910
0.742685 0.297896 -0.077577
0.945564 0.210577 0.347799
-0.080749 0.739741 -0.080749
-0.081424 0.739111 -0.081424
0.016796 0.736845 -0.083841
0.711326 0.726280 -0.094882
0.943464 0.725498 0.206890
0.205059 0.942417 0.205059
0.204971 0.942366 0.204971
0.204653 0.942185 0.204653
0.531492 0.941355 0.203205
0.933170 0.937353 0.196250
0.026624 0.026624 0.106092
0.108884 0.026621 0.110565
0.441693 -0.069073 0.062627
0.749815 -0.069776 0.121161
0.946107 0.211532 0.489128
0.026096 0.087378 0.070978
0.072899 0.073261 0.074168
0.432905 -0.058500 0.025307
0.748184 -0.071576 0.090232
0.945982 0.211311 0.478684
-0.066020 0.426432 -0.066020
-0.065335 0.423006 -0.065335
0.395592 0.410296 -0.062793
0.742237 0.288782 -0.053051
0.945530 0.210517 0.434419
-0.081789 0.738769 -0.081789
-0.082465 0.738136 -0.082465
0.005707 0.735858 -0.084888
0.710863 0.725236 -0.095953
0.943428 0.724320 0.206828
0.204923 0.942339 0.204923
0.204834 0.942288 0.204834
0.204516 0.942106 0.204516
0.529446 0.941274 0.203064
0.933113 0.937263 0.196094
-0.067194 -0.067194 0.432298
0.003106 -0.067446 0.433561
0.432467 -0.068335 0.438006
0.748272 -0.071479 0.422013
0.945989 0.211323 0.612813
-0.065307 -0.065307 0.422864
-0.042886 -0.065571 0.424185
0.423299 -0.066502 0.428838
0.746627 -0.073285 0.412090
0.945863 0.211102 0.608112
-0.062104 0.406848 0.380889
-0.061350 0.403079 0.383532
0.386836 0.388400 0.392332
0.740629 0.252950 0.372678
0.945410 0.210305 0.590085
-0.085522 0.735259 -0.063683
-0.086203 0.734614 -0.058664
-0.040339 0.732291 -0.038221
0.709216 0.721460 0.041462
0.943300 0.720033 0.466437
0.204433 0.942059 0.204433
0.204343 0.942007 0.204343
0.204023 0.941824 0.204023
0.521938 0.940985 0.202560
0.932909 0.936940 0.195535
-0.079790 -0.079790 0.740634
-0.079532 -0.079532 0.740874
0.345443 -0.078612 0.741728
0.740615 -0.074491 0.745525
0.945449 0.210375 0.800166
-0.081673 -0.081673 0.738878
-0.081414 -0.081414 0.739120
0.331927 -0.080490 0.739982
0.738891 -0.076352 0.743815
0.945322 0.210150 0.798857
-0.088458 0.218282 0.732470
-0.088195 0.210729 0.732721
0.275941 0.182626 0.733613
0.732603 0.018141 0.737580
0.944862 0.209343 0.794087
-0.102694 0.718581 0.697509
-0.103398 0.717877 0.697957
-0.105921 0.715343 0.699574
0.701380 0.702873 0.706613
0.942721 0.698990 0.770611
0.202179 0.940767 0.458894
0.202087 0.940714 0.460442
0.201755 0.940523 0.465845
0.483531 0.939653 0.487843
0.931977 0.935453 0.559719
0.205667 0.205667 0.942765
0.205701 0.205701 0.942784
0.205821 0.205821 0.942853
0.754091 0.206359 0.943160
0.943251 0.208732 0.944514
0.205421 0.205421 0.942624
0.205455 0.205455 0.942644
0.205576 0.205576 0.942712
0.752355 0.206116 0.943021
0.943115 0.208497 0.944380
0.204537 0.204537 0.942118
0.204571 0.204571 0.942138
0.204693 0.204693 0.942208
0.745963 0.205241 0.942521
0.942623 0.207652 0.943898
0.200401 0.679182 0.939745
0.200438 0.678180 0.939766
0.200568 0.674549 0.939841
0.712879 0.656973 0.940176
0.940322 0.532776 0.941645
0.190990 0.934305 0.928167
0.190881 0.934242 0.928178
0.190493 0.934017 0.928217
0.188721 0.932985 0.928390
0.927759 0.928220 0.929361
