luts/Z-Log2/gain -2/zLog2_zRGB-ax2_32_gain-2.cube
TITLE "Generated by ZCAM"
LUT_3D_SIZE 5
DOMAIN_MIN 0.000000 0.000000 0.000000
DOMAIN_MAX 0.903226 0.903226 0.903226
0.016055 0.016055 0.016055
0.151329 0.016055 0.016055
0.482299 0.016055 0.016055
0.782836 0.016055 0.120650
0.822913 0.016055 0.212029
0.016055 0.133075 0.016055
0.090412 0.111177 0.016055
0.467863 0.016355 0.016055
0.780157 0.016055 0.045386
0.822913 0.016055 0.199400
0.016055 0.461614 0.016055
0.016055 0.455844 0.016055
0.405254 0.433736 0.016055
0.770196 0.285785 0.016055
0.822913 0.016055 0.148496
0.016055 0.765103 0.016055
0.016055 0.764002 0.016055
0.016055 0.760009 0.016055
0.716207 0.740907 0.016055
0.822913 0.378060 0.016055
0.016055 0.822913 0.016055
0.016055 0.822913 0.016055
0.016055 0.822913 0.016055
0.016055 0.822912 0.016055
0.801062 0.822912 0.016055
0.016055 0.016055 0.131826
0.136438 0.016055 0.139872
0.478583 0.016055 0.167372
0.782131 0.016055 0.267433
0.822913 0.016055 0.248320
0.016055 0.098247 0.060872
0.069687 0.070576 0.072831
0.463842 0.016055 0.108910
0.779440 0.016055 0.226281
0.822913 0.016055 0.237331
0.016055 0.452650 0.016055
0.016055 0.446607 0.016055
0.399737 0.423373 0.016055
0.769427 0.264793 0.016055
0.822912 0.016055 0.193653
0.016055 0.763403 0.016055
0.016055 0.762290 0.016055
0.016055 0.758257 0.016055
0.715175 0.738971 0.016055
0.822913 0.374321 0.016055
0.016055 0.822913 0.016055
0.016055 0.822912 0.016055
0.016055 0.822912 0.016055
0.016055 0.822913 0.016055
0.801243 0.822912 0.016055
0.016055 0.016055 0.462805
0.074192 0.016055 0.464961
0.464669 0.016055 0.472460
0.779587 0.016055 0.502933
0.822913 0.016055 0.351275
0.016055 0.016055 0.446353
0.016055 0.016055 0.448696
0.448761 0.016055 0.456842
0.776852 0.016055 0.489738
0.822913 0.016055 0.344108
0.016055 0.416854 0.373523
0.016055 0.409613 0.376834
0.378839 0.381539 0.388253
0.766649 0.176493 0.433343
0.822913 0.016055 0.315727
0.016055 0.757190 0.016055
0.016055 0.756037 0.016055
0.016055 0.751867 0.016055
0.711445 0.731890 0.016055
0.822912 0.360267 0.115357
0.016055 0.822913 0.016055
0.016055 0.822912 0.016055
0.016055 0.822913 0.016055
0.016055 0.822913 0.016055
0.801896 0.822913 0.016055
0.016055 0.016055 0.766658
0.016055 0.016055 0.767074
0.385891 0.016055 0.768550
0.767564 0.016055 0.775010
0.822912 0.016055 0.562609
0.016055 0.016055 0.763594
0.016055 0.016055 0.764019
0.362165 0.016055 0.765525
0.764588 0.016055 0.772124
0.822913 0.016055 0.560598
0.016055 0.087524 0.752190
0.016055 0.057810 0.752641
0.245005 0.016055 0.754245
0.753510 0.016055 0.761310
0.822913 0.016055 0.553125
0.016055 0.726397 0.690019
0.016055 0.725041 0.690657
0.016055 0.720121 0.692912
0.693537 0.696180 0.702696
0.822913 0.278704 0.512367
0.016055 0.822913 0.016055
0.016055 0.822912 0.016055
0.016055 0.822912 0.016055
0.016055 0.822913 0.016055
0.804928 0.822912 0.016055
0.016055 0.016055 0.822912
0.016055 0.016055 0.822912
0.016055 0.016055 0.822912
0.466885 0.016055 0.822912
0.816306 0.016055 0.822912
0.016055 0.016055 0.822912
0.016055 0.016055 0.822912
0.016055 0.016055 0.822912
0.463030 0.016055 0.822912
0.816296 0.016055 0.822912
0.016055 0.016055 0.822912
0.016055 0.016055 0.822912
0.016055 0.016055 0.822912
0.448358 0.016055 0.822912
0.816259 0.016055 0.822912
0.016055 0.204040 0.822912
0.016055 0.198372 0.822912
0.016055 0.177228 0.822912
0.356873 0.056147 0.822912
0.816080 0.016055 0.822912
0.016055 0.822913 0.790557
0.016055 0.822912 0.790971
0.016055 0.822913 0.792450
0.016055 0.822912 0.799084
0.814908 0.817239 0.822912
