luts/Z-Log2/gain -1/zLog2_zRGB-ax2_32_gain-1_desatuation.cube
TITLE "Generated by ZCAM"
LUT_3D_SIZE 5
DOMAIN_MIN 0.000000 0.000000 0.000000
DOMAIN_MAX 0.903226 0.903226 0.903226
0.016055 0.016055 0.016055
0.138328 0.025481 0.025481
0.489113 -0.078557 -0.078557
0.792567 -0.019449 -0.019449
0.959952 0.236222 0.476983
0.026199 0.126566 0.026199
0.101395 0.112637 0.026602
0.480484 -0.035036 -0.076831
0.791001 -0.021399 -0.021399
0.959852 0.236041 0.461272
-0.076100 0.476832 -0.076100
-0.075434 0.473501 -0.075434
0.442929 0.461096 -0.072953
0.785251 0.370192 -0.028493
0.959489 0.235386 0.393804
-0.031998 0.782377 -0.031998
-0.032745 0.781761 -0.032745
0.079661 0.779541 -0.035428
0.755043 0.769127 -0.047797
0.957788 0.768657 0.232321
0.230786 0.956934 0.230786
0.230712 0.956893 0.230712
0.230445 0.956745 0.230445
0.582405 0.956066 0.229227
0.949429 0.952773 0.223340
0.026235 0.026235 0.125767
0.128915 0.025973 0.130922
0.486865 -0.078107 0.081246
0.792154 -0.019964 0.192970
0.959925 0.236174 0.539786
0.026615 0.104703 0.085954
0.088541 0.088962 0.090028
0.478128 -0.065109 0.037835
0.790583 -0.021919 0.160149
0.959825 0.235992 0.529523
-0.075069 0.471674 -0.075069
-0.074383 0.468247 -0.074383
0.440660 0.455482 -0.071830
0.784814 0.361599 0.001383
0.959462 0.235337 0.486459
-0.033150 0.781426 -0.033150
-0.033900 0.780807 -0.033900
0.067859 0.778574 -0.036592
0.754538 0.768086 -0.049013
0.957759 0.767547 0.232269
0.230672 0.956871 0.230672
0.230597 0.956829 0.230597
0.230330 0.956680 0.230330
0.580437 0.955999 0.229108
0.949381 0.952699 0.223207
-0.076239 -0.076239 0.477524
0.013186 -0.076490 0.478782
0.477693 -0.077374 0.483201
0.790668 -0.021813 0.487803
0.959830 0.236002 0.660173
-0.074355 -0.074355 0.468103
-0.045307 -0.074619 0.469426
0.468541 -0.075549 0.474075
0.789079 -0.023783 0.478444
0.959729 0.235820 0.655653
-0.071136 0.452011 0.425723
-0.070377 0.448213 0.428411
0.431759 0.433352 0.437345
0.783244 0.327922 0.441134
0.959365 0.235162 0.638284
-0.037297 0.777987 -0.010835
-0.038056 0.777354 -0.004373
0.018752 0.775074 0.021283
0.752740 0.764311 0.106772
0.957655 0.763511 0.518174
0.230260 0.956641 0.230260
0.230185 0.956599 0.230185
0.229915 0.956449 0.229915
0.573195 0.955762 0.228683
0.949210 0.952432 0.222732
-0.030936 -0.030936 0.783249
-0.030651 -0.030651 0.783484
0.415466 -0.029635 0.784317
0.783533 -0.025102 0.788011
0.959397 0.235220 0.839627
-0.033021 -0.033021 0.781533
-0.032734 -0.032734 0.781770
0.402411 -0.031711 0.782613
0.781849 -0.027145 0.786351
0.959294 0.235034 0.838461
-0.040568 0.293761 0.775250
-0.040275 0.286236 0.775497
0.348818 0.257337 0.776372
0.775687 0.081113 0.780262
0.958923 0.234365 0.834169
-0.056719 0.761418 0.741555
-0.057530 0.760710 0.741931
-0.060435 0.758156 0.743290
0.744455 0.745858 0.749374
0.957182 0.743561 0.812182
0.228362 0.955583 0.511384
0.228283 0.955539 0.512891
0.228003 0.955383 0.518165
0.535698 0.954667 0.539971
0.948431 0.951202 0.610530
0.231296 0.231296 0.957218
0.231324 0.231324 0.957234
0.231425 0.231425 0.957290
0.796049 0.231876 0.957541
0.957645 0.233857 0.958641
0.231090 0.231090 0.957103
0.231118 0.231118 0.957119
0.231219 0.231219 0.957175
0.794380 0.231672 0.957427
0.957534 0.233662 0.958533
0.230348 0.230348 0.956690
0.230376 0.230376 0.956706
0.230479 0.230479 0.956763
0.788264 0.230938 0.957019
0.957134 0.232957 0.958142
0.226858 0.724931 0.954743
0.226888 0.723965 0.954760
0.226999 0.720459 0.954822
0.757077 0.703489 0.955097
0.955250 0.583595 0.956303
0.218858 0.950253 0.945424
0.218765 0.950201 0.945431
0.218435 0.950014 0.945454
0.216926 0.949163 0.945555
0.944959 0.945316 0.946203
