luts/Z-Log2/gain -1/zLog2_zRGB-ax2_32_gain-1_desatuation.cube
TITLE "Generated by ZCAM"
LUT_3D_SIZE 8
DOMAIN_MIN 0.000000 0.000000 0.000000
DOMAIN_MAX 0.903226 0.903226 0.903226
0.016055 0.016055 0.016055
0.018355 0.016577 0.016577
0.185030 0.019217 0.019217
0.391216 -0.058977 -0.058977
0.581160 -0.096966 -0.096966
0.752066 -0.067278 -0.067278
0.888767 0.116079 0.217669
0.959952 0.236222 0.476983
0.016055 0.016055 0.016055
0.016055 0.016055 0.016055
0.168403 0.022072 0.022072
0.383982 -0.057530 -0.057530
0.578453 -0.096425 -0.096425
0.751018 -0.068443 -0.068443
0.888491 0.115644 0.199602
0.959900 0.236129 0.469068
0.021467 0.172286 0.021467
0.022423 0.166033 0.022423
0.144121 0.156995 0.023631
0.373347 0.087070 -0.055403
0.574559 -0.028033 -0.095646
0.749530 -0.070092 -0.070092
0.888097 0.115028 0.169832
0.959827 0.235996 0.457220
-0.056359 0.378124 -0.056359
-0.055802 0.375341 -0.055802
0.013182 0.371342 -0.055002
0.342287 0.361529 -0.053040
0.565022 0.290148 -0.093738
0.745966 0.200403 -0.074009
0.887160 0.113560 0.113560
0.959653 0.235681 0.426268
-0.094644 0.569553 -0.094644
-0.094434 0.568502 -0.094434
-0.094135 0.567007 -0.094135
0.199305 0.563426 -0.093419
0.537483 0.554683 -0.091671
0.737257 0.503985 -0.083402
0.884893 0.511125 0.110025
0.959236 0.260969 0.332673
-0.078872 0.741486 -0.078872
-0.079309 0.741081 -0.079309
-0.079926 0.740507 -0.079926
-0.081389 0.739143 -0.081389
0.427197 0.735881 -0.084864
0.712913 0.727935 -0.093177
0.879238 0.724667 0.101276
0.958222 0.719225 0.233102
0.105585 0.882032 0.105585
0.105413 0.881920 0.105413
0.105169 0.881763 0.105169
0.104592 0.881389 0.104592
0.103217 0.880498 0.103217
0.669480 0.878350 0.099913
0.864733 0.873016 0.091776
0.955655 0.880695 0.228491
0.230786 0.956934 0.230786
0.230748 0.956913 0.230748
0.230694 0.956883 0.230694
0.230565 0.956811 0.230565
0.230260 0.956642 0.230260
0.229533 0.956236 0.229533
0.843791 0.955251 0.227768
0.949429 0.952773 0.223340
0.016055 0.016055 0.016055
0.016055 0.016055 0.016055
0.180715 0.020024 0.020993
0.389320 -0.058598 -0.046363
0.580446 -0.096823 -0.053248
0.751789 -0.067587 0.043066
0.888694 0.115964 0.296595
0.959938 0.236197 0.512558
0.016055 0.016055 0.016055
0.016055 0.016055 0.016055
0.163833 0.022736 0.022736
0.382027 -0.057139 -0.057139
0.577729 -0.096280 -0.081858
0.750740 -0.068752 0.017850
0.888417 0.115529 0.282954
0.959886 0.236104 0.506408
0.022906 0.162599 0.022906
0.023732 0.156166 0.023732
0.139073 0.146900 0.024740
0.371289 0.074688 -0.054992
0.573820 -0.046396 -0.095498
0.749249 -0.070402 -0.025301
0.888024 0.114912 0.262366
0.959813 0.235971 0.497225
-0.055498 0.373820 -0.055498
-0.054929 0.370977 -0.054929
0.005265 0.366882 -0.054110
0.340349 0.356803 -0.052095
0.564243 0.283821 -0.093583
0.745680 0.192131 -0.074321
0.887085 0.113443 0.207080
0.959639 0.235656 0.472888
-0.094320 0.567931 -0.094320
-0.094108 0.566871 -0.094108
-0.093806 0.565363 -0.093806
0.195610 0.561750 -0.093084
0.536770 0.552927 -0.091319
0.736958 0.501674 -0.083721
0.884816 0.508560 0.109904
0.959222 0.250378 0.398832
-0.079545 0.740861 -0.079545
-0.079982 0.740455 -0.079982
-0.080601 0.739879 -0.080601
-0.082065 0.738511 -0.082065
0.425495 0.735237 -0.085545
0.712614 0.727263 -0.093870
0.879154 0.723960 0.101148
0.958207 0.718396 0.233075
0.105319 0.881860 0.105319
0.105147 0.881748 0.105147
0.104903 0.881590 0.104903
0.104324 0.881216 0.104324
0.102947 0.880323 0.102947
0.668942 0.878169 0.099636
0.864621 0.872823 0.091483
0.955639 0.880511 0.228462
0.230727 0.956902 0.230727
0.230689 0.956880 0.230689
0.230634 0.956850 0.230634
0.230506 0.956778 0.230506
0.230201 0.956608 0.230201
0.229472 0.956202 0.229472
0.843636 0.955216 0.227704
0.949404 0.952735 0.223271
0.021545 0.021545 0.171797
0.021161 0.021161 0.174166
0.174596 0.020600 0.177477
0.386615 -0.058057 0.144865
0.579434 -0.096621 0.127157
0.751397 -0.068023 0.181243
0.888591 0.115801 0.379425
0.959919 0.236162 0.551964
0.023985 0.023985 0.154018
0.023691 0.023691 0.156509
0.157417 0.023252 0.160006
0.379235 -0.056581 0.125924
0.576701 -0.096074 0.108508
0.750346 -0.069189 0.164935
0.888313 0.115366 0.369368
0.959867 0.236069 0.547141
0.024585 0.148462 0.128803
0.025203 0.141795 0.130956
0.131729 0.132324 0.133828
0.368342 0.056231 0.097351
0.572770 -0.070335 0.080235
0.748852 -0.070839 0.140327
0.887919 0.114748 0.354366
0.959794 0.235936 0.540073
-0.054248 0.367570 -0.016359
-0.053659 0.364626 -0.011280
-0.005479 0.360377 -0.004076
0.337593 0.349908 0.013363
0.563138 0.274549 0.003675
0.745275 0.180159 0.073862
0.886979 0.113277 0.315614
0.959619 0.235621 0.522033
-0.093857 0.565615 -0.093857
-0.093642 0.564542 -0.093642
-0.093337 0.563015 -0.093337
0.190332 0.559357 -0.092605
0.535759 0.550417 -0.090817
0.736533 0.498366 -0.084172
0.884706 0.504873 0.195889
0.959202 0.237462 0.468856
-0.080498 0.739975 -0.080498
-0.080936 0.739567 -0.080936
-0.081555 0.738988 -0.081555
-0.083023 0.737613 -0.083023
0.423070 0.734323 -0.086510
0.712191 0.726309 -0.094852
0.879036 0.722956 0.100966
0.958186 0.717217 0.233038
0.104944 0.881617 0.104944
0.104771 0.881505 0.104771
0.104526 0.881346 0.104526
0.103946 0.880971 0.103946
0.102564 0.880075 0.102564
0.668178 0.877914 0.099244
0.864461 0.872549 0.091068
0.955616 0.880250 0.228421
0.230644 0.956855 0.230644
0.230605 0.956833 0.230605
0.230551 0.956803 0.230551
0.230422 0.956731 0.230422
0.230116 0.956561 0.230116
0.229386 0.956154 0.229386
0.843415 0.955166 0.227616
0.949369 0.952680 0.223175
-0.056454 -0.056454 0.378601
-0.056665 -0.056665 0.379656
0.114944 -0.056962 0.381139
0.379199 -0.057654 0.384602
0.577018 -0.096138 0.355706
0.750467 -0.069054 0.370978
0.888345 0.115416 0.497444
0.959873 0.236079 0.617635
-0.054884 -0.054884 0.370750
-0.055104 -0.055104 0.371848
0.094949 -0.055412 0.373388
0.371588 -0.056130 0.376979
0.574250 -0.095584 0.347428
0.749412 -0.070222 0.362936
0.888066 0.114980 0.492215
0.959821 0.235986 0.614542
-0.052544 0.063534 0.359050
-0.052779 0.054247 0.360223
0.064932 0.040283 0.361867
0.360272 0.001859 0.365691
0.570266 -0.094787 0.335239
0.747912 -0.071876 0.351102
0.887671 0.114360 0.484558
0.959747 0.235853 0.610062
-0.051105 0.351856 0.323263
-0.050461 0.348635 0.325562
-0.028473 0.343990 0.328805
0.330358 0.331915 0.335820
0.560501 0.251165 0.303152
0.744316 0.150258 0.320756
0.886728 0.112885 0.465137
0.959573 0.235537 0.598929
-0.092739 0.560027 0.168014
-0.092518 0.558921 0.170516
-0.092204 0.557348 0.174032
0.177584 0.553576 0.182254
0.533359 0.544350 0.201289
0.735527 0.490340 0.227504
0.884447 0.495843 0.409717
0.959154 0.234782 0.568720
-0.082756 0.737864 -0.082756
-0.083196 0.737451 -0.083196
-0.083819 0.736865 -0.083819
-0.085294 0.735474 -0.085294
0.417237 0.732146 -0.088798
0.711195 0.724037 -0.097179
0.878755 0.720557 0.166981
0.958137 0.714392 0.458965
0.104051 0.881039 0.104051
0.103877 0.880926 0.103877
0.103631 0.880766 0.103631
0.103047 0.880388 0.103047
0.101656 0.879484 0.101656
0.666361 0.877306 0.098313
0.864085 0.871898 0.090082
0.955562 0.879630 0.228324
0.230445 0.956744 0.230445
0.230407 0.956723 0.230407
0.230352 0.956693 0.230352
0.230223 0.956621 0.230223
0.229916 0.956450 0.229916
0.229183 0.956041 0.229183
0.842892 0.955049 0.227405
0.949287 0.952552 0.222946
-0.094805 -0.094805 0.570356
-0.094885 -0.094885 0.570756
0.030695 -0.094998 0.571320
0.322057 -0.095263 0.572645
0.570271 -0.095882 0.575739
0.748255 -0.071498 0.563073
0.887761 0.114502 0.631283
0.959764 0.235883 0.707834
-0.094218 -0.094218 0.567419
-0.094299 -0.094299 0.567826
0.006672 -0.094414 0.568398
0.312623 -0.094683 0.569744
0.567412 -0.095311 0.572887
0.747187 -0.072671 0.559832
0.887481 0.114062 0.628885
0.959712 0.235789 0.706174
-0.093372 -0.093372 0.563190
-0.093455 -0.093455 0.563605
-0.034564 -0.093572 0.564191
0.298477 -0.093847 0.565567
0.563297 -0.094490 0.568780
0.745668 -0.074334 0.555159
0.887082 0.113438 0.625439
0.959638 0.235655 0.703797
-0.091294 0.259794 0.552800
-0.091382 0.254946 0.553239
-0.091505 0.247979 0.553858
0.260857 0.230825 0.555312
0.553202 0.187280 0.558703
0.742027 0.066374 0.543668
0.886130 0.111952 0.617005
0.959462 0.235338 0.698020
-0.089958 0.546120 0.521633
-0.089720 0.544929 0.522478
-0.089381 0.543234 0.523673
0.145415 0.539166 0.526494
0.526958 0.528538 0.532503
0.733126 0.470104 0.513651
0.883831 0.472517 0.595286
0.959042 0.234580 0.683413
-0.088136 0.732777 0.398199
-0.088582 0.732352 0.398957
-0.089212 0.731750 0.400024
-0.090703 0.730320 0.402526
0.402857 0.726898 0.408346
0.708859 0.718559 0.421664
0.878089 0.714729 0.530319
0.958020 0.707486 0.641655
0.101919 0.879655 0.101919
0.101742 0.879540 0.101742
0.101492 0.879377 0.101492
0.100898 0.878991 0.100898
0.099486 0.878071 0.099486
0.661992 0.875851 0.096089
0.863190 0.870337 0.097850
0.955433 0.878141 0.433596
0.229974 0.956482 0.229974
0.229935 0.956460 0.229935
0.229879 0.956429 0.229879
0.229749 0.956357 0.229749
0.229439 0.956184 0.229439
0.228699 0.955771 0.228699
0.841643 0.954768 0.226903
0.949092 0.952246 0.222401
-0.077924 -0.077924 0.742364
-0.077757 -0.077757 0.742519
-0.077521 -0.077521 0.742737
0.264139 -0.076964 0.743251
0.532974 -0.075651 0.744460
0.742390 -0.072563 0.747286
0.886363 0.112315 0.768466
0.959505 0.235416 0.812814
-0.079142 -0.079142 0.741236
-0.078974 -0.078974 0.741392
-0.078738 -0.078738 0.741611
0.251554 -0.078179 0.742128
0.529283 -0.076862 0.743345
0.741282 -0.073766 0.746188
0.886076 0.111868 0.767425
0.959453 0.235320 0.812035
-0.080868 -0.080868 0.739630
-0.080699 -0.080699 0.739787
-0.080462 -0.080462 0.740008
0.232829 -0.079901 0.740530
0.523952 -0.078580 0.741757
0.739706 -0.075471 0.744625
0.885670 0.111234 0.765944
0.959378 0.235185 0.810925
-0.084972 0.087353 0.735779
-0.084802 0.080238 0.735939
-0.084563 0.069987 0.736165
0.184142 0.044807 0.736697
0.510788 -0.028109 0.737951
0.735927 -0.079527 0.740878
0.884699 0.109722 0.762397
0.959200 0.234865 0.808261
-0.094813 0.474580 0.726347
-0.094640 0.472942 0.726515
-0.094396 0.470606 0.726753
0.035080 0.464992 0.727313
0.476038 0.451164 0.728631
0.726682 0.414540 0.731708
0.882353 0.402323 0.753703
0.958775 0.234099 0.801751
-0.101091 0.720177 0.698972
-0.101547 0.719724 0.699259
-0.102192 0.719081 0.699665
-0.103720 0.717555 0.700632
0.365027 0.713899 0.702958
0.702879 0.704367 0.708096
0.876490 0.699983 0.731186
0.957743 0.689732 0.785161
0.096744 0.876280 0.648914
0.096560 0.876159 0.649122
0.096300 0.875989 0.649415
0.095684 0.875585 0.650105
0.094217 0.874623 0.651721
0.651224 0.872300 0.655456
0.861053 0.866525 0.663848
0.955126 0.874495 0.736143
0.228841 0.955850 0.228841
0.228801 0.955828 0.228801
0.228744 0.955796 0.228744
0.228611 0.955722 0.228611
0.228293 0.955545 0.228293
0.227535 0.955121 0.227535
0.838623 0.954094 0.225697
0.948626 0.951512 0.367226
0.106528 0.106528 0.882641
0.106593 0.106593 0.882683
0.106686 0.106686 0.882743
0.238843 0.106904 0.882884
0.555574 0.107419 0.883216
0.746120 0.108627 0.883994
0.883259 0.111439 0.885801
0.958882 0.234291 0.905865
0.106050 0.106050 0.882332
0.106116 0.106116 0.882375
0.106208 0.106208 0.882435
0.222530 0.106428 0.882576
0.551946 0.106944 0.882910
0.744954 0.108157 0.883691
0.882957 0.110978 0.885506
0.958828 0.234194 0.905632
0.105372 0.105372 0.881894
0.105438 0.105438 0.881936
0.105531 0.105531 0.881997
0.198140 0.105751 0.882139
0.546695 0.106270 0.882475
0.743293 0.107489 0.883261
0.882529 0.110325 0.885086
0.958751 0.234056 0.905301
0.103755 0.103755 0.880847
0.103822 0.103822 0.880891
0.103917 0.103917 0.880952
0.124736 0.104140 0.881096
0.533666 0.104665 0.881437
0.739302 0.105898 0.882234
0.881508 0.108768 0.884085
0.958569 0.233727 0.904512
0.099857 0.421642 0.878314
0.099926 0.419099 0.878358
0.100023 0.415434 0.878422
0.100253 0.406406 0.878571
0.498566 0.382888 0.878923
0.729504 0.313527 0.879749
0.879037 0.105015 0.881663
0.958134 0.232943 0.902603
0.090187 0.702451 0.871967
0.090261 0.701964 0.872016
0.090365 0.701275 0.872085
0.090611 0.699632 0.872247
0.374462 0.695680 0.872629
0.703673 0.685926 0.873525
0.872855 0.660148 0.875602
0.957074 0.636437 0.897836
0.083709 0.867666 0.855679
0.083508 0.867532 0.855720
0.083224 0.867342 0.855779
0.082550 0.866892 0.855918
0.080945 0.865818 0.856249
0.622974 0.863224 0.857037
0.856032 0.856911 0.859101
0.954387 0.865094 0.884888
0.226055 0.954294 0.828826
0.226012 0.954270 0.828901
0.225953 0.954237 0.829008
0.225812 0.954158 0.829260
0.225476 0.953970 0.829852
0.224676 0.953522 0.831231
0.831088 0.952435 0.834372
0.947504 0.949711 0.841245
0.231296 0.231296 0.957218
0.231311 0.231311 0.957226
0.231331 0.231331 0.957238
0.231380 0.231380 0.957265
0.503129 0.231494 0.957328
0.754336 0.231764 0.957479
0.893392 0.232396 0.957830
0.957645 0.233857 0.958641
0.231190 0.231190 0.957159
0.231205 0.231205 0.957167
0.231225 0.231225 0.957179
0.231274 0.231274 0.957206
0.496791 0.231389 0.957270
0.753181 0.231659 0.957420
0.893110 0.232292 0.957772
0.957588 0.233756 0.958585
0.231040 0.231040 0.957075
0.231054 0.231054 0.957084
0.231075 0.231075 0.957095
0.231124 0.231124 0.957122
0.487309 0.231239 0.957186
0.751531 0.231510 0.957337
0.892710 0.232145 0.957690
0.957506 0.233614 0.958506
0.230683 0.230683 0.956877
0.230697 0.230697 0.956885
0.230718 0.230718 0.956896
0.230767 0.230767 0.956924
0.462228 0.230883 0.956988
0.747549 0.231156 0.957140
0.891755 0.231796 0.957496
0.957314 0.233275 0.958318
0.229829 0.229829 0.956401
0.229844 0.229844 0.956409
0.229865 0.229865 0.956421
0.229915 0.229915 0.956449
0.386933 0.230033 0.956515
0.737654 0.230310 0.956669
0.889443 0.230961 0.957031
0.956853 0.232464 0.957868
0.227749 0.652508 0.955241
0.227765 0.651679 0.955250
0.227787 0.650500 0.955262
0.227839 0.647673 0.955291
0.227962 0.640764 0.955360
0.711082 0.623004 0.955522
0.883640 0.569888 0.955900
0.955732 0.230495 0.956772
0.222475 0.867044 0.952288
0.222493 0.866910 0.952297
0.222517 0.866720 0.952311
0.222574 0.866269 0.952343
0.222710 0.865192 0.952420
0.618558 0.862583 0.952599
0.867701 0.855992 0.953018
0.952879 0.837325 0.953986
0.218858 0.950253 0.945424
0.218810 0.950226 0.945427
0.218743 0.950188 0.945432
0.218584 0.950098 0.945443
0.218206 0.949885 0.945469
0.217305 0.949376 0.945530
0.810710 0.948146 0.945668
0.944959 0.945316 0.946203
