luts/Z-Log2/gain -1/zLog2_zRGB-ax2_32_gain-1.cube
TITLE "Generated by ZCAM"
LUT_3D_SIZE 8
DOMAIN_MIN 0.000000 0.000000 0.000000
DOMAIN_MAX 0.903226 0.903226 0.903226
0.016055 0.016055 0.016055
0.047273 0.016055 0.016055
0.227312 0.016055 0.016055
0.432365 0.016055 0.016055
0.617092 0.016055 0.016055
0.784831 0.016055 0.100018
0.822913 0.016055 0.187274
0.822913 0.016055 0.212029
0.016055 0.031274 0.016055
0.016055 0.016515 0.016055
0.198004 0.016055 0.016055
0.420310 0.016055 0.016055
0.612613 0.016055 0.016055
0.783118 0.016055 0.047931
0.822913 0.016055 0.170145
0.822912 0.016055 0.205594
0.016055 0.204974 0.016055
0.016055 0.193712 0.016055
0.150781 0.176999 0.016055
0.401985 0.133702 0.016055
0.606101 0.016055 0.016055
0.780665 0.016055 0.016055
0.822913 0.016055 0.144042
0.822913 0.016055 0.196215
0.016055 0.410305 0.016055
0.016055 0.405475 0.016055
0.016055 0.398456 0.016055
0.351033 0.380924 0.016055
0.589743 0.332054 0.016055
0.774715 0.152402 0.016055
0.822913 0.016055 0.067691
0.822912 0.016055 0.172548
0.016055 0.597593 0.016055
0.016055 0.595785 0.016055
0.016055 0.593201 0.016055
0.151456 0.586941 0.016055
0.544095 0.571238 0.016055
0.759595 0.527885 0.016055
0.822912 0.244982 0.016055
0.822913 0.016055 0.107541
0.016055 0.767040 0.016055
0.016055 0.766334 0.016055
0.016055 0.765332 0.016055
0.016055 0.762936 0.016055
0.351812 0.757137 0.016055
0.717855 0.742705 0.016055
0.822912 0.605338 0.016055
0.822912 0.266372 0.016055
0.016055 0.822912 0.016055
0.016055 0.822912 0.016055
0.016055 0.822913 0.016055
0.016055 0.822913 0.016055
0.016055 0.822912 0.016055
0.446543 0.822913 0.016055
0.800899 0.822912 0.016055
0.822913 0.608440 0.016055
0.016055 0.822913 0.016055
0.016055 0.822912 0.016055
0.016055 0.822912 0.016055
0.016055 0.822912 0.016055
0.016055 0.822912 0.016055
0.016055 0.822912 0.016055
0.455227 0.822912 0.016055
0.801062 0.822912 0.016055
0.016055 0.016055 0.028340
0.034667 0.016055 0.034470
0.219850 0.016055 0.043716
0.429239 0.016055 0.068764
0.615915 0.016055 0.119447
0.784379 0.016055 0.209155
0.822913 0.016055 0.234853
0.822912 0.016055 0.231306
0.016055 0.016055 0.016055
0.016055 0.016055 0.016055
0.189696 0.016055 0.016055
0.416997 0.016055 0.019631
0.611409 0.016055 0.073452
0.782661 0.016055 0.177020
0.822913 0.016055 0.220644
0.822913 0.016055 0.225355
0.016055 0.187424 0.016055
0.016055 0.175437 0.016055
0.141156 0.157634 0.016055
0.398362 0.111836 0.016055
0.604855 0.016055 0.016055
0.780201 0.016055 0.125340
0.822913 0.016055 0.198976
0.822913 0.016055 0.216671
0.016055 0.402815 0.016055
0.016055 0.397808 0.016055
0.016055 0.390531 0.016055
0.346335 0.372344 0.016055
0.588379 0.320852 0.016055
0.774233 0.131711 0.016055
0.822912 0.016055 0.139234
0.822913 0.016055 0.194810
0.016055 0.594800 0.016055
0.016055 0.592965 0.016055
0.016055 0.590339 0.016055
0.141850 0.583978 0.016055
0.542352 0.568010 0.016055
0.759061 0.523819 0.016055
0.822913 0.236907 0.016055
0.822913 0.016055 0.134635
0.016055 0.765951 0.016055
0.016055 0.765241 0.016055
0.016055 0.764231 0.016055
0.016055 0.761819 0.016055
0.347133 0.755983 0.016055
0.717191 0.741462 0.016055
0.822913 0.603975 0.016055
0.822913 0.263201 0.016055
0.016055 0.822912 0.016055
0.016055 0.822913 0.016055
0.016055 0.822913 0.016055
0.016055 0.822913 0.016055
0.016055 0.822913 0.016055
0.445298 0.822912 0.016055
0.801122 0.822912 0.016055
0.822913 0.607879 0.016055
0.016055 0.822912 0.016055
0.016055 0.822913 0.016055
0.016055 0.822913 0.016055
0.016055 0.822913 0.016055
0.016055 0.822912 0.016055
0.016055 0.822913 0.016055
0.454737 0.822912 0.016055
0.801155 0.822912 0.016055
0.016055 0.016055 0.204100
0.019058 0.016055 0.208318
0.208934 0.016055 0.214177
0.424739 0.016055 0.227529
0.614240 0.016055 0.256892
0.783738 0.016055 0.317536
0.822912 0.016055 0.291965
0.822912 0.016055 0.256629
0.016055 0.016055 0.171363
0.016055 0.016055 0.176083
0.177538 0.016055 0.182629
0.412221 0.016055 0.197534
0.609694 0.016055 0.229900
0.782013 0.016055 0.295363
0.822913 0.016055 0.280128
0.822912 0.016055 0.251145
0.016055 0.160668 0.118788
0.016055 0.147642 0.124259
0.127173 0.128486 0.131790
0.393135 0.075255 0.149061
0.603079 0.016055 0.186921
0.779542 0.016055 0.260735
0.822913 0.016055 0.262560
0.822913 0.016055 0.243223
0.016055 0.391762 0.016055
0.016055 0.386495 0.016055
0.016055 0.378846 0.016055
0.339497 0.359506 0.016055
0.586435 0.303959 0.046870
0.773549 0.099770 0.160200
0.822913 0.016055 0.216203
0.822912 0.016055 0.223598
0.016055 0.590780 0.016055
0.016055 0.588903 0.016055
0.016055 0.586217 0.016055
0.127890 0.579708 0.016055
0.539860 0.563351 0.016055
0.758304 0.517923 0.016055
0.822913 0.225108 0.051611
0.822913 0.016055 0.169712
0.016055 0.764400 0.016055
0.016055 0.763682 0.016055
0.016055 0.762662 0.016055
0.016055 0.760227 0.016055
0.340325 0.754340 0.016055
0.716249 0.739691 0.016055
0.822913 0.602026 0.016055
0.822913 0.258667 0.016055
0.016055 0.822913 0.016055
0.016055 0.822913 0.016055
0.016055 0.822912 0.016055
0.016055 0.822913 0.016055
0.016055 0.822912 0.016055
0.443512 0.822912 0.016055
0.801438 0.822912 0.016055
0.822913 0.607084 0.016055
0.016055 0.822913 0.016055
0.016055 0.822913 0.016055
0.016055 0.822913 0.016055
0.016055 0.822913 0.016055
0.016055 0.822913 0.016055
0.016055 0.822913 0.016055
0.454040 0.822912 0.016055
0.801288 0.822912 0.016055
0.016055 0.016055 0.411129
0.016055 0.016055 0.412945
0.181332 0.016055 0.415483
0.413703 0.016055 0.421358
0.610224 0.016055 0.434619
0.782213 0.016055 0.462819
0.822913 0.016055 0.390404
0.822912 0.016055 0.310072
0.016055 0.016055 0.397409
0.016055 0.016055 0.399348
0.146771 0.016055 0.402057
0.400473 0.016055 0.408324
0.605579 0.016055 0.422416
0.780470 0.016055 0.452287
0.822912 0.016055 0.383370
0.822912 0.016055 0.305534
0.016055 0.086504 0.376440
0.016055 0.067447 0.378567
0.090394 0.040274 0.381536
0.380287 0.016055 0.388402
0.598814 0.016055 0.403848
0.777975 0.016055 0.436370
0.822913 0.016055 0.372938
0.822912 0.016055 0.298972
0.016055 0.363182 0.315498
0.016055 0.357085 0.318421
0.016055 0.348098 0.322488
0.322348 0.325058 0.331768
0.581756 0.259400 0.352098
0.771916 0.016055 0.392880
0.822912 0.016055 0.345095
0.822913 0.016055 0.282579
0.016055 0.580908 0.064785
0.016055 0.578926 0.072592
0.016055 0.576089 0.082834
0.091269 0.569206 0.104355
0.533842 0.551861 0.147108
0.756502 0.503233 0.230225
0.822913 0.194805 0.254996
0.822913 0.016055 0.239602
0.016055 0.760673 0.016055
0.016055 0.759938 0.016055
0.016055 0.758896 0.016055
0.016055 0.756409 0.016055
0.323249 0.750405 0.016055
0.714004 0.735437 0.016055
0.822912 0.597310 0.016055
0.822912 0.247692 0.097633
0.016055 0.822912 0.016055
0.016055 0.822913 0.016055
0.016055 0.822912 0.016055
0.016055 0.822912 0.016055
0.016055 0.822913 0.016055
0.439170 0.822912 0.016055
0.802193 0.822913 0.016055
0.822912 0.605186 0.016055
0.016055 0.822913 0.016055
0.016055 0.822912 0.016055
0.016055 0.822912 0.016055
0.016055 0.822912 0.016055
0.016055 0.822913 0.016055
0.016055 0.822913 0.016055
0.452376 0.822913 0.016055
0.801602 0.822912 0.016055
0.016055 0.016055 0.598969
0.016055 0.016055 0.599653
0.104743 0.016055 0.600614
0.385051 0.016055 0.602867
0.600380 0.016055 0.608084
0.778548 0.016055 0.619871
0.822912 0.016055 0.522052
0.822912 0.016055 0.401374
0.016055 0.016055 0.593915
0.016055 0.016055 0.594618
0.055054 0.016055 0.595606
0.369908 0.016055 0.597921
0.595480 0.016055 0.603276
0.776766 0.016055 0.615355
0.822912 0.016055 0.518816
0.822913 0.016055 0.398609
0.016055 0.016055 0.586525
0.016055 0.016055 0.587257
0.016055 0.016055 0.588287
0.346139 0.016055 0.590696
0.588323 0.016055 0.596264
0.774213 0.016055 0.608787
0.822912 0.016055 0.514105
0.822913 0.016055 0.394624
0.016055 0.272872 0.567775
0.016055 0.263854 0.568585
0.016055 0.250700 0.569724
0.275809 0.217474 0.572387
0.570203 0.120000 0.578533
0.767980 0.016055 0.592287
0.822913 0.016055 0.502263
0.822913 0.016055 0.384837
0.016055 0.555250 0.514253
0.016055 0.552974 0.515326
0.016055 0.549710 0.516831
0.016055 0.541767 0.520341
0.518826 0.521577 0.528390
0.752179 0.463302 0.546168
0.822913 0.107339 0.469403
0.822913 0.016055 0.359225
0.016055 0.751547 0.251105
0.016055 0.750778 0.254720
0.016055 0.749687 0.259769
0.016055 0.747085 0.271412
0.276884 0.740785 0.297493
0.708586 0.724981 0.349860
0.822913 0.585492 0.340102
0.822913 0.220153 0.276468
0.016055 0.822913 0.016055
0.016055 0.822913 0.016055
0.016055 0.822912 0.016055
0.016055 0.822913 0.016055
0.016055 0.822912 0.016055
0.428185 0.822913 0.016055
0.804015 0.822912 0.016055
0.822913 0.600597 0.016055
0.016055 0.822912 0.016055
0.016055 0.822913 0.016055
0.016055 0.822912 0.016055
0.016055 0.822913 0.016055
0.016055 0.822913 0.016055
0.016055 0.822913 0.016055
0.448338 0.822912 0.016055
0.802351 0.822912 0.016055
0.016055 0.016055 0.768564
0.016055 0.016055 0.768831
0.016055 0.016055 0.769207
0.294877 0.016055 0.770093
0.574775 0.016055 0.772163
0.769521 0.016055 0.776931
0.822913 0.016055 0.673094
0.822913 0.016055 0.527206
0.016055 0.016055 0.766605
0.016055 0.016055 0.766876
0.016055 0.016055 0.767257
0.271244 0.016055 0.768155
0.569127 0.016055 0.770254
0.767620 0.016055 0.775090
0.822913 0.016055 0.672061
0.822913 0.016055 0.525899
0.016055 0.016055 0.763794
0.016055 0.016055 0.764069
0.016055 0.016055 0.764458
0.234964 0.016055 0.765372
0.560844 0.016055 0.767512
0.764891 0.016055 0.772444
0.822912 0.016055 0.670576
0.822913 0.016055 0.524031
0.016055 0.016055 0.756954
0.016055 0.016055 0.757241
0.016055 0.016055 0.757645
0.126915 0.016055 0.758597
0.539688 0.016055 0.760826
0.758252 0.016055 0.765980
0.822913 0.016055 0.666946
0.822913 0.016055 0.519506
0.016055 0.475897 0.739761
0.016055 0.472442 0.740074
0.016055 0.467448 0.740515
0.016055 0.455096 0.741555
0.477902 0.422384 0.743988
0.741580 0.314360 0.749611
0.822913 0.016055 0.657611
0.822913 0.016055 0.508150
0.016055 0.728102 0.691420
0.016055 0.727230 0.691831
0.016055 0.725991 0.692410
0.016055 0.723030 0.693770
0.128610 0.715855 0.696939
0.695037 0.697677 0.704182
0.822912 0.552992 0.630197
0.822912 0.141057 0.476831
0.016055 0.822913 0.364773
0.016055 0.822912 0.366513
0.016055 0.822913 0.368951
0.016055 0.822912 0.374635
0.016055 0.822912 0.387717
0.397346 0.822912 0.417140
0.808546 0.822912 0.479278
0.822912 0.589116 0.356435
0.016055 0.822912 0.016055
0.016055 0.822912 0.016055
0.016055 0.822912 0.016055
0.016055 0.822912 0.016055
0.016055 0.822913 0.016055
0.016055 0.822912 0.016055
0.438148 0.822912 0.016055
0.804160 0.822912 0.016055
0.016055 0.016055 0.822912
0.016055 0.016055 0.822912
0.016055 0.016055 0.822912
0.016055 0.016055 0.822912
0.383487 0.016055 0.822912
0.636279 0.016055 0.822912
0.816315 0.016055 0.822912
0.822913 0.016055 0.674785
0.016055 0.016055 0.822912
0.016055 0.016055 0.822912
0.016055 0.016055 0.822912
0.016055 0.016055 0.822912
0.375859 0.016055 0.822912
0.634864 0.016055 0.822912
0.816302 0.016055 0.822912
0.822913 0.016055 0.674360
0.016055 0.016055 0.822913
0.016055 0.016055 0.822912
0.016055 0.016055 0.822912
0.016055 0.016055 0.822912
0.364428 0.016055 0.822912
0.632824 0.016055 0.822912
0.816285 0.016055 0.822912
0.822912 0.016055 0.673754
0.016055 0.016055 0.822912
0.016055 0.016055 0.822912
0.016055 0.016055 0.822912
0.016055 0.016055 0.822913
0.333443 0.016055 0.822912
0.627809 0.016055 0.822912
0.816242 0.016055 0.822912
0.822913 0.016055 0.672302
0.016055 0.016055 0.822912
0.016055 0.016055 0.822912
0.016055 0.016055 0.822912
0.016055 0.016055 0.822912
0.232074 0.016055 0.822912
0.614735 0.016055 0.822912
0.816135 0.016055 0.822912
0.822913 0.016055 0.668755
0.016055 0.577193 0.822912
0.016055 0.575721 0.822912
0.016055 0.573624 0.822912
0.016055 0.568591 0.822912
0.016055 0.556233 0.822912
0.574451 0.524008 0.822912
0.815849 0.421531 0.822912
0.822913 0.016055 0.659647
0.016055 0.822912 0.790184
0.016055 0.822913 0.790694
0.016055 0.822913 0.791414
0.016055 0.822913 0.793116
0.016055 0.822913 0.797126
0.271228 0.822912 0.806532
0.814908 0.817239 0.822912
0.822913 0.557652 0.632975
0.016055 0.822912 0.379247
0.016055 0.822912 0.379937
0.016055 0.822913 0.380907
0.016055 0.822912 0.383192
0.016055 0.822913 0.388548
0.016055 0.822913 0.400959
0.409696 0.822913 0.428869
0.808655 0.822912 0.488149
0.016055 0.016055 0.822912
0.016055 0.016055 0.822912
0.016055 0.016055 0.822912
0.016055 0.016055 0.822912
0.016055 0.016055 0.822912
0.394975 0.016055 0.822912
0.638452 0.016055 0.822912
0.816306 0.016055 0.822912
0.016055 0.016055 0.822912
0.016055 0.016055 0.822912
0.016055 0.016055 0.822912
0.016055 0.016055 0.822912
0.016055 0.016055 0.822912
0.391985 0.016055 0.822912
0.637871 0.016055 0.822912
0.816301 0.016055 0.822912
0.016055 0.016055 0.822912
0.016055 0.016055 0.822912
0.016055 0.016055 0.822912
0.016055 0.016055 0.822912
0.016055 0.016055 0.822912
0.387672 0.016055 0.822912
0.637043 0.016055 0.822912
0.816293 0.016055 0.822912
0.016055 0.016055 0.822912
0.016055 0.016055 0.822912
0.016055 0.016055 0.822912
0.016055 0.016055 0.822912
0.016055 0.016055 0.822912
0.377059 0.016055 0.822912
0.635055 0.016055 0.822913
0.816275 0.016055 0.822912
0.016055 0.016055 0.822912
0.016055 0.016055 0.822912
0.016055 0.016055 0.822912
0.016055 0.016055 0.822912
0.016055 0.016055 0.822912
0.348741 0.016055 0.822912
0.630170 0.016055 0.822912
0.816232 0.016055 0.822912
0.016055 0.016055 0.822912
0.016055 0.016055 0.822912
0.016055 0.016055 0.822912
0.016055 0.016055 0.822912
0.016055 0.016055 0.822912
0.255603 0.016055 0.822913
0.617453 0.016055 0.822912
0.816126 0.016055 0.822912
0.016055 0.581344 0.822912
0.016055 0.580740 0.822912
0.016055 0.579883 0.822912
0.016055 0.577846 0.822912
0.016055 0.572958 0.822912
0.016055 0.560969 0.822912
0.578485 0.529808 0.822912
0.815842 0.432011 0.822912
0.016055 0.822913 0.790557
0.016055 0.822913 0.790770
0.016055 0.822912 0.791072
0.016055 0.822912 0.791785
0.016055 0.822912 0.793470
0.016055 0.822913 0.797440
0.297276 0.822913 0.806750
0.814908 0.817239 0.822912
