luts/Z-Log2/gain -1/zLog2_zRGB-ax2_32_gain-1.cube
TITLE "Generated by ZCAM"
LUT_3D_SIZE 32
0.016055 0.016055 0.016055
0.016055 0.016055 0.016055
0.016055 0.016055 0.016055
0.017722 0.016055 0.016055
0.047273 0.016055 0.016055
0.091080 0.016055 0.016055
0.133517 0.016055 0.016055
0.178960 0.016055 0.016055
0.227312 0.016055 0.016055
0.278171 0.016055 0.016055
0.331483 0.016055 0.016055
0.382738 0.016055 0.016055
0.432365 0.016055 0.016055
0.480609 0.016055 0.016055
0.527257 0.016055 0.016055
0.572769 0.016055 0.016055
0.617092 0.016055 0.016055
0.660516 0.016055 0.016055
0.702828 0.016055 0.022467
0.744066 0.016055 0.055661
0.784831 0.016055 0.100018
0.822511 0.016055 0.142748
0.822913 0.016055 0.161825
0.822913 0.016055 0.176221
0.822913 0.016055 0.187274
0.822913 0.016055 0.195855
0.822913 0.016055 0.202562
0.822913 0.016055 0.207846
0.822913 0.016055 0.212029
0.822913 0.016055 0.215348
0.822913 0.016055 0.217993
0.822913 0.016055 0.220099
0.016055 0.016055 0.016055
0.016055 0.016055 0.016055
0.016055 0.016055 0.016055
0.017722 0.016055 0.016055
0.047273 0.016055 0.016055
0.091080 0.016055 0.016055
0.133517 0.016055 0.016055
0.178960 0.016055 0.016055
0.227312 0.016055 0.016055
0.278171 0.016055 0.016055
0.331483 0.016055 0.016055
0.382738 0.016055 0.016055
0.432365 0.016055 0.016055
0.480609 0.016055 0.016055
0.527257 0.016055 0.016055
0.572769 0.016055 0.016055
0.617092 0.016055 0.016055
0.660516 0.016055 0.016055
0.702828 0.016055 0.022467
0.744066 0.016055 0.055661
0.784831 0.016055 0.100018
0.822511 0.016055 0.142748
0.822913 0.016055 0.161825
0.822913 0.016055 0.176221
0.822913 0.016055 0.187274
0.822913 0.016055 0.195855
0.822913 0.016055 0.202562
0.822913 0.016055 0.207846
0.822913 0.016055 0.212029
0.822913 0.016055 0.215348
0.822913 0.016055 0.217993
0.822913 0.016055 0.220099
0.016055 0.016055 0.016055
0.016055 0.016055 0.016055
0.016055 0.016055 0.016055
0.017722 0.016055 0.016055
0.047273 0.016055 0.016055
0.091080 0.016055 0.016055
0.133517 0.016055 0.016055
0.178960 0.016055 0.016055
0.227312 0.016055 0.016055
0.278171 0.016055 0.016055
0.331483 0.016055 0.016055
0.382738 0.016055 0.016055
0.432365 0.016055 0.016055
0.480609 0.016055 0.016055
0.527257 0.016055 0.016055
0.572769 0.016055 0.016055
0.617092 0.016055 0.016055
0.660516 0.016055 0.016055
0.702828 0.016055 0.022467
0.744066 0.016055 0.055661
0.784831 0.016055 0.100018
0.822511 0.016055 0.142748
0.822913 0.016055 0.161825
0.822913 0.016055 0.176221
0.822913 0.016055 0.187274
0.822913 0.016055 0.195855
0.822913 0.016055 0.202562
0.822913 0.016055 0.207846
0.822913 0.016055 0.212029
0.822913 0.016055 0.215348
0.822913 0.016055 0.217993
0.822913 0.016055 0.220099
0.016055 0.016055 0.016055
0.016055 0.016055 0.016055
0.016055 0.016055 0.016055
0.016055 0.016055 0.016055
0.016055 0.016055 0.016055
0.049251 0.016055 0.016055
0.101801 0.016055 0.016055
0.151395 0.016055 0.016055
0.204135 0.016055 0.016055
0.258490 0.016055 0.016055
0.315377 0.016055 0.016055
0.370585 0.016055 0.016055
0.422785 0.016055 0.016055
0.473183 0.016055 0.016055
0.521454 0.016055 0.016055
0.568218 0.016055 0.016055
0.613520 0.016055 0.016055
0.657697 0.016055 0.016055
0.700634 0.016055 0.016055
0.742317 0.016055 0.018261
0.783463 0.016055 0.058801
0.821537 0.016055 0.111467
0.822912 0.016055 0.138643
0.822913 0.016055 0.158496
0.822913 0.016055 0.173675
0.822912 0.016055 0.185309
0.822912 0.016055 0.194323
0.822913 0.016055 0.201362
0.822913 0.016055 0.206900
0.822913 0.016055 0.211276
0.822912 0.016055 0.214751
0.822913 0.016055 0.217511
0.016055 0.031274 0.016055
0.016055 0.031274 0.016055
0.016055 0.031274 0.016055
0.016055 0.019231 0.016055
0.016055 0.016515 0.016055
0.039357 0.016055 0.016055
0.092861 0.016055 0.016055
0.144146 0.016055 0.016055
0.198004 0.016055 0.016055
0.253375 0.016055 0.016055
0.311137 0.016055 0.016055
0.367414 0.016055 0.016055
0.420310 0.016055 0.016055
0.471272 0.016055 0.016055
0.519970 0.016055 0.016055
0.567059 0.016055 0.016055
0.612613 0.016055 0.016055
0.656982 0.016055 0.016055
0.700079 0.016055 0.016055
0.741875 0.016055 0.016055
0.783118 0.016055 0.047931
0.821291 0.016055 0.102905
0.822913 0.016055 0.132579
0.822913 0.016055 0.153891
0.822913 0.016055 0.170145
0.822912 0.016055 0.182594
0.822913 0.016055 0.192211
0.822913 0.016055 0.199708
0.822912 0.016055 0.205594
0.822912 0.016055 0.210243
0.822913 0.016055 0.213930
0.822913 0.016055 0.216859
0.016055 0.069949 0.016055
0.016055 0.069949 0.016055
0.016055 0.069949 0.016055
0.016055 0.054119 0.016055
0.016055 0.050086 0.016055
0.028291 0.045333 0.016055
0.080856 0.039923 0.016055
0.134969 0.033529 0.016055
0.190216 0.026049 0.016055
0.246929 0.017588 0.016055
0.305786 0.016055 0.016055
0.363401 0.016055 0.016055
0.417203 0.016055 0.016055
0.468875 0.016055 0.016055
0.518115 0.016055 0.016055
0.565611 0.016055 0.016055
0.611484 0.016055 0.016055
0.656093 0.016055 0.016055
0.699389 0.016055 0.016055
0.741326 0.016055 0.016055
0.782690 0.016055 0.035714
0.820985 0.016055 0.091559
0.822913 0.016055 0.124921
0.822913 0.016055 0.148089
0.822913 0.016055 0.165706
0.822913 0.016055 0.179186
0.822912 0.016055 0.189568
0.822913 0.016055 0.197643
0.822913 0.016055 0.203970
0.822913 0.016055 0.208958
0.822913 0.016055 0.212908
0.822913 0.016055 0.216043
0.016055 0.113779 0.016055
0.016055 0.113779 0.016055
0.016055 0.113779 0.016055
0.016055 0.101601 0.016055
0.016055 0.098381 0.016055
0.016104 0.094299 0.016055
0.064304 0.089051 0.016055
0.123312 0.082217 0.016055
0.180259 0.073260 0.016055
0.238790 0.061371 0.016055
0.299009 0.047203 0.016055
0.358291 0.031694 0.016055
0.413283 0.016055 0.016055
0.465860 0.016055 0.016055
0.515790 0.016055 0.016055
0.563802 0.016055 0.016055
0.610073 0.016055 0.016055
0.654984 0.016055 0.016055
0.698528 0.016055 0.016055
0.740643 0.016055 0.016055
0.782156 0.016055 0.022266
0.820605 0.016055 0.075974
0.822913 0.016055 0.115051
0.822913 0.016055 0.140751
0.822913 0.016055 0.160102
0.822913 0.016055 0.174902
0.822913 0.016055 0.186254
0.822913 0.016055 0.195058
0.822913 0.016055 0.201939
0.822913 0.016055 0.207353
0.822913 0.016055 0.211638
0.822913 0.016055 0.215031
0.016055 0.157505 0.016055
0.016055 0.157505 0.016055
0.016055 0.157505 0.016055
0.016055 0.147041 0.016055
0.016055 0.144372 0.016055
0.016055 0.141035 0.016055
0.044086 0.136857 0.016055
0.108065 0.131633 0.016055
0.167420 0.125060 0.016055
0.228422 0.116653 0.016055
0.290317 0.105788 0.016055
0.351742 0.091148 0.016055
0.408315 0.070428 0.016055
0.462053 0.043280 0.016055
0.512867 0.016433 0.016055
0.561534 0.016055 0.016055
0.608310 0.016055 0.016055
0.653600 0.016055 0.016055
0.697453 0.016055 0.016055
0.739793 0.016055 0.016055
0.781492 0.016055 0.016055
0.820130 0.016055 0.054869
0.822912 0.016055 0.102071
0.822912 0.016055 0.131444
0.822913 0.016055 0.153025
0.822912 0.016055 0.169483
0.822913 0.016055 0.182083
0.822913 0.016055 0.191816
0.822913 0.016055 0.199400
0.822913 0.016055 0.205350
0.822912 0.016055 0.210050
0.822913 0.016055 0.213771
0.016055 0.204974 0.016055
0.016055 0.204974 0.016055
0.016055 0.204974 0.016055
0.016055 0.196006 0.016055
0.016055 0.193712 0.016055
0.016055 0.190839 0.016055
0.023072 0.187236 0.016055
0.086951 0.182710 0.016055
0.150781 0.176999 0.016055
0.214981 0.169755 0.016055
0.279152 0.160530 0.016055
0.343291 0.148777 0.016055
0.401985 0.133702 0.016055
0.457226 0.114083 0.016055
0.509182 0.086529 0.016055
0.558683 0.045193 0.016055
0.606101 0.016055 0.016055
0.651869 0.016055 0.016055
0.696111 0.016055 0.016055
0.738733 0.016055 0.016055
0.780665 0.016055 0.016055
0.819539 0.016055 0.031212
0.822913 0.016055 0.084079
0.822913 0.016055 0.119505
0.822913 0.016055 0.144042
0.822912 0.016055 0.162611
0.822913 0.016055 0.176820
0.822913 0.016055 0.187736
0.822913 0.016055 0.196215
0.822913 0.016055 0.202844
0.822913 0.016055 0.208068
0.822913 0.016055 0.212199
0.016055 0.254649 0.016055
0.016055 0.254649 0.016055
0.016055 0.254649 0.016055
0.016055 0.247072 0.016055
0.016055 0.245147 0.016055
0.016055 0.242750 0.016055
0.016055 0.239755 0.016055
0.055976 0.236009 0.016055
0.129139 0.231302 0.016055
0.197345 0.225352 0.016055
0.264836 0.217775 0.016055
0.332291 0.208076 0.016055
0.393867 0.195573 0.016055
0.451071 0.179267 0.016055
0.504513 0.157723 0.016055
0.555087 0.129178 0.016055
0.603326 0.088887 0.016055
0.649700 0.028297 0.016055
0.694431 0.016055 0.016055
0.737411 0.016055 0.016055
0.779634 0.016055 0.016055
0.818801 0.016055 0.016055
0.822913 0.016055 0.058084
0.822913 0.016055 0.103687
0.822912 0.016055 0.132568
0.822913 0.016055 0.153881
0.822913 0.016055 0.170137
0.822913 0.016055 0.182586
0.822913 0.016055 0.192205
0.822913 0.016055 0.199703
0.822913 0.016055 0.205589
0.822913 0.016055 0.210234
0.016055 0.307449 0.016055
0.016055 0.307449 0.016055
0.016055 0.307449 0.016055
0.016055 0.301055 0.016055
0.016055 0.299424 0.016055
0.016055 0.297386 0.016055
0.016055 0.294834 0.016055
0.021939 0.291629 0.016055
0.099806 0.287602 0.016055
0.173854 0.282533 0.016055
0.246237 0.276148 0.016055
0.317729 0.268093 0.016055
0.383374 0.257838 0.016055
0.443163 0.244696 0.016055
0.498567 0.227719 0.016055
0.550530 0.205107 0.016055
0.599827 0.174299 0.016055
0.646975 0.131473 0.016055
0.692324 0.064987 0.016055
0.735758 0.016055 0.016055
0.778345 0.016055 0.016055
0.817878 0.016055 0.016055
0.822913 0.016055 0.028512
0.822912 0.016055 0.081284
0.822913 0.016055 0.117739
0.822913 0.016055 0.142733
0.822913 0.016055 0.161611
0.822913 0.016055 0.176055
0.822913 0.016055 0.187144
0.822913 0.016055 0.195753
0.822912 0.016055 0.202482
0.822912 0.016055 0.207777
0.016055 0.360139 0.016055
0.016055 0.360139 0.016055
0.016055 0.360139 0.016055
0.016055 0.355193 0.016055
0.016055 0.353931 0.016055
0.016055 0.352354 0.016055
0.016055 0.350380 0.016055
0.016055 0.347904 0.016055
0.054149 0.344788 0.016055
0.142075 0.340855 0.016055
0.221729 0.335872 0.016055
0.298275 0.329520 0.016055
0.369635 0.321331 0.016055
0.432889 0.310710 0.016055
0.490937 0.296908 0.016055
0.544723 0.278684 0.016055
0.595393 0.254707 0.016055
0.643540 0.222529 0.016055
0.689673 0.176823 0.016055
0.733688 0.109179 0.016055
0.776734 0.016055 0.016055
0.816721 0.016055 0.016055
0.822912 0.016055 0.016055
0.822913 0.016055 0.048822
0.822913 0.016055 0.097658
0.822913 0.016055 0.128412
0.822913 0.016055 0.150725
0.822913 0.016055 0.167718
0.822913 0.016055 0.180729
0.822912 0.016055 0.190766
0.822912 0.016055 0.198577
0.822913 0.016055 0.204697
0.016055 0.410305 0.016055
0.016055 0.410305 0.016055
0.016055 0.410305 0.016055
0.016055 0.406453 0.016055
0.016055 0.405475 0.016055
0.016055 0.404257 0.016055
0.016055 0.402736 0.016055
0.016055 0.400836 0.016055
0.016055 0.398456 0.016055
0.097887 0.395467 0.016055
0.187980 0.391705 0.016055
0.271997 0.386952 0.016055
0.351033 0.380924 0.016055
0.419377 0.373210 0.016055
0.481034 0.363191 0.016055
0.537269 0.349915 0.016055
0.589743 0.332054 0.016055
0.639191 0.307440 0.016055
0.686327 0.273141 0.016055
0.731089 0.225169 0.016055
0.774715 0.152402 0.016055
0.815267 0.026732 0.016055
0.822912 0.016055 0.016055
0.822913 0.016055 0.016055
0.822913 0.016055 0.067691
0.822913 0.016055 0.109525
0.822912 0.016055 0.136712
0.822912 0.016055 0.157029
0.822912 0.016055 0.172548
0.822913 0.016055 0.184438
0.822913 0.016055 0.193648
0.822913 0.016055 0.200824
0.016055 0.459314 0.016055
0.016055 0.459314 0.016055
0.016055 0.459314 0.016055
0.016055 0.456303 0.016055
0.016055 0.455540 0.016055
0.016055 0.454590 0.016055
0.016055 0.453406 0.016055
0.016055 0.451928 0.016055
0.016055 0.450080 0.016055
0.028711 0.447765 0.016055
0.140079 0.444856 0.016055
0.236460 0.441187 0.016055
0.325082 0.436539 0.016055
0.401300 0.430620 0.016055
0.467969 0.423034 0.016055
0.527608 0.413232 0.016055
0.582482 0.400388 0.016055
0.633651 0.383326 0.016055
0.682086 0.360077 0.016055
0.727816 0.326482 0.016055
0.772168 0.275953 0.016055
0.813435 0.199450 0.016055
0.822913 0.054071 0.016055
0.822913 0.016055 0.016055
0.822912 0.016055 0.029796
0.822912 0.016055 0.082479
0.822912 0.016055 0.118490
0.822913 0.016055 0.143286
0.822913 0.016055 0.162032
0.822913 0.016055 0.176377
0.822912 0.016055 0.187393
0.822912 0.016055 0.195940
0.016055 0.506653 0.016055
0.016055 0.506653 0.016055
0.016055 0.506653 0.016055
0.016055 0.504309 0.016055
0.016055 0.503717 0.016055
0.016055 0.502980 0.016055
0.016055 0.502063 0.016055
0.016055 0.500920 0.016055
0.016055 0.499493 0.016055
0.016055 0.497709 0.016055
0.064996 0.495476 0.016055
0.185821 0.492671 0.016055
0.287809 0.489136 0.016055
0.376557 0.484659 0.016055
0.450405 0.478955 0.016055
0.514912 0.471628 0.016055
0.573061 0.462123 0.016055
0.626544 0.449645 0.016055
0.676678 0.432981 0.016055
0.723678 0.410203 0.016055
0.768941 0.378057 0.016055
0.811119 0.329325 0.016055
0.822912 0.223556 0.016055
0.822912 0.078200 0.016055
0.822913 0.016055 0.016055
0.822913 0.016055 0.042689
0.822913 0.016055 0.093276
0.822913 0.016055 0.125471
0.822913 0.016055 0.148496
0.822912 0.016055 0.166015
0.822913 0.016055 0.179423
0.822913 0.016055 0.189744
0.016055 0.552715 0.016055
0.016055 0.552715 0.016055
0.016055 0.552715 0.016055
0.016055 0.550872 0.016055
0.016055 0.550407 0.016055
0.016055 0.549829 0.016055
0.016055 0.549110 0.016055
0.016055 0.548215 0.016055
0.016055 0.547099 0.016055
0.016055 0.545706 0.016055
0.016055 0.543964 0.016055
0.108700 0.541783 0.016055
0.234212 0.539043 0.016055
0.340838 0.535592 0.016055
0.426180 0.531225 0.016055
0.497924 0.525670 0.016055
0.560678 0.518550 0.016055
0.617338 0.509343 0.016055
0.669735 0.497290 0.016055
0.718422 0.481231 0.016055
0.764836 0.459183 0.016055
0.808176 0.427800 0.016055
0.822913 0.352568 0.016055
0.822913 0.235631 0.016055
0.822913 0.095567 0.016055
0.822913 0.016055 0.016055
0.822913 0.016055 0.054574
0.822912 0.016055 0.101352
0.822913 0.016055 0.130938
0.822913 0.016055 0.152639
0.822912 0.016055 0.169187
0.822913 0.016055 0.181847
0.016055 0.597593 0.016055
0.016055 0.597593 0.016055
0.016055 0.597593 0.016055
0.016055 0.596149 0.016055
0.016055 0.595785 0.016055
0.016055 0.595333 0.016055
0.016055 0.594771 0.016055
0.016055 0.594072 0.016055
0.016055 0.593201 0.016055
0.016055 0.592115 0.016055
0.016055 0.590760 0.016055
0.016055 0.589065 0.016055
0.151456 0.586941 0.016055
0.285388 0.584274 0.016055
0.391519 0.580911 0.016055
0.474558 0.576655 0.016055
0.544095 0.571238 0.016055
0.605268 0.564296 0.016055
0.660726 0.555318 0.016055
0.711705 0.543554 0.016055
0.759595 0.527885 0.016055
0.804417 0.506500 0.016055
0.822913 0.450794 0.016055
0.822912 0.359808 0.016055
0.822912 0.244982 0.016055
0.822913 0.108068 0.016055
0.822913 0.016055 0.016055
0.822913 0.016055 0.064298
0.822913 0.016055 0.107541
0.822912 0.016055 0.135287
0.822912 0.016055 0.155943
0.822913 0.016055 0.171713
0.016055 0.641407 0.016055
0.016055 0.641407 0.016055
0.016055 0.641407 0.016055
0.016055 0.640267 0.016055
0.016055 0.639979 0.016055
0.016055 0.639622 0.016055
0.016055 0.639179 0.016055
0.016055 0.638628 0.016055
0.016055 0.637942 0.016055
0.016055 0.637088 0.016055
0.016055 0.636024 0.016055
0.016055 0.634696 0.016055
0.016055 0.633036 0.016055
0.198069 0.630957 0.016055
0.338460 0.628347 0.016055
0.440872 0.625058 0.016055
0.521306 0.620899 0.016055
0.589131 0.615613 0.016055
0.648882 0.608848 0.016055
0.703007 0.600109 0.016055
0.752876 0.588666 0.016055
0.799586 0.573398 0.016055
0.822912 0.531551 0.016055
0.822912 0.455086 0.016055
0.822912 0.365401 0.016055
0.822913 0.252328 0.016055
0.822913 0.117441 0.016055
0.822913 0.016055 0.019847
0.822913 0.016055 0.072495
0.822913 0.016055 0.112352
0.822913 0.016055 0.138764
0.822913 0.016055 0.158578
0.016055 0.684294 0.016055
0.016055 0.684294 0.016055
0.016055 0.684294 0.016055
0.016055 0.683397 0.016055
0.016055 0.683172 0.016055
0.016055 0.682891 0.016055
0.016055 0.682543 0.016055
0.016055 0.682111 0.016055
0.016055 0.681573 0.016055
0.016055 0.680904 0.016055
0.016055 0.680070 0.016055
0.016055 0.679032 0.016055
0.016055 0.677736 0.016055
0.032858 0.676115 0.016055
0.246997 0.674085 0.016055
0.389247 0.671535 0.016055
0.488728 0.668323 0.016055
0.566914 0.664256 0.016055
0.633053 0.659077 0.016055
0.691528 0.652440 0.016055
0.744225 0.643863 0.016055
0.793281 0.632645 0.016055
0.822912 0.602362 0.016055
0.822913 0.534207 0.016055
0.822913 0.458459 0.016055
0.822913 0.369761 0.016055
0.822912 0.258128 0.016055
0.822913 0.124726 0.016055
0.822912 0.016055 0.025820
0.822912 0.016055 0.078691
0.822913 0.016055 0.116135
0.822912 0.016055 0.141539
0.016055 0.725867 0.016055
0.016055 0.725867 0.016055
0.016055 0.725867 0.016055
0.016055 0.725162 0.016055
0.016055 0.724985 0.016055
0.016055 0.724765 0.016055
0.016055 0.724492 0.016055
0.016055 0.724152 0.016055
0.016055 0.723731 0.016055
0.016055 0.723207 0.016055
0.016055 0.722556 0.016055
0.016055 0.721745 0.016055
0.016055 0.720736 0.016055
0.016055 0.719478 0.016055
0.071591 0.717907 0.016055
0.299080 0.715941 0.016055
0.438650 0.713476 0.016055
0.535112 0.710372 0.016055
0.611343 0.706446 0.016055
0.676093 0.701447 0.016055
0.732908 0.695020 0.016055
0.784970 0.686678 0.016055
0.822913 0.667340 0.016055
0.822912 0.604020 0.016055
0.822912 0.536309 0.016055
0.822913 0.461125 0.016055
0.822913 0.373190 0.016055
0.822912 0.262720 0.016055
0.822912 0.130425 0.016055
0.822912 0.016055 0.030955
0.822912 0.016055 0.083520
0.822913 0.016055 0.119139
0.016055 0.767040 0.016055
0.016055 0.767040 0.016055
0.016055 0.767040 0.016055
0.016055 0.766476 0.016055
0.016055 0.766334 0.016055
0.016055 0.766158 0.016055
0.016055 0.765940 0.016055
0.016055 0.765669 0.016055
0.016055 0.765332 0.016055
0.016055 0.764913 0.016055
0.016055 0.764392 0.016055
0.016055 0.763744 0.016055
0.016055 0.762936 0.016055
0.016055 0.761930 0.016055
0.016055 0.760674 0.016055
0.114656 0.759103 0.016055
0.351812 0.757137 0.016055
0.486587 0.754671 0.016055
0.580379 0.751571 0.016055
0.654846 0.747664 0.016055
0.717855 0.742705 0.016055
0.773952 0.736364 0.016055
0.822623 0.728188 0.016055
0.822913 0.668343 0.016055
0.822912 0.605338 0.016055
0.822912 0.537980 0.016055
0.822913 0.463240 0.016055
0.822912 0.375904 0.016055
0.822912 0.266372 0.016055
0.822912 0.134951 0.016055
0.822912 0.016055 0.035238
0.822912 0.016055 0.087277
0.016055 0.806459 0.016055
0.016055 0.806459 0.016055
0.016055 0.806459 0.016055
0.016055 0.806043 0.016055
0.016055 0.805938 0.016055
0.016055 0.805808 0.016055
0.016055 0.805647 0.016055
0.016055 0.805447 0.016055
0.016055 0.805198 0.016055
0.016055 0.804889 0.016055
0.016055 0.804505 0.016055
0.016055 0.804027 0.016055
0.016055 0.803431 0.016055
0.016055 0.802689 0.016055
0.016055 0.801762 0.016055
0.016055 0.800603 0.016055
0.157926 0.799148 0.016055
0.402052 0.797315 0.016055
0.533022 0.794998 0.016055
0.624487 0.792059 0.016055
0.697319 0.788312 0.016055
0.759028 0.783516 0.016055
0.812742 0.777347 0.016055
0.822912 0.729058 0.016055
0.822913 0.669142 0.016055
0.822912 0.606389 0.016055
0.822913 0.539311 0.016055
0.822913 0.464923 0.016055
0.822912 0.378060 0.016055
0.822912 0.269283 0.016055
0.822913 0.138567 0.016055
0.822913 0.016055 0.038797
0.016055 0.822912 0.016055
0.016055 0.822912 0.016055
0.016055 0.822912 0.016055
0.016055 0.822913 0.016055
0.016055 0.822913 0.016055
0.016055 0.822913 0.016055
0.016055 0.822912 0.016055
0.016055 0.822913 0.016055
0.016055 0.822912 0.016055
0.016055 0.822913 0.016055
0.016055 0.822913 0.016055
0.016055 0.822912 0.016055
0.016055 0.822912 0.016055
0.016055 0.822913 0.016055
0.016055 0.822912 0.016055
0.016055 0.822912 0.016055
0.016055 0.822913 0.016055
0.194152 0.822913 0.016055
0.437970 0.822912 0.016055
0.567878 0.822912 0.016055
0.660587 0.822912 0.016055
0.735497 0.822912 0.016055
0.799060 0.821353 0.016055
0.822912 0.788783 0.016055
0.822912 0.729486 0.016055
0.822912 0.669781 0.016055
0.822912 0.607229 0.016055
0.822913 0.540375 0.016055
0.822912 0.466266 0.016055
0.822913 0.379780 0.016055
0.822912 0.271608 0.016055
0.822912 0.141453 0.016055
0.016055 0.822912 0.016055
0.016055 0.822912 0.016055
0.016055 0.822912 0.016055
0.016055 0.822913 0.016055
0.016055 0.822913 0.016055
0.016055 0.822912 0.016055
0.016055 0.822912 0.016055
0.016055 0.822912 0.016055
0.016055 0.822912 0.016055
0.016055 0.822913 0.016055
0.016055 0.822912 0.016055
0.016055 0.822912 0.016055
0.016055 0.822912 0.016055
0.016055 0.822912 0.016055
0.016055 0.822912 0.016055
0.016055 0.822912 0.016055
0.016055 0.822912 0.016055
0.016055 0.822913 0.016055
0.208541 0.822913 0.016055
0.442778 0.822912 0.016055
0.570005 0.822912 0.016055
0.661617 0.822913 0.016055
0.735941 0.822912 0.016055
0.800830 0.822913 0.016055
0.822912 0.788932 0.016055
0.822913 0.729827 0.016055
0.822913 0.670291 0.016055
0.822912 0.607901 0.016055
0.822912 0.541226 0.016055
0.822913 0.467341 0.016055
0.822913 0.381154 0.016055
0.822913 0.273465 0.016055
0.016055 0.822912 0.016055
0.016055 0.822912 0.016055
0.016055 0.822912 0.016055
0.016055 0.822912 0.016055
0.016055 0.822912 0.016055
0.016055 0.822913 0.016055
0.016055 0.822912 0.016055
0.016055 0.822913 0.016055
0.016055 0.822913 0.016055
0.016055 0.822913 0.016055
0.016055 0.822912 0.016055
0.016055 0.822913 0.016055
0.016055 0.822913 0.016055
0.016055 0.822912 0.016055
0.016055 0.822913 0.016055
0.016055 0.822913 0.016055
0.016055 0.822912 0.016055
0.016055 0.822913 0.016055
0.016055 0.822913 0.016055
0.219566 0.822913 0.016055
0.446543 0.822913 0.016055
0.571693 0.822912 0.016055
0.662438 0.822912 0.016055
0.736296 0.822912 0.016055
0.800899 0.822912 0.016055
0.822913 0.789051 0.016055
0.822913 0.730101 0.016055
0.822912 0.670701 0.016055
0.822913 0.608440 0.016055
0.822912 0.541909 0.016055
0.822913 0.468201 0.016055
0.822912 0.382252 0.016055
0.016055 0.822913 0.016055
0.016055 0.822913 0.016055
0.016055 0.822913 0.016055
0.016055 0.822912 0.016055
0.016055 0.822913 0.016055
0.016055 0.822912 0.016055
0.016055 0.822913 0.016055
0.016055 0.822913 0.016055
0.016055 0.822912 0.016055
0.016055 0.822912 0.016055
0.016055 0.822913 0.016055
0.016055 0.822913 0.016055
0.016055 0.822912 0.016055
0.016055 0.822913 0.016055
0.016055 0.822913 0.016055
0.016055 0.822912 0.016055
0.016055 0.822913 0.016055
0.016055 0.822912 0.016055
0.016055 0.822912 0.016055
0.016055 0.822912 0.016055
0.228088 0.822912 0.016055
0.449512 0.822913 0.016055
0.573035 0.822912 0.016055
0.663094 0.822912 0.016055
0.736581 0.822912 0.016055
0.800954 0.822912 0.016055
0.822912 0.789147 0.016055
0.822912 0.730321 0.016055
0.822912 0.671030 0.016055
0.822913 0.608872 0.016055
0.822913 0.542456 0.016055
0.822912 0.468889 0.016055
0.016055 0.822912 0.016055
0.016055 0.822912 0.016055
0.016055 0.822912 0.016055
0.016055 0.822912 0.016055
0.016055 0.822913 0.016055
0.016055 0.822912 0.016055
0.016055 0.822913 0.016055
0.016055 0.822913 0.016055
0.016055 0.822913 0.016055
0.016055 0.822912 0.016055
0.016055 0.822913 0.016055
0.016055 0.822913 0.016055
0.016055 0.822913 0.016055
0.016055 0.822913 0.016055
0.016055 0.822912 0.016055
0.016055 0.822913 0.016055
0.016055 0.822912 0.016055
0.016055 0.822913 0.016055
0.016055 0.822913 0.016055
0.016055 0.822912 0.016055
0.016055 0.822912 0.016055
0.234734 0.822913 0.016055
0.451865 0.822913 0.016055
0.574105 0.822912 0.016055
0.663618 0.822913 0.016055
0.736809 0.822913 0.016055
0.800998 0.822913 0.016055
0.822913 0.789223 0.016055
0.822913 0.730498 0.016055
0.822913 0.671294 0.016055
0.822912 0.609220 0.016055
0.822913 0.542895 0.016055
0.016055 0.822913 0.016055
0.016055 0.822913 0.016055
0.016055 0.822913 0.016055
0.016055 0.822912 0.016055
0.016055 0.822912 0.016055
0.016055 0.822912 0.016055
0.016055 0.822913 0.016055
0.016055 0.822913 0.016055
0.016055 0.822913 0.016055
0.016055 0.822913 0.016055
0.016055 0.822913 0.016055
0.016055 0.822913 0.016055
0.016055 0.822913 0.016055
0.016055 0.822913 0.016055
0.016055 0.822912 0.016055
0.016055 0.822913 0.016055
0.016055 0.822913 0.016055
0.016055 0.822913 0.016055
0.016055 0.822912 0.016055
0.016055 0.822913 0.016055
0.016055 0.822913 0.016055
0.016055 0.822913 0.016055
0.239974 0.822912 0.016055
