luts/Z-Log2/gain -1/zLog2_zRGB-ax2_32_gain-1_desatuation.cube
TITLE "Generated by ZCAM"
LUT_3D_SIZE 32
0.016055 0.016055 0.016055
0.016055 0.016055 0.016055
0.016055 0.016055 0.016055
0.016055 0.016055 0.016055
0.018355 0.016577 0.016577
0.049706 0.022377 0.022377
0.094922 0.026414 0.026414
0.138328 0.025481 0.025481
0.185030 0.019217 0.019217
0.234322 0.001072 0.001072
0.286313 -0.030598 -0.030598
0.340008 -0.048736 -0.048736
0.391216 -0.058977 -0.058977
0.440961 -0.068926 -0.068926
0.489113 -0.078557 -0.078557
0.535723 -0.087879 -0.087879
0.581160 -0.096966 -0.096966
0.625396 -0.105813 -0.105813
0.668728 -0.114480 -0.114480
0.710822 -0.110367 -0.110367
0.752066 -0.067278 -0.067278
0.792567 -0.019449 -0.019449
0.829295 0.028653 0.055810
0.861022 0.073825 0.140522
0.888767 0.116079 0.217669
0.912421 0.154126 0.289900
0.931614 0.186370 0.356673
0.947103 0.213287 0.418490
0.959952 0.236222 0.476983
0.969817 0.254204 0.528507
0.977314 0.268088 0.574602
0.983083 0.278898 0.616584
0.016055 0.016055 0.016055
0.016055 0.016055 0.016055
0.016055 0.016055 0.016055
0.016055 0.016055 0.016055
0.018355 0.016577 0.016577
0.049706 0.022377 0.022377
0.094922 0.026414 0.026414
0.138328 0.025481 0.025481
0.185030 0.019217 0.019217
0.234322 0.001072 0.001072
0.286313 -0.030598 -0.030598
0.340008 -0.048736 -0.048736
0.391216 -0.058977 -0.058977
0.440961 -0.068926 -0.068926
0.489113 -0.078557 -0.078557
0.535723 -0.087879 -0.087879
0.581160 -0.096966 -0.096966
0.625396 -0.105813 -0.105813
0.668728 -0.114480 -0.114480
0.710822 -0.110367 -0.110367
0.752066 -0.067278 -0.067278
0.792567 -0.019449 -0.019449
0.829295 0.028653 0.055810
0.861022 0.073825 0.140522
0.888767 0.116079 0.217669
0.912421 0.154126 0.289900
0.931614 0.186370 0.356673
0.947103 0.213287 0.418490
0.959952 0.236222 0.476983
0.969817 0.254204 0.528507
0.977314 0.268088 0.574602
0.983083 0.278898 0.616584
0.016055 0.016055 0.016055
0.016055 0.016055 0.016055
0.016055 0.016055 0.016055
0.016055 0.016055 0.016055
0.018355 0.016577 0.016577
0.049706 0.022377 0.022377
0.094922 0.026414 0.026414
0.138328 0.025481 0.025481
0.185030 0.019217 0.019217
0.234322 0.001072 0.001072
0.286313 -0.030598 -0.030598
0.340008 -0.048736 -0.048736
0.391216 -0.058977 -0.058977
0.440961 -0.068926 -0.068926
0.489113 -0.078557 -0.078557
0.535723 -0.087879 -0.087879
0.581160 -0.096966 -0.096966
0.625396 -0.105813 -0.105813
0.668728 -0.114480 -0.114480
0.710822 -0.110367 -0.110367
0.752066 -0.067278 -0.067278
0.792567 -0.019449 -0.019449
0.829295 0.028653 0.055810
0.861022 0.073825 0.140522
0.888767 0.116079 0.217669
0.912421 0.154126 0.289900
0.931614 0.186370 0.356673
0.947103 0.213287 0.418490
0.959952 0.236222 0.476983
0.969817 0.254204 0.528507
0.977314 0.268088 0.574602
0.983083 0.278898 0.616584
0.016055 0.016055 0.016055
0.016055 0.016055 0.016055
0.016055 0.016055 0.016055
0.016055 0.016055 0.016055
0.016055 0.016055 0.016055
0.030791 0.019172 0.019172
0.075392 0.025297 0.025297
0.123269 0.026338 0.026338
0.171817 0.021542 0.021542
0.223291 0.006401 0.006401
0.276807 -0.024000 -0.024000
0.332467 -0.047227 -0.047227
0.385450 -0.057824 -0.057824
0.436428 -0.068020 -0.068020
0.485603 -0.077855 -0.077855
0.532969 -0.087328 -0.087328
0.578999 -0.096534 -0.096534
0.623696 -0.105473 -0.105473
0.667389 -0.114212 -0.114212
0.709780 -0.111382 -0.111382
0.751229 -0.068209 -0.068209
0.791924 -0.020251 -0.020251
0.828846 0.028039 0.037185
0.860704 0.073357 0.120278
0.888546 0.115732 0.203346
0.912272 0.153881 0.277904
0.931518 0.186206 0.347016
0.947039 0.213175 0.410542
0.959911 0.236147 0.470690
0.969791 0.254158 0.523855
0.977298 0.268059 0.570993
0.983074 0.278881 0.613824
0.016055 0.016055 0.016055
0.016055 0.016055 0.016055
0.016055 0.016055 0.016055
0.016055 0.016055 0.016055
0.016055 0.016055 0.016055
0.026504 0.018321 0.018321
0.070009 0.024822 0.024822
0.119360 0.026468 0.026468
0.168403 0.022072 0.022072
0.220447 0.007697 0.007697
0.274388 -0.022378 -0.022378
0.330531 -0.046840 -0.046840
0.383982 -0.057530 -0.057530
0.435274 -0.067789 -0.067789
0.484712 -0.077676 -0.077676
0.532272 -0.087188 -0.087188
0.578453 -0.096425 -0.096425
0.623267 -0.105387 -0.105387
0.667052 -0.114144 -0.114144
0.709518 -0.111637 -0.111637
0.751018 -0.068443 -0.068443
0.791762 -0.020453 -0.020453
0.828733 0.027884 0.032971
0.860625 0.073239 0.114886
0.888491 0.115644 0.199602
0.912234 0.153819 0.274812
0.931494 0.186165 0.344527
0.947024 0.213147 0.408511
0.959900 0.236129 0.469068
0.969785 0.254146 0.522667
0.977295 0.268051 0.570074
0.983072 0.278877 0.613123
0.020738 0.039380 0.020738
0.020738 0.039380 0.020738
0.020738 0.039380 0.020738
0.019542 0.032735 0.019542
0.019237 0.031132 0.019237
0.023109 0.029157 0.018853
0.063061 0.032975 0.024101
0.114427 0.033565 0.026578
0.164117 0.026879 0.022696
0.216881 0.009623 0.009275
0.271369 -0.020388 -0.020388
0.328101 -0.046354 -0.046354
0.382148 -0.057164 -0.057164
0.433835 -0.067501 -0.067501
0.483602 -0.077454 -0.077454
0.531404 -0.087015 -0.087015
0.577774 -0.096289 -0.096289
0.622733 -0.105281 -0.105281
0.666632 -0.114060 -0.114060
0.709192 -0.111953 -0.111953
0.750757 -0.068733 -0.068733
0.791561 -0.020703 -0.020703
0.828593 0.027692 0.028041
0.860526 0.073093 0.108544
0.888422 0.115536 0.194843
0.912188 0.153743 0.270944
0.931464 0.186114 0.341406
0.947004 0.213112 0.405973
0.959887 0.236105 0.467038
0.969777 0.254132 0.521179
0.977290 0.268042 0.568928
0.983069 0.278872 0.612249
0.025831 0.082773 0.025831
0.025831 0.082773 0.025831
0.025831 0.082773 0.025831
0.025287 0.075270 0.025287
0.025125 0.073345 0.025125
0.024903 0.070869 0.024903
0.057051 0.067757 0.024602
0.108165 0.068902 0.026629
0.158732 0.064248 0.023415
0.212389 0.049563 0.011190
0.267588 0.016460 -0.017946
0.325042 -0.018929 -0.045742
0.379854 -0.040850 -0.056705
0.432035 -0.063670 -0.067141
0.482216 -0.077177 -0.077177
0.530322 -0.086798 -0.086798
0.576928 -0.096120 -0.096120
0.622070 -0.105148 -0.105148
0.666111 -0.113956 -0.113956
0.708787 -0.112346 -0.112346
0.750433 -0.069093 -0.069093
0.791311 -0.021014 -0.021014
0.828419 0.027454 0.027454
0.860403 0.072912 0.100512
0.888336 0.115402 0.188686
0.912130 0.153648 0.266087
0.931427 0.186051 0.337474
0.946979 0.213068 0.402793
0.959871 0.236076 0.464484
0.969768 0.254114 0.519314
0.977284 0.268031 0.567494
0.983066 0.278865 0.611157
0.026199 0.126566 0.026199
0.026199 0.126566 0.026199
0.026199 0.126566 0.026199
0.026421 0.120920 0.026421
0.026465 0.119481 0.026465
0.026512 0.117683 0.026512
0.052262 0.115445 0.026560
0.101395 0.112637 0.026602
0.151957 0.111676 0.024216
0.206720 0.103232 0.013492
0.262841 0.078207 -0.014962
0.321180 0.045363 -0.044970
0.376974 0.022277 -0.056129
0.429781 -0.004430 -0.066690
0.480484 -0.035036 -0.076831
0.528973 -0.067261 -0.086529
0.575874 -0.095909 -0.095909
0.621244 -0.104983 -0.104983
0.665462 -0.113826 -0.113826
0.708284 -0.112833 -0.112833
0.750030 -0.069539 -0.069539
0.791001 -0.021399 -0.021399
0.828203 0.027158 0.027158
0.860250 0.072687 0.091651
0.888230 0.115235 0.180658
0.912059 0.153530 0.259965
0.931381 0.185972 0.332509
0.946949 0.213015 0.398800
0.959852 0.236041 0.461272
0.969756 0.254092 0.516964
0.977276 0.268017 0.565698
0.983061 0.278857 0.609790
0.021467 0.172286 0.021467
0.021467 0.172286 0.021467
0.021467 0.172286 0.021467
0.022238 0.167295 0.022238
0.022423 0.166033 0.022423
0.022648 0.164456 0.022648
0.039789 0.162496 0.022920
0.092796 0.160049 0.023246
0.144121 0.156995 0.023631
0.199529 0.153204 0.016163
0.256863 0.136054 -0.011331
0.316290 0.107588 -0.043992
0.373347 0.087070 -0.055403
0.426952 0.064847 -0.066124
0.478312 0.039694 -0.076396
0.527286 0.009972 -0.086191
0.574559 -0.028033 -0.095646
0.620216 -0.075350 -0.104777
0.664655 -0.113665 -0.113665
0.707659 -0.113438 -0.113438
0.749530 -0.070092 -0.070092
0.790615 -0.021878 -0.021878
0.827933 0.026790 0.026790
0.860061 0.072408 0.081532
0.888097 0.115028 0.169832
0.911970 0.153384 0.252223
0.931324 0.185875 0.326203
0.946911 0.212948 0.393773
0.959827 0.235996 0.457220
0.969741 0.254065 0.513992
0.977267 0.267999 0.563444
0.983056 0.278847 0.608076
0.007377 0.221156 0.007377
0.007377 0.221156 0.007377
0.007377 0.221156 0.007377
0.009241 0.216959 0.009241
0.009703 0.215894 0.009703
0.010270 0.214572 0.010270
0.016457 0.212919 0.010968
0.071570 0.210859 0.011824
0.131256 0.208284 0.012870
0.190206 0.205058 0.014143
0.249310 0.196245 -0.006949
0.310081 0.173072 -0.042750
0.368752 0.153586 -0.054484
0.423389 0.132803 -0.065412
0.475584 0.109751 -0.075851
0.525175 0.083567 -0.085769
0.572916 0.053028 -0.095317
0.618932 0.016390 -0.104520
0.663648 -0.031604 -0.113464
0.706879 -0.090094 -0.114189
0.748908 -0.070779 -0.070779
0.790136 -0.022474 -0.022474
0.827599 0.026333 0.026333
0.859825 0.072061 0.072061
0.887933 0.114771 0.155103
0.911860 0.153202 0.242372
0.931253 0.185753 0.318143
0.946864 0.212865 0.387427
0.959796 0.235941 0.452085
0.969722 0.254031 0.510210
0.977255 0.267978 0.560600
0.983049 0.278835 0.605921
-0.021001 0.272304 -0.021001
-0.021001 0.272304 -0.021001
-0.021001 0.272304 -0.021001
-0.018674 0.268724 -0.018674
-0.018093 0.267818 -0.018093
-0.017378 0.266695 -0.017378
-0.016493 0.265294 -0.016493
0.028302 0.263551 -0.015402
0.101027 0.261377 -0.014059
0.169159 0.258664 -0.012410
0.238015 0.255269 -0.010387
0.302180 0.240783 -0.041170
0.362889 0.222229 -0.053312
0.418888 0.202961 -0.064512
0.472144 0.182084 -0.075163
0.522524 0.158870 -0.085239
0.570858 0.132119 -0.094906
0.617329 0.100383 -0.104200
0.662392 0.061375 -0.113212
0.705908 0.018024 -0.115122
0.748133 -0.001668 -0.071632
0.789538 -0.023214 -0.023214
0.827182 0.025764 0.025764
0.859532 0.071629 0.071629
0.887729 0.114452 0.137569
0.911722 0.152976 0.229467
0.931166 0.185603 0.307768
0.946806 0.212763 0.379340
0.959758 0.235872 0.445507
0.969699 0.253988 0.505369
0.977241 0.267951 0.556997
0.983041 0.278819 0.603202
-0.045963 0.326143 -0.045963
-0.045963 0.326143 -0.045963
-0.045963 0.326143 -0.045963
-0.045375 0.323207 -0.045375
-0.045227 0.322465 -0.045227
-0.045042 0.321538 -0.045042
-0.044811 0.320385 -0.044811
-0.024634 0.318947 -0.044523
0.056464 0.317150 -0.044164
0.132908 0.314900 -0.043714
0.210560 0.312083 -0.043151
0.288714 0.308546 -0.042443
0.355328 0.293853 -0.051800
0.413169 0.275545 -0.063368
0.467788 0.256025 -0.074292
0.519185 0.234758 -0.084571
0.568274 0.210929 -0.094389
0.615322 0.183492 -0.103798
0.660822 0.150956 -0.112898
0.704697 0.114768 -0.116283
0.747169 0.104122 -0.072691
0.788794 0.087878 -0.024135
0.826662 0.047551 0.025055
0.859168 0.071093 0.071093
0.887476 0.114054 0.119256
0.911552 0.152695 0.211579
0.931056 0.185416 0.294343
0.946733 0.212635 0.368863
0.959711 0.235787 0.437070
0.969671 0.253936 0.499127
0.977223 0.267918 0.552411
0.983031 0.278800 0.599756
-0.056359 0.378124 -0.056359
-0.056359 0.378124 -0.056359
-0.056359 0.378124 -0.056359
-0.055915 0.375903 -0.055915
-0.055802 0.375341 -0.055802
-0.055663 0.374644 -0.055663
-0.055489 0.373775 -0.055489
-0.055272 0.372692 -0.055272
0.013182 0.371342 -0.055002
0.098006 0.369655 -0.054665
0.180253 0.367539 -0.054242
0.261656 0.364881 -0.053710
0.342287 0.361529 -0.053040
0.405845 0.347563 -0.061903
0.462243 0.329784 -0.073183
0.514965 0.310911 -0.083727
0.565022 0.290148 -0.093738
0.612805 0.266556 -0.103295
0.658856 0.238726 -0.112505
0.703182 0.207261 -0.117727
0.745966 0.200403 -0.074009
0.787865 0.192341 -0.025282
0.826013 0.174387 0.024172
0.858713 0.132052 0.070425
0.887160 0.113560 0.113560
0.911339 0.152346 0.185558
0.930920 0.185184 0.276912
0.946644 0.212477 0.355138
0.959653 0.235681 0.426268
0.969635 0.253871 0.491014
0.977201 0.267876 0.546534
0.983018 0.278776 0.595365
-0.066368 0.428172 -0.066368
-0.066368 0.428172 -0.066368
-0.066368 0.428172 -0.066368
-0.066017 0.426414 -0.066017
-0.065928 0.425971 -0.065928
-0.065818 0.425420 -0.065818
-0.065681 0.424735 -0.065681
-0.065511 0.423883 -0.065511
-0.040579 0.422821 -0.065298
0.056109 0.421497 -0.065033
0.144316 0.419844 -0.064703
0.230686 0.417777 -0.064289
0.316055 0.415185 -0.063771
0.393289 0.411924 -0.063119
0.455138 0.398340 -0.071762
0.509601 0.381182 -0.082654
0.560908 0.362933 -0.092916
0.609636 0.342935 -0.102661
0.656388 0.320323 -0.112012
0.701283 0.294535 -0.119525
0.744463 0.291068 -0.075648
0.786704 0.287566 -0.026711
0.825202 0.278594 0.023070
0.858147 0.257213 0.069594
0.886766 0.210396 0.112945
0.911075 0.151911 0.157028
0.930751 0.184895 0.253316
0.946532 0.212280 0.336891
0.959580 0.235550 0.412245
0.969591 0.253790 0.480293
0.977173 0.267825 0.538947
0.983002 0.278746 0.589729
-0.076100 0.476832 -0.076100
-0.076100 0.476832 -0.076100
-0.076100 0.476832 -0.076100
-0.075827 0.475466 -0.075827
-0.075758 0.475121 -0.075758
-0.075673 0.474694 -0.075673
-0.075566 0.474162 -0.075566
-0.075434 0.473501 -0.075434
-0.075269 0.472677 -0.075269
0.000099 0.471651 -0.075064
0.099782 0.470371 -0.074808
0.193778 0.468772 -0.074488
0.284987 0.466770 -0.074088
0.368052 0.464258 -0.073586
0.442929 0.461096 -0.072953
0.502738 0.447976 -0.081282
0.555681 0.431307 -0.091870
0.605634 0.413556 -0.101861
0.653280 0.394029 -0.111390
0.698897 0.371894 -0.120513
0.742583 0.369471 -0.077688
0.785251 0.370192 -0.028493
0.824185 0.369703 0.021691
0.857439 0.360699 0.068556
0.886275 0.335619 0.112178
0.910745 0.283121 0.151369
0.930540 0.184534 0.216723
0.946393 0.212035 0.312261
0.959489 0.235386 0.393804
0.969537 0.253689 0.465999
0.977139 0.267761 0.529028
0.982983 0.278709 0.582416
-0.085492 0.523791 -0.085492
-0.085492 0.523791 -0.085492
-0.085492 0.523791 -0.085492
-0.085278 0.522722 -0.085278
-0.085224 0.522452 -0.085224
-0.085158 0.522118 -0.085158
-0.085075 0.521703 -0.085075
-0.084971 0.521187 -0.084971
-0.084843 0.520545 -0.084843
-0.073577 0.519747 -0.084683
0.043185 0.518752 -0.084484
0.148123 0.517512 -0.084236
0.247074 0.515963 -0.083927
0.338560 0.514025 -0.083539
0.418406 0.511595 -0.083053
0.490955 0.508539 -0.082442
0.548989 0.495822 -0.090532
0.600549 0.479644 -0.100844
0.649352 0.462404 -0.110604
0.695886 0.443476 -0.119911
0.740224 0.439852 -0.080230
0.783428 0.441642 -0.030718
0.822907 0.444477 0.019964
0.856554 0.443566 0.067261
0.885661 0.434899 0.111221
0.910333 0.409682 0.150692
0.930277 0.350596 0.184085
0.946220 0.213619 0.278225
0.959376 0.235183 0.368489
0.969469 0.253565 0.446723
0.977096 0.267682 0.515636
0.982958 0.278663 0.572812
-0.094644 0.569553 -0.094644
-0.094644 0.569553 -0.094644
-0.094644 0.569553 -0.094644
-0.094477 0.568713 -0.094477
-0.094434 0.568502 -0.094434
-0.094382 0.568240 -0.094382
-0.094317 0.567914 -0.094317
-0.094236 0.567510 -0.094236
-0.094135 0.567007 -0.094135
-0.094010 0.566382 -0.094010
-0.039759 0.565604 -0.093855
0.088063 0.564634 -0.093661
0.199305 0.563426 -0.093419
0.302058 0.561917 -0.093117
0.389548 0.560029 -0.092740
0.467246 0.557661 -0.092266
0.537483 0.554683 -0.091671
0.594044 0.542300 -0.099543
0.644364 0.526515 -0.109607
0.692073 0.509674 -0.119149
0.737257 0.503985 -0.083402
0.781137 0.505321 -0.033501
0.821297 0.509390 0.017795
0.855444 0.512281 0.065640
0.884893 0.511125 0.110025
0.909817 0.501411 0.149847
0.929949 0.475239 0.183524
0.946005 0.412839 0.224398
0.959236 0.260969 0.332673
0.969384 0.253409 0.420715
0.977043 0.267583 0.497017
0.982928 0.278606 0.559994
-0.103551 0.614084 -0.103551
-0.103551 0.614084 -0.103551
-0.103551 0.614084 -0.103551
-0.103419 0.613425 -0.103419
-0.103386 0.613259 -0.103386
-0.103345 0.613053 -0.103345
-0.103293 0.612798 -0.103293
-0.103230 0.612480 -0.103230
-0.103151 0.612086 -0.103151
-0.103053 0.611597 -0.103053
-0.102932 0.610988 -0.102932
0.005531 0.610231 -0.102780
0.137255 0.609287 -0.102591
0.254381 0.608111 -0.102356
0.354200 0.606643 -0.102062
0.439307 0.604806 -0.101695
0.514382 0.602503 -0.101235
0.582847 0.599608 -0.100656
0.637987 0.587548 -0.108331
0.687220 0.572140 -0.118178
0.733511 0.564054 -0.087365
0.778249 0.563842 -0.036982
0.819260 0.567586 0.015065
0.854047 0.571832 0.063607
0.883929 0.574249 0.108526
0.909170 0.571949 0.148788
0.929538 0.560523 0.182823
0.945736 0.532811 0.210879
0.959060 0.471872 0.277839
0.969279 0.312711 0.383905
0.976977 0.267460 0.470363
0.982890 0.278535 0.542495
-0.112268 0.657670 -0.112268
-0.112268 0.657670 -0.112268
-0.112268 0.657670 -0.112268
-0.112164 0.657148 -0.112164
-0.112137 0.657017 -0.112137
-0.112105 0.656855 -0.112105
-0.112065 0.656653 -0.112065
-0.112014 0.656403 -0.112014
-0.111952 0.656092 -0.111952
-0.111875 0.655705 -0.111875
-0.111779 0.655225 -0.111779
-0.111660 0.654628 -0.111660
0.049210 0.653885 -0.111511
0.189306 0.652960 -0.111326
0.308801 0.651806 -0.111095
0.404933 0.650365 -0.110807
0.487202 0.648562 -0.110446
0.560323 0.646303 -0.109995
0.627018 0.643464 -0.109427
0.681003 0.631658 -0.116935
0.728760 0.621136 -0.092324
0.774597 0.618576 -0.041345
0.816673 0.621034 0.011615
0.852285 0.625367 0.061051
0.882717 0.629350 0.106645
0.908358 0.630675 0.147458
0.929021 0.626325 0.181943
0.945400 0.612879 0.210288
0.958841 0.584772 0.234217
0.969148 0.524140 0.328206
0.976895 0.357901 0.432078
0.982843 0.278445 0.517421
-0.120586 0.700157 -0.120586
-0.120586 0.700157 -0.120586
-0.120586 0.700157 -0.120586
-0.120684 0.699751 -0.120684
-0.120664 0.699649 -0.120664
-0.120638 0.699522 -0.120638
-0.120607 0.699365 -0.120607
-0.120568 0.699170 -0.120568
-0.120520 0.698928 -0.120520
-0.120459 0.698627 -0.120459
-0.120385 0.698253 -0.120385
-0.120292 0.697788 -0.120292
-0.094128 0.697210 -0.120176
0.097618 0.696489 -0.120032
0.245058 0.695592 -0.119852
0.360508 0.694473 -0.119628
0.453911 0.693074 -0.119349
0.533809 0.691323 -0.118999
0.605003 0.689126 -0.118559
0.670295 0.686362 -0.118006
0.722697 0.676412 -0.098542
0.769930 0.670807 -0.046856
0.813368 0.671237 0.007242
0.850050 0.674766 0.057824
0.881184 0.679029 0.104275
0.907333 0.682010 0.145785
0.928372 0.681375 0.180837
0.944979 0.674957 0.209549
0.958566 0.660307 0.233722
0.968983 0.630912 0.252673
0.976793 0.570654 0.373698
0.982783 0.401714 0.478731
-0.078872 0.741486 -0.078872
-0.078872 0.741486 -0.078872
-0.078872 0.741486 -0.078872
-0.079221 0.741162 -0.079221
-0.079309 0.741081 -0.079309
-0.079417 0.740980 -0.079417
-0.079552 0.740855 -0.079552
-0.079719 0.740700 -0.079719
-0.079926 0.740507 -0.079926
-0.080183 0.740268 -0.080183
-0.080502 0.739971 -0.080502
-0.080898 0.739602 -0.080898
-0.081389 0.739143 -0.081389
-0.009125 0.738574 -0.081998
0.179930 0.737864 -0.082755
0.321929 0.736981 -0.083695
0.427197 0.735881 -0.084864
0.512558 0.734507 -0.086316
0.586208 0.732789 -0.088123
0.652330 0.730638 -0.090373
0.712913 0.727935 -0.093177
0.763919 0.720848 -0.053846
0.809120 0.718610 0.001674
0.847201 0.720755 0.053735
0.879238 0.724667 0.101276
0.906035 0.728353 0.143671
0.927550 0.729725 0.179441
0.944451 0.727109 0.208622
0.958222 0.719225 0.233102
0.968778 0.702901 0.252295
0.976665 0.672567 0.270759
0.982709 0.613062 0.418101
-0.031998 0.782377 -0.031998
-0.031998 0.782377 -0.031998
-0.031998 0.782377 -0.031998
-0.032305 0.782123 -0.032305
-0.032383 0.782059 -0.032383
-0.032479 0.781980 -0.032479
-0.032598 0.781882 -0.032598
-0.032745 0.781761 -0.032745
-0.032928 0.781610 -0.032928
-0.033155 0.781422 -0.033155
-0.033437 0.781190 -0.033437
-0.033786 0.780901 -0.033786
-0.034220 0.780542 -0.034220
-0.034759 0.780096 -0.034759
0.079661 0.779541 -0.035428
0.267017 0.778851 -0.036259
0.397543 0.777991 -0.037292
0.493423 0.776918 -0.038577
0.571462 0.775580 -0.040176
0.638912 0.773902 -0.042170
0.699399 0.771791 -0.044667
0.755043 0.769127 -0.047797
0.803619 0.764719 -0.005447
0.843544 0.764686 0.048526
0.876752 0.767417 0.097466
0.904383 0.770849 0.140989
0.926508 0.773070 0.177672
0.943786 0.772591 0.207456
0.957788 0.768657 0.232321
0.968520 0.759299 0.251822
0.976504 0.741664 0.266579
0.982616 0.710709 0.305756
0.016555 0.820373 0.016555
0.016555 0.820373 0.016555
0.016555 0.820373 0.016555
0.016312 0.820192 0.016312
0.016250 0.820146 0.016250
0.016174 0.820089 0.016174
0.016080 0.820019 0.016080
0.015963 0.819932 0.015963
0.015818 0.819823 0.015818
0.015638 0.819689 0.015638
0.015415 0.819522 0.015415
0.015138 0.819315 0.015138
0.014793 0.819057 0.014793
0.014365 0.818737 0.014365
0.013833 0.818338 0.013833
0.166733 0.817841 0.013170
0.350945 0.817222 0.012345
0.469179 0.816448 0.011317
0.556487 0.815481 0.010034
0.627889 0.814268 0.008430
0.689818 0.812744 0.006421
0.745061 0.810824 0.003901
0.796181 0.808396 0.000731
0.838818 0.806361 0.041859
0.873553 0.807811 0.092592
0.902269 0.810814 0.137568
0.925180 0.813394 0.175425
0.942945 0.814092 0.205982
0.957240 0.812272 0.231335
0.968196 0.806545 0.251227
0.976303 0.795609 0.266204
0.982498 0.777321 0.277797
0.062455 0.853254 0.062455
0.062455 0.853254 0.062455
0.062455 0.853254 0.062455
0.062271 0.853127 0.062271
0.062225 0.853095 0.062225
0.062168 0.853056 0.062168
0.062097 0.853007 0.062097
0.062009 0.852946 0.062009
0.061899 0.852871 0.061899
0.061764 0.852777 0.061764
0.061595 0.852661 0.061595
0.061386 0.852516 0.061386
0.061127 0.852337 0.061127
0.060804 0.852114 0.060804
0.060404 0.851837 0.060404
0.059906 0.851493 0.059906
0.250372 0.851064 0.059286
0.426428 0.850529 0.058515
0.534795 0.849862 0.057553
0.615108 0.849027 0.056353
0.681036 0.847982 0.054853
0.737805 0.846669 0.052974
0.789214 0.845015 0.050616
0.833005 0.842927 0.047652
0.869397 0.842674 0.086310
0.899542 0.845193 0.133179
0.923478 0.848194 0.172552
0.941873 0.850135 0.204109
0.956544 0.850334 0.230086
0.967786 0.847760 0.250475
0.976049 0.841311 0.265733
0.982350 0.829621 0.277518
0.105585 0.882032 0.105585
0.105585 0.882032 0.105585
0.105585 0.882032 0.105585
0.105447 0.881943 0.105447
0.105413 0.881920 0.105413
0.105370 0.881893 0.105370
0.105317 0.881858 0.105317
0.105251 0.881816 0.105251
0.105169 0.881763 0.105169
0.105068 0.881697 0.105068
0.104942 0.881616 0.104942
0.104786 0.881514 0.104786
0.104592 0.881389 0.104592
0.104351 0.881233 0.104351
0.104052 0.881039 0.104052
0.103680 0.880798 0.103680
0.103217 0.880498 0.103217
0.329631 0.880125 0.102641
0.495466 0.879659 0.101924
0.595160 0.879077 0.101030
0.669480 0.878350 0.099913
0.730380 0.877438 0.098515
0.783455 0.876292 0.096762
0.828882 0.874846 0.094558
0.864733 0.873016 0.091776
0.895985 0.873890 0.127491
0.921273 0.876743 0.168845
0.940498 0.879236 0.201712
0.955655 0.880695 0.228491
0.967264 0.880367 0.249521
0.975729 0.877485 0.265138
0.982161 0.871411 0.277164
0.144845 0.906756 0.144845
0.144845 0.906756 0.144845
0.144845 0.906756 0.144845
0.144746 0.906695 0.144746
0.144721 0.906680 0.144721
0.144690 0.906661 0.144690
0.144652 0.906638 0.144652
0.144605 0.906609 0.144605
0.144546 0.906573 0.144546
0.144473 0.906528 0.144473
0.144382 0.906472 0.144382
0.144270 0.906403 0.144270
0.144131 0.906318 0.144131
0.143958 0.906211 0.143958
0.143743 0.906079 0.143743
0.143475 0.905915 0.143475
0.143143 0.905710 0.143143
0.142730 0.905456 0.142730
0.404691 0.905139 0.142215
0.557785 0.904744 0.141573
0.650277 0.904249 0.140772
0.719576 0.903631 0.139770
0.776318 0.902855 0.138515
0.824856 0.901880 0.136940
0.862535 0.900648 0.134956
0.892308 0.899086 0.132448
0.918378 0.900583 0.164003
0.938714 0.903273 0.198610
0.954509 0.905397 0.226439
0.966597 0.906328 0.248299
0.975323 0.905439 0.264383
0.981921 0.902422 0.276712
0.178659 0.927089 0.178659
0.178659 0.927089 0.178659
0.178659 0.927089 0.178659
0.178592 0.927050 0.178592
0.178575 0.927040 0.178575
0.178554 0.927028 0.178554
0.178528 0.927013 0.178528
0.178496 0.926994 0.178496
0.178457 0.926970 0.178457
0.178408 0.926941 0.178408
0.178346 0.926905 0.178346
0.178271 0.926861 0.178271
0.178177 0.926805 0.178177
0.178060 0.926737 0.178060
0.177915 0.926651 0.177915
0.177735 0.926545 0.177735
0.177511 0.926413 0.177511
0.177233 0.926249 0.177233
0.176887 0.926044 0.176887
0.471335 0.925789 0.176455
0.613548 0.925472 0.175918
0.700193 0.925074 0.175246
0.764947 0.924577 0.174405
0.818432 0.923952 0.173352
0.859774 0.923165 0.172026
0.891286 0.922170 0.170352
0.915583 0.920905 0.168228
0.936375 0.922599 0.194558
0.953020 0.925133 0.223780
0.965734 0.926905 0.246722
0.974805 0.927321 0.263421
0.981613 0.926248 0.276132
