luts/Z-Log2/gain -1/zLog2_zRGB-ax2_32_gain-1.cube
TITLE "Generated by ZCAM"
LUT_3D_SIZE 5
DOMAIN_MIN 0.000000 0.000000 0.000000
DOMAIN_MAX 0.903226 0.903226 0.903226
0.016055 0.016055 0.016055
0.178960 0.016055 0.016055
0.527257 0.016055 0.016055
0.822511 0.016055 0.142748
0.822913 0.016055 0.212029
0.016055 0.157505 0.016055
0.108065 0.131633 0.016055
0.512867 0.016433 0.016055
0.820130 0.016055 0.054869
0.822913 0.016055 0.199400
0.016055 0.506653 0.016055
0.016055 0.500920 0.016055
0.450405 0.478955 0.016055
0.811119 0.329325 0.016055
0.822913 0.016055 0.148496
0.016055 0.806459 0.016055
0.016055 0.805447 0.016055
0.016055 0.801762 0.016055
0.759028 0.783516 0.016055
0.822912 0.378060 0.016055
0.016055 0.822913 0.016055
0.016055 0.822913 0.016055
0.016055 0.822913 0.016055
0.016055 0.822913 0.016055
0.801062 0.822912 0.016055
0.016055 0.016055 0.156018
0.161495 0.016055 0.165554
0.523548 0.016055 0.197374
0.821886 0.016055 0.309608
0.822913 0.016055 0.248320
0.016055 0.116836 0.074802
0.085008 0.086013 0.088492
0.508868 0.016055 0.129002
0.819489 0.016055 0.263469
0.822913 0.016055 0.237331
0.016055 0.497748 0.016055
0.016055 0.491746 0.016055
0.444842 0.468613 0.016055
0.810417 0.306714 0.016055
0.822912 0.016055 0.193653
0.016055 0.804896 0.016055
0.016055 0.803870 0.016055
0.016055 0.800136 0.016055
0.757988 0.781624 0.016055
0.822913 0.374321 0.016055
0.016055 0.822912 0.016055
0.016055 0.822912 0.016055
0.016055 0.822912 0.016055
0.016055 0.822913 0.016055
0.801243 0.822913 0.016055
0.016055 0.016055 0.507837
0.090055 0.016055 0.509980
0.509690 0.016055 0.517443
0.819620 0.016055 0.547875
0.822913 0.016055 0.351275
0.016055 0.016055 0.491494
0.016055 0.016055 0.493821
0.493886 0.016055 0.501911
0.817164 0.016055 0.534690
0.822913 0.016055 0.344108
0.016055 0.462075 0.418141
0.016055 0.454794 0.421530
0.423582 0.426346 0.433202
0.807876 0.207705 0.478564
0.822913 0.016055 0.315727
0.016055 0.799141 0.016055
0.016055 0.798061 0.016055
0.016055 0.794116 0.016055
0.754228 0.774680 0.016055
0.822912 0.360267 0.115357
0.016055 0.822913 0.016055
0.016055 0.822912 0.016055
0.016055 0.822913 0.016055
0.016055 0.822913 0.016055
0.801896 0.822913 0.016055
0.016055 0.016055 0.807885
0.016055 0.016055 0.808266
0.430794 0.016055 0.809616
0.808715 0.016055 0.815497
0.822913 0.016055 0.562609
0.016055 0.016055 0.805071
0.016055 0.016055 0.805462
0.406549 0.016055 0.806846
0.805985 0.016055 0.812875
0.822913 0.016055 0.560598
0.016055 0.104868 0.794424
0.016055 0.070912 0.794854
0.284673 0.016055 0.796374
0.795678 0.016055 0.802965
0.822913 0.016055 0.553124
0.016055 0.769242 0.732869
0.016055 0.767892 0.733499
0.016055 0.762967 0.735730
0.736349 0.738969 0.745457
0.822913 0.278705 0.512367
0.016055 0.822913 0.016055
0.016055 0.822912 0.016055
0.016055 0.822912 0.016055
0.016055 0.822912 0.016055
0.804928 0.822912 0.016055
0.016055 0.016055 0.822912
0.016055 0.016055 0.822912
0.016055 0.016055 0.822912
0.466885 0.016055 0.822912
0.816306 0.016055 0.822912
0.016055 0.016055 0.822912
0.016055 0.016055 0.822912
0.016055 0.016055 0.822912
0.463030 0.016055 0.822912
0.816296 0.016055 0.822912
0.016055 0.016055 0.822912
0.016055 0.016055 0.822912
0.016055 0.016055 0.822912
0.448358 0.016055 0.822912
0.816259 0.016055 0.822912
0.016055 0.204040 0.822912
0.016055 0.198373 0.822912
0.016055 0.177228 0.822912
0.356873 0.056147 0.822912
0.816080 0.016055 0.822912
0.016055 0.822913 0.790557
0.016055 0.822913 0.790971
0.016055 0.822913 0.792450
0.016055 0.822913 0.799084
0.814908 0.817239 0.822912
