luts/Z-Log2/gain +2/zLog2_zRGB-ax2_32_gain2_desatuation.cube
TITLE "Generated by ZCAM"
LUT_3D_SIZE 5
DOMAIN_MIN 0.000000 0.000000 0.000000
DOMAIN_MAX 0.903226 0.903226 0.903226
0.016055 0.016055 0.016055
0.226518 0.004893 0.004893
0.623254 -0.105385 -0.105385
0.892956 0.122681 0.122681
0.984028 0.280680 0.606308
0.012810 0.208434 0.012810
0.166774 0.186447 0.018942
0.614758 -0.012563 -0.103686
0.891941 0.121076 0.121076
0.983992 0.280611 0.591146
-0.102968 0.611168 -0.102968
-0.102313 0.607897 -0.102313
0.577863 0.595730 -0.099880
0.888189 0.569015 0.115171
0.983858 0.280359 0.519171
0.112209 0.886295 0.112209
0.111573 0.885887 0.111573
0.277238 0.884412 0.109276
0.869224 0.877371 0.098413
0.983213 0.875272 0.279144
0.278511 0.982877 0.278511
0.278480 0.982861 0.278480
0.278368 0.982801 0.278368
0.708885 0.982526 0.277850
0.979776 0.981146 0.275255
0.013311 0.013311 0.207179
0.211699 0.009994 0.215217
0.621039 -0.104942 0.166325
0.892689 0.122258 0.407701
0.984019 0.280662 0.666619
0.021218 0.173820 0.142080
0.148470 0.149159 0.150906
0.612442 -0.079403 0.098535
0.891670 0.120647 0.371158
0.983982 0.280592 0.656967
-0.101955 0.606104 -0.101955
-0.101283 0.602743 -0.101283
0.575621 0.590218 -0.098778
0.887902 0.561755 0.172005
0.983848 0.280340 0.615856
0.111227 0.885665 0.111227
0.110586 0.885254 0.110586
0.262163 0.883766 0.108272
0.868808 0.876660 0.097325
0.983202 0.874423 0.279123
0.278463 0.982852 0.278463
0.278431 0.982835 0.278431
0.278319 0.982775 0.278319
0.707104 0.982499 0.277800
0.979755 0.981114 0.275196
-0.103104 -0.103104 0.611848
0.059874 -0.103351 0.613084
0.612014 -0.104220 0.617432
0.891725 0.120735 0.666444
0.983984 0.280596 0.778555
-0.101254 -0.101254 0.602602
-0.035265 -0.101514 0.603900
0.603031 -0.102426 0.608460
0.890692 0.119104 0.658721
0.983947 0.280526 0.774490
-0.098095 0.586805 0.560867
-0.097347 0.583065 0.563522
0.566828 0.568401 0.572345
0.886868 0.533110 0.627989
0.983812 0.280272 0.758747
0.107662 0.883373 0.157678
0.107004 0.882948 0.169560
0.201195 0.881411 0.204202
0.867311 0.874066 0.317281
0.983162 0.871301 0.647734
0.278289 0.982760 0.278289
0.278258 0.982743 0.278258
0.278144 0.982682 0.278144
0.700548 0.982402 0.277617
0.979678 0.980999 0.274980
0.113109 0.113109 0.886871
0.113351 0.113351 0.887026
0.606818 0.114210 0.887575
0.887533 0.118008 0.889995
0.983824 0.280294 0.922826
0.111337 0.111337 0.885736
0.111582 0.111582 0.885893
0.596023 0.112452 0.886451
0.886426 0.116303 0.888910
0.983786 0.280222 0.922135
0.104810 0.504353 0.881530
0.105067 0.497927 0.881697
0.551124 0.472796 0.882288
0.882328 0.278765 0.884892
0.983647 0.279961 0.919577
0.090331 0.872062 0.860196
0.089584 0.871569 0.860345
0.086888 0.869782 0.860878
0.860523 0.861379 0.863510
0.982976 0.855067 0.906095
0.277478 0.982329 0.642705
0.277444 0.982311 0.644180
0.277323 0.982246 0.649319
0.666332 0.981948 0.670337
0.979325 0.980467 0.737554
0.278723 0.278723 0.982990
0.278735 0.278735 0.982996
0.278776 0.278776 0.983018
0.895308 0.278962 0.983117
0.983177 0.279760 0.983541
0.278637 0.278637 0.982945
0.278649 0.278649 0.982951
0.278691 0.278691 0.982973
0.894178 0.278879 0.983073
0.983133 0.279683 0.983500
0.278327 0.278327 0.982780
0.278339 0.278339 0.982786
0.278382 0.278382 0.982809
0.889975 0.278574 0.982911
0.982976 0.279401 0.983350
0.276823 0.839765 0.981980
0.276837 0.838898 0.981987
0.276885 0.835740 0.982013
0.866955 0.820256 0.982128
0.982215 0.709846 0.982623
0.273206 0.980053 0.978028
0.273163 0.980030 0.978029
0.273010 0.979948 0.978035
0.272310 0.979574 0.978060
0.977729 0.977880 0.978256
