luts/Z-Log2/gain +2/zLog2_zRGB-ax2_32_gain2_desatuation.cube
TITLE "Generated by ZCAM"
LUT_3D_SIZE 8
DOMAIN_MIN 0.000000 0.000000 0.000000
DOMAIN_MAX 0.903226 0.903226 0.903226
0.016055 0.016055 0.016055
0.020737 0.017104 0.017104
0.294121 -0.036288 -0.036288
0.526379 -0.086010 -0.086010
0.712819 -0.108412 -0.108412
0.865455 0.080405 0.080405
0.949792 0.218041 0.373968
0.984028 0.280680 0.606308
0.016055 0.016055 0.016055
0.016055 0.016055 0.016055
0.270434 -0.019779 -0.019779
0.519058 -0.084546 -0.084546
0.710231 -0.110944 -0.110944
0.864701 0.079280 0.079280
0.949643 0.217777 0.349100
0.984009 0.280644 0.598690
-0.023441 0.275976 -0.023441
-0.017599 0.267043 -0.017599
0.231913 0.254010 -0.009649
0.508217 0.163738 -0.082377
0.706507 0.014984 -0.114547
0.863623 0.077677 0.077677
0.949432 0.217404 0.309025
0.983982 0.280594 0.587181
-0.083353 0.513094 -0.083353
-0.082785 0.510254 -0.082785
0.049551 0.506169 -0.081968
0.476667 0.496166 -0.079967
0.697358 0.424799 -0.120205
0.861019 0.422340 0.073822
0.948929 0.216513 0.216513
0.983918 0.280473 0.555763
-0.119120 0.701712 -0.119120
-0.120072 0.700704 -0.120072
-0.120587 0.699268 -0.120587
0.328559 0.695820 -0.119898
0.670670 0.687369 -0.118208
0.854534 0.676446 0.064315
0.947713 0.674280 0.214363
0.983764 0.334262 0.438631
0.068946 0.857705 0.068946
0.068504 0.857403 0.068504
0.067876 0.856975 0.067876
0.066384 0.855954 0.066384
0.613875 0.853492 0.062801
0.837548 0.847392 0.054008
0.944683 0.854786 0.209029
0.983381 0.833210 0.279459
0.211659 0.946179 0.211659
0.211554 0.946120 0.211554
0.211406 0.946035 0.211406
0.211054 0.945835 0.211054
0.210215 0.945358 0.210215
0.811092 0.944207 0.208193
0.937353 0.941334 0.203168
0.982358 0.946708 0.277534
0.278511 0.982877 0.278511
0.278495 0.982869 0.278495
0.278472 0.982857 0.278472
0.278418 0.982828 0.278418
0.278290 0.982760 0.278290
0.277981 0.982596 0.277981
0.925848 0.982192 0.277221
0.979776 0.981146 0.275255
0.016055 0.016055 0.016055
0.016055 0.016055 0.016055
0.288007 -0.031813 -0.029478
0.524466 -0.085627 -0.059638
0.712137 -0.109081 -0.016561
0.865256 0.080108 0.241735
0.949753 0.217971 0.473027
0.984023 0.280671 0.640612
0.016055 0.016055 0.016055
0.016055 0.016055 0.016055
0.263890 -0.015613 -0.015613
0.517071 -0.084148 -0.084148
0.709539 -0.111617 -0.081202
0.864500 0.078981 0.209046
0.949604 0.217707 0.457349
0.984004 0.280635 0.634701
-0.014511 0.262112 -0.014511
-0.008948 0.252805 -0.008948
0.225825 0.239246 -0.001464
0.506115 0.144304 -0.081957
0.705800 -0.012703 -0.115227
0.863419 0.077375 0.156378
0.949393 0.217333 0.432475
0.983977 0.280584 0.625911
-0.082474 0.508700 -0.082474
-0.081893 0.505795 -0.081893
0.038029 0.501615 -0.081057
0.474701 0.491373 -0.079009
0.696608 0.418327 -0.120056
0.860809 0.414498 0.073512
0.948889 0.216441 0.361226
0.983913 0.280463 0.602603
-0.120588 0.700156 -0.120588
-0.120561 0.699137 -0.120561
-0.120271 0.697686 -0.120271
0.324286 0.694203 -0.119575
0.669975 0.685667 -0.117867
0.854307 0.674543 0.063986
0.947671 0.672082 0.214289
0.983759 0.312870 0.525546
0.068264 0.857239 0.068264
0.067820 0.856936 0.067820
0.067189 0.856505 0.067189
0.065691 0.855478 0.065691
0.612422 0.853004 0.062092
0.837255 0.846869 0.053260
0.944638 0.854277 0.208950
0.983375 0.832469 0.279449
0.211497 0.946087 0.211497
0.211392 0.946028 0.211392
0.211243 0.945943 0.211243
0.210890 0.945743 0.210890
0.210050 0.945264 0.210050
0.810667 0.944110 0.208024
0.937286 0.941229 0.202985
0.982352 0.946612 0.277522
0.278486 0.982864 0.278486
0.278470 0.982856 0.278470
0.278447 0.982844 0.278447
0.278393 0.982815 0.278393
0.278265 0.982747 0.278265
0.277955 0.982582 0.277955
0.925759 0.982177 0.277193
0.979765 0.981129 0.275225
-0.022972 -0.022972 0.275277
-0.025257 -0.025257 0.278658
0.278447 -0.028531 0.283390
0.521731 -0.085080 0.248813
0.711168 -0.110029 0.247094
0.864974 0.079687 0.403543
0.949697 0.217872 0.556035
0.984016 0.280657 0.678094
-0.007155 -0.007155 0.249674
-0.009238 -0.009238 0.253304
0.253964 -0.012234 0.258372
0.514228 -0.083580 0.221228
0.708556 -0.112570 0.219666
0.864215 0.078557 0.386859
0.949548 0.217609 0.546927
0.983997 0.280621 0.673599
-0.002679 0.241541 0.207181
0.002384 0.231698 0.212828
0.216032 0.217072 0.219693
0.503105 0.114718 0.178704
0.704795 -0.060736 0.176643
0.863131 0.076946 0.360401
0.949336 0.217234 0.533104
0.983970 0.280571 0.666985
-0.081198 0.502319 0.002948
-0.080597 0.499317 0.011510
0.020623 0.494998 0.023007
0.471898 0.484389 0.048120
0.695542 0.408843 0.054771
0.860512 0.402889 0.283002
0.948832 0.216341 0.495096
0.983906 0.280449 0.649980
-0.120320 0.697929 -0.120320
-0.120113 0.696896 -0.120113
-0.119819 0.695423 -0.119819
0.318125 0.691891 -0.119112
0.668990 0.683233 -0.117381
0.853987 0.671817 0.063519
0.947613 0.668919 0.348322
0.983751 0.285215 0.599063
0.067295 0.856577 0.067295
0.066848 0.856271 0.066848
0.066214 0.855837 0.066214
0.064706 0.854802 0.064706
0.610350 0.852308 0.061085
0.836841 0.846125 0.052197
0.944575 0.853551 0.208839
0.983367 0.831415 0.279434
0.211268 0.945957 0.211268
0.211163 0.945897 0.211163
0.211013 0.945812 0.211013
0.210659 0.945611 0.210659
0.209816 0.945131 0.209816
0.810064 0.943973 0.207783
0.937191 0.941081 0.202726
0.982342 0.946475 0.277504
0.278451 0.982846 0.278451
0.278435 0.982837 0.278435
0.278412 0.982825 0.278412
0.278358 0.982796 0.278358
0.278229 0.982728 0.278229
0.277918 0.982563 0.277918
0.925634 0.982157 0.277154
0.979749 0.981106 0.275181
-0.083450 -0.083450 0.513581
-0.083665 -0.083665 0.514657
0.205607 -0.083967 0.516167
0.514191 -0.084672 0.519689
0.708859 -0.112277 0.494219
0.864303 0.078688 0.569131
0.949565 0.217639 0.661419
0.983999 0.280626 0.739342
-0.081847 -0.081847 0.505565
-0.082071 -0.082071 0.506686
0.175601 -0.082386 0.508259
0.506420 -0.083119 0.511926
0.706211 -0.114832 0.485074
0.863538 0.077551 0.562393
0.949416 0.217374 0.656939
0.983980 0.280590 0.736500
-0.079464 0.125294 0.493651
-0.079702 0.110636 0.494841
0.127853 0.088888 0.496511
0.494889 0.032998 0.500402
0.702396 -0.118473 0.471455
0.862445 0.075929 0.552444
0.949203 0.216998 0.650373
0.983953 0.280539 0.732381
-0.078006 0.486362 0.457274
-0.077354 0.483100 0.459616
-0.029719 0.478391 0.462925
0.464504 0.466095 0.470083
0.692997 0.384706 0.437970
0.859804 0.371956 0.526633
0.948697 0.216102 0.633624
0.983889 0.280417 0.722112
-0.119242 0.692539 0.291483
-0.119028 0.691470 0.294514
-0.118724 0.689948 0.298737
0.302854 0.686296 0.308439
0.666649 0.677342 0.330169
0.853224 0.665196 0.446738
0.947474 0.661158 0.584913
0.983734 0.280124 0.694275
0.064981 0.854991 0.064981
0.064527 0.854680 0.064527
0.063884 0.854238 0.063884
0.062354 0.853184 0.062354
0.605360 0.850644 0.058680
0.835858 0.844344 0.049661
0.944425 0.851805 0.315083
0.983348 0.828874 0.590338
0.210724 0.945648 0.210724
0.210618 0.945587 0.210618
0.210467 0.945502 0.210467
0.210111 0.945299 0.210111
0.209261 0.944815 0.209261
0.808626 0.943647 0.207211
0.936966 0.940727 0.202110
0.982320 0.946150 0.277462
0.278368 0.982801 0.278368
0.278351 0.982793 0.278351
0.278328 0.982780 0.278328
0.278274 0.982751 0.278274
0.278144 0.982682 0.278144
0.277831 0.982516 0.277831
0.925336 0.982108 0.277063
0.979712 0.981051 0.275077
-0.118390 -0.118390 0.702483
-0.118026 -0.118026 0.702866
0.101444 -0.117513 0.703406
0.458869 -0.116303 0.704675
0.702457 -0.113460 0.707636
0.862695 0.076301 0.724987
0.949252 0.217084 0.776921
0.983959 0.280550 0.822108
-0.120667 -0.120667 0.699664
-0.120683 -0.120683 0.700054
0.060657 -0.120165 0.700604
0.448325 -0.118946 0.701896
0.699695 -0.116082 0.704906
0.861915 0.075146 0.722298
0.949101 0.216817 0.774929
0.983940 0.280514 0.820605
-0.119852 -0.119852 0.695592
-0.119933 -0.119933 0.695993
-0.001482 -0.120045 0.696557
0.433279 -0.120310 0.697883
0.695706 -0.119820 0.700970
0.860801 0.073499 0.718426
0.948887 0.216438 0.772071
0.983913 0.280463 0.818452
-0.117843 0.393579 0.685544
-0.117928 0.388547 0.685969
-0.118048 0.381254 0.686569
0.394711 0.363141 0.687977
0.685934 0.314558 0.691259
0.858108 0.274657 0.708883
0.948376 0.215535 0.765105
0.983848 0.280340 0.813236
-0.116546 0.679063 0.655203
-0.116315 0.677906 0.656028
-0.115985 0.676258 0.657193
0.261246 0.672302 0.659947
0.660396 0.661940 0.665811
0.851394 0.648485 0.683741
0.947143 0.641013 0.747182
0.983692 0.280045 0.800077
0.059377 0.851127 0.589913
0.058908 0.850802 0.590484
0.058242 0.850340 0.591286
0.056658 0.849239 0.593162
0.593018 0.846584 0.597492
0.833513 0.840007 0.607198
0.944067 0.847501 0.692659
0.983303 0.822611 0.762588
0.209421 0.944907 0.209421
0.209313 0.944845 0.209313
0.209160 0.944758 0.209160
0.208797 0.944551 0.208797
0.207931 0.944058 0.207931
0.805152 0.942865 0.205842
0.936430 0.939876 0.219467
0.982267 0.945367 0.567387
0.278168 0.982696 0.278168
0.278152 0.982687 0.278152
0.278129 0.982674 0.278129
0.278073 0.982645 0.278073
0.277941 0.982575 0.277941
0.277624 0.982406 0.277624
0.924624 0.981991 0.276843
0.979624 0.980919 0.274831
0.069905 0.069905 0.858359
0.070073 0.070073 0.858473
0.070311 0.070311 0.858635
0.478805 0.070871 0.859017
0.700599 0.072187 0.859911
0.858996 0.075253 0.861987
0.948501 0.215756 0.884219
0.983864 0.280370 0.906082
0.068673 0.068673 0.857519
0.068843 0.068843 0.857635
0.069083 0.069083 0.857798
0.468013 0.069647 0.858183
0.697513 0.070973 0.859086
0.858176 0.074063 0.861183
0.948348 0.215484 0.883568
0.983844 0.280333 0.905587
0.066917 0.066917 0.856319
0.067089 0.067089 0.856436
0.067331 0.067331 0.856602
0.451666 0.067902 0.856992
0.693052 0.069242 0.857907
0.857003 0.072366 0.860033
0.948129 0.215098 0.882637
0.983817 0.280281 0.904880
0.062689 0.301238 0.853415
0.062865 0.292742 0.853536
0.063114 0.280353 0.853707
0.406988 0.248951 0.854111
0.682017 0.156522 0.855057
0.854168 0.068282 0.857252
0.947609 0.214179 0.880387
0.983751 0.280156 0.903174
0.052239 0.651269 0.846154
0.052427 0.649961 0.846285
0.052692 0.648097 0.846471
0.238769 0.643607 0.846908
0.652749 0.632511 0.847932
0.847089 0.603116 0.850307
0.946351 0.579068 0.874776
0.983591 0.279856 0.898934
0.045345 0.841296 0.826932
0.044837 0.840935 0.827067
0.044116 0.840424 0.827259
0.042401 0.839204 0.827714
0.560320 0.836257 0.828803
0.827908 0.828940 0.831504
0.943208 0.836259 0.859622
0.983196 0.806486 0.887583
0.206245 0.943095 0.793962
0.206132 0.943031 0.794158
0.205972 0.942939 0.794434
0.205592 0.942722 0.795085
0.204684 0.942203 0.796609
0.796529 0.940945 0.800123
0.935134 0.937780 0.807904
0.982140 0.943429 0.849465
0.277685 0.982438 0.277685
0.277668 0.982429 0.277668
0.277643 0.982416 0.277643
0.277586 0.982386 0.277586
0.277449 0.982313 0.277449
0.277119 0.982138 0.277119
0.922896 0.981708 0.276311
0.979414 0.980602 0.496281
0.212234 0.212234 0.946506
0.212274 0.212274 0.946528
0.212330 0.212330 0.946560
0.407544 0.212463 0.946636
0.713235 0.212776 0.946814
0.869616 0.213512 0.947231
0.946996 0.215223 0.948200
0.983632 0.279932 0.959461
0.211942 0.211942 0.946340
0.211983 0.211983 0.946363
0.212039 0.212039 0.946395
0.386896 0.212173 0.946471
0.710175 0.212487 0.946649
0.868833 0.213225 0.947068
0.946835 0.214943 0.948041
0.983611 0.279893 0.959346
0.211529 0.211529 0.946105
0.211569 0.211569 0.946128
0.211626 0.211626 0.946161
0.354426 0.211761 0.946237
0.705744 0.212077 0.946417
0.867715 0.212819 0.946838
0.946606 0.214545 0.947816
0.983582 0.279839 0.959182
0.210543 0.210543 0.945545
0.210584 0.210584 0.945568
0.210642 0.210642 0.945601
0.251631 0.210778 0.945679
0.694725 0.211098 0.945861
0.865008 0.211850 0.946288
0.946062 0.213598 0.947279
0.983513 0.279709 0.958791
0.208159 0.597752 0.944188
0.208201 0.595455 0.944212
0.208261 0.592149 0.944246
0.208402 0.584044 0.944326
0.665038 0.562911 0.944515
0.858244 0.497139 0.944957
0.944743 0.211312 0.945982
0.983347 0.279396 0.957844
0.202175 0.838598 0.940765
0.202222 0.838216 0.940791
0.202287 0.837674 0.940829
0.202440 0.836378 0.940917
0.557626 0.833236 0.941124
0.839416 0.825337 0.941609
0.941429 0.803627 0.942730
0.982933 0.758306 0.955483
0.198082 0.938410 0.932577
0.197954 0.938336 0.932588
0.197772 0.938232 0.932605
0.197341 0.937983 0.932644
0.196312 0.937389 0.932735
0.773916 0.935951 0.932944
0.932157 0.932587 0.933654
0.981831 0.938290 0.948976
0.276469 0.981792 0.916948
0.276450 0.981782 0.916997
0.276424 0.981768 0.917067
0.276362 0.981735 0.917230
0.276213 0.981655 0.917613
0.275856 0.981465 0.918503
0.918543 0.981001 0.920526
0.978900 0.979816 0.924898
0.278723 0.278723 0.982990
0.278729 0.278729 0.982993
0.278738 0.278738 0.982998
0.278758 0.278758 0.983009
0.633493 0.278805 0.983034
0.863974 0.278916 0.983093
0.953188 0.279174 0.983230
0.983177 0.279760 0.983541
0.278679 0.278679 0.982967
0.278685 0.278685 0.982970
0.278694 0.278694 0.982974
0.278714 0.278714 0.982985
0.627444 0.278761 0.983010
0.863044 0.278873 0.983070
0.953047 0.279132 0.983207
0.983154 0.279721 0.983519
0.278616 0.278616 0.982933
0.278623 0.278623 0.982937
0.278631 0.278631 0.982941
0.278652 0.278652 0.982952
0.618434 0.278699 0.982978
0.861708 0.278812 0.983037
0.952848 0.279072 0.983176
0.983123 0.279664 0.983489
0.278467 0.278467 0.982854
0.278473 0.278473 0.982858
0.278482 0.278482 0.982862
0.278503 0.278503 0.982873
0.594440 0.278551 0.982899
0.858453 0.278665 0.982959
0.952369 0.278929 0.983100
0.983047 0.279529 0.983418
0.278107 0.278107 0.982663
0.278113 0.278113 0.982666
0.278122 0.278122 0.982671
0.278144 0.278144 0.982682
0.514554 0.278194 0.982709
0.850200 0.278311 0.982771
0.951204 0.278584 0.982916
0.982865 0.279202 0.983244
0.277212 0.773925 0.982187
0.277219 0.773167 0.982191
0.277229 0.772089 0.982196
0.277252 0.769502 0.982208
0.277305 0.763161 0.982237
0.827006 0.746779 0.982303
0.948243 0.697406 0.982459
0.982412 0.278389 0.982812
0.274864 0.939532 0.980937
0.274872 0.939457 0.980941
0.274883 0.939350 0.980947
0.274909 0.939098 0.980961
0.274970 0.938491 0.980994
0.744216 0.937011 0.981071
0.939847 0.933211 0.981251
0.981218 0.922130 0.981662
0.273206 0.980053 0.978028
0.273184 0.980041 0.978028
0.273153 0.980024 0.978030
0.273079 0.979985 0.978033
0.272904 0.979892 0.978039
0.272486 0.979668 0.978054
0.906486 0.979126 0.978084
0.977729 0.977880 0.978256
