luts/Z-Log2/gain +2/zLog2_zRGB-ax2_32_gain2.cube
TITLE "Generated by ZCAM"
LUT_3D_SIZE 32
0.016055 0.016055 0.016055
0.016055 0.016055 0.016055
0.016055 0.016055 0.016055
0.019400 0.016055 0.016055
0.085507 0.016055 0.016055
0.152529 0.016055 0.016055
0.219217 0.016055 0.016055
0.285509 0.016055 0.016055
0.350766 0.016055 0.016055
0.410024 0.016055 0.016055
0.465653 0.016055 0.016055
0.517794 0.016055 0.016055
0.567426 0.016055 0.016055
0.614882 0.016055 0.016055
0.660688 0.016055 0.016055
0.704793 0.016055 0.016055
0.747443 0.016055 0.016055
0.789195 0.016055 0.016055
0.822912 0.016055 0.029102
0.822913 0.016055 0.081859
0.822912 0.016055 0.118107
0.822913 0.016055 0.143009
0.822913 0.016055 0.161825
0.822913 0.016055 0.176221
0.822913 0.016055 0.187274
0.822913 0.016055 0.195855
0.822913 0.016055 0.202562
0.822913 0.016055 0.207846
0.822913 0.016055 0.212029
0.822913 0.016055 0.215348
0.822913 0.016055 0.217993
0.822913 0.016055 0.220099
0.016055 0.016055 0.016055
0.016055 0.016055 0.016055
0.016055 0.016055 0.016055
0.019400 0.016055 0.016055
0.085507 0.016055 0.016055
0.152529 0.016055 0.016055
0.219217 0.016055 0.016055
0.285509 0.016055 0.016055
0.350766 0.016055 0.016055
0.410024 0.016055 0.016055
0.465653 0.016055 0.016055
0.517794 0.016055 0.016055
0.567426 0.016055 0.016055
0.614882 0.016055 0.016055
0.660688 0.016055 0.016055
0.704793 0.016055 0.016055
0.747443 0.016055 0.016055
0.789195 0.016055 0.016055
0.822912 0.016055 0.029102
0.822913 0.016055 0.081859
0.822912 0.016055 0.118107
0.822913 0.016055 0.143009
0.822913 0.016055 0.161825
0.822913 0.016055 0.176221
0.822913 0.016055 0.187274
0.822913 0.016055 0.195855
0.822913 0.016055 0.202562
0.822913 0.016055 0.207846
0.822913 0.016055 0.212029
0.822913 0.016055 0.215348
0.822913 0.016055 0.217993
0.822913 0.016055 0.220099
0.016055 0.016055 0.016055
0.016055 0.016055 0.016055
0.016055 0.016055 0.016055
0.019400 0.016055 0.016055
0.085507 0.016055 0.016055
0.152529 0.016055 0.016055
0.219217 0.016055 0.016055
0.285509 0.016055 0.016055
0.350766 0.016055 0.016055
0.410024 0.016055 0.016055
0.465653 0.016055 0.016055
0.517794 0.016055 0.016055
0.567426 0.016055 0.016055
0.614882 0.016055 0.016055
0.660688 0.016055 0.016055
0.704793 0.016055 0.016055
0.747443 0.016055 0.016055
0.789195 0.016055 0.016055
0.822912 0.016055 0.029102
0.822913 0.016055 0.081859
0.822912 0.016055 0.118107
0.822913 0.016055 0.143009
0.822913 0.016055 0.161825
0.822913 0.016055 0.176221
0.822913 0.016055 0.187274
0.822913 0.016055 0.195855
0.822913 0.016055 0.202562
0.822913 0.016055 0.207846
0.822913 0.016055 0.212029
0.822913 0.016055 0.215348
0.822913 0.016055 0.217993
0.822913 0.016055 0.220099
0.016055 0.016055 0.016055
0.016055 0.016055 0.016055
0.016055 0.016055 0.016055
0.016055 0.016055 0.016055
0.016055 0.016055 0.016055
0.089170 0.016055 0.016055
0.169237 0.016055 0.016055
0.245840 0.016055 0.016055
0.320513 0.016055 0.016055
0.388060 0.016055 0.016055
0.449187 0.016055 0.016055
0.505396 0.016055 0.016055
0.557939 0.016055 0.016055
0.607585 0.016055 0.016055
0.655011 0.016055 0.016055
0.700431 0.016055 0.016055
0.743992 0.016055 0.016055
0.786532 0.016055 0.016055
0.822912 0.016055 0.016055
0.822913 0.016055 0.019544
0.822913 0.016055 0.072178
0.822913 0.016055 0.112179
0.822912 0.016055 0.138643
0.822913 0.016055 0.158496
0.822913 0.016055 0.173675
0.822912 0.016055 0.185309
0.822912 0.016055 0.194323
0.822913 0.016055 0.201362
0.822913 0.016055 0.206900
0.822913 0.016055 0.211276
0.822912 0.016055 0.214751
0.822913 0.016055 0.217511
0.016055 0.049192 0.016055
0.016055 0.049192 0.016055
0.016055 0.049192 0.016055
0.016055 0.022589 0.016055
0.016055 0.016975 0.016055
0.068614 0.016055 0.016055
0.155265 0.016055 0.016055
0.235184 0.016055 0.016055
0.312147 0.016055 0.016055
0.382196 0.016055 0.016055
0.444831 0.016055 0.016055
0.502159 0.016055 0.016055
0.555482 0.016055 0.016055
0.605710 0.016055 0.016055
0.653558 0.016055 0.016055
0.699317 0.016055 0.016055
0.743116 0.016055 0.016055
0.785856 0.016055 0.016055
0.822913 0.016055 0.016055
0.822912 0.016055 0.016055
0.822913 0.016055 0.058094
0.822913 0.016055 0.103699
0.822913 0.016055 0.132579
0.822913 0.016055 0.153891
0.822913 0.016055 0.170145
0.822912 0.016055 0.182594
0.822913 0.016055 0.192211
0.822913 0.016055 0.199708
0.822912 0.016055 0.205594
0.822912 0.016055 0.210243
0.822913 0.016055 0.213930
0.822913 0.016055 0.216859
0.016055 0.121537 0.016055
0.016055 0.121537 0.016055
0.016055 0.121537 0.016055
0.016055 0.097348 0.016055
0.016055 0.090643 0.016055
0.042237 0.081800 0.016055
0.137220 0.069948 0.016055
0.221435 0.054792 0.016055
0.301384 0.037268 0.016055
0.374705 0.019122 0.016055
0.439290 0.016055 0.016055
0.498071 0.016055 0.016055
0.552390 0.016055 0.016055
0.603359 0.016055 0.016055
0.651741 0.016055 0.016055
0.697926 0.016055 0.016055
0.742023 0.016055 0.016055
0.785013 0.016055 0.016055
0.822913 0.016055 0.016055
0.822913 0.016055 0.016055
0.822913 0.016055 0.041577
0.822913 0.016055 0.092436
0.822913 0.016055 0.124921
0.822913 0.016055 0.148089
0.822913 0.016055 0.165706
0.822913 0.016055 0.179186
0.822912 0.016055 0.189568
0.822913 0.016055 0.197643
0.822913 0.016055 0.203970
0.822913 0.016055 0.208958
0.822913 0.016055 0.212908
0.822913 0.016055 0.216043
0.016055 0.188276 0.016055
0.016055 0.188276 0.016055
0.016055 0.188276 0.016055
0.016055 0.168920 0.016055
0.016055 0.163856 0.016055
0.016153 0.157480 0.016055
0.113542 0.149434 0.016055
0.203331 0.139220 0.016055
0.287358 0.126212 0.016055
0.364998 0.109192 0.016055
0.432193 0.085374 0.016055
0.492881 0.050222 0.016055
0.548485 0.016055 0.016055
0.600402 0.016055 0.016055
0.649462 0.016055 0.016055
0.696182 0.016055 0.016055
0.740660 0.016055 0.016055
0.783961 0.016055 0.016055
0.822912 0.016055 0.016055
0.822913 0.016055 0.016055
0.822912 0.016055 0.024039
0.822913 0.016055 0.076923
0.822913 0.016055 0.115051
0.822913 0.016055 0.140751
0.822913 0.016055 0.160102
0.822913 0.016055 0.174902
0.822913 0.016055 0.186254
0.822913 0.016055 0.195058
0.822913 0.016055 0.201939
0.822913 0.016055 0.207353
0.822913 0.016055 0.211638
0.822913 0.016055 0.215031
0.016055 0.254752 0.016055
0.016055 0.254752 0.016055
0.016055 0.254752 0.016055
0.016055 0.239453 0.016055
0.016055 0.235517 0.016055
0.016055 0.230567 0.016055
0.079173 0.224304 0.016055
0.179157 0.216314 0.016055
0.269032 0.206072 0.016055
0.352166 0.192842 0.016055
0.423033 0.175541 0.016055
0.486247 0.152634 0.016055
0.543527 0.122220 0.016055
0.596668 0.077461 0.016055
0.646598 0.016811 0.016055
0.693994 0.016055 0.016055
0.738956 0.016055 0.016055
0.782646 0.016055 0.016055
0.822530 0.016055 0.016055
0.822913 0.016055 0.016055
0.822913 0.016055 0.016055
0.822913 0.016055 0.055643
0.822912 0.016055 0.102071
0.822912 0.016055 0.131444
0.822913 0.016055 0.153025
0.822912 0.016055 0.169483
0.822913 0.016055 0.182083
0.822913 0.016055 0.191816
0.822913 0.016055 0.199400
0.822913 0.016055 0.205350
0.822912 0.016055 0.210050
0.822913 0.016055 0.213771
0.016055 0.321649 0.016055
0.016055 0.321649 0.016055
0.016055 0.321649 0.016055
0.016055 0.309394 0.016055
0.016055 0.306225 0.016055
0.016055 0.302247 0.016055
0.030776 0.297224 0.016055
0.146264 0.290839 0.016055
0.244939 0.282707 0.016055
0.334926 0.272367 0.016055
0.411088 0.259131 0.016055
0.477683 0.242005 0.016055
0.537197 0.219501 0.016055
0.591931 0.188759 0.016055
0.642984 0.145625 0.016055
0.691239 0.081523 0.016055
0.736821 0.016055 0.016055
0.781000 0.016055 0.016055
0.821375 0.016055 0.016055
0.822913 0.016055 0.016055
0.822913 0.016055 0.016055
0.822912 0.016055 0.031561
0.822913 0.016055 0.084079
0.822913 0.016055 0.119505
0.822913 0.016055 0.144042
0.822912 0.016055 0.162611
0.822913 0.016055 0.176820
0.822913 0.016055 0.187736
0.822913 0.016055 0.196215
0.822913 0.016055 0.202844
0.822913 0.016055 0.208068
0.822913 0.016055 0.212199
0.016055 0.383663 0.016055
0.016055 0.383663 0.016055
0.016055 0.383663 0.016055
0.016055 0.374872 0.016055
0.016055 0.372606 0.016055
0.016055 0.369759 0.016055
0.016055 0.366165 0.016055
0.100500 0.361606 0.016055
0.212447 0.355779 0.016055
0.311240 0.348282 0.016055
0.395249 0.338561 0.016055
0.466479 0.325820 0.016055
0.529049 0.308798 0.016055
0.585880 0.285946 0.016055
0.638404 0.255069 0.016055
0.687760 0.212507 0.016055
0.734139 0.149187 0.016055
0.778935 0.042252 0.016055
0.819921 0.016055 0.016055
0.822913 0.016055 0.016055
0.822912 0.016055 0.016055
0.822913 0.016055 0.016055
0.822913 0.016055 0.058084
0.822913 0.016055 0.103687
0.822912 0.016055 0.132568
0.822913 0.016055 0.153881
0.822913 0.016055 0.170137
0.822913 0.016055 0.182586
0.822913 0.016055 0.192205
0.822913 0.016055 0.199703
0.822913 0.016055 0.205589
0.822913 0.016055 0.210234
0.016055 0.441018 0.016055
0.016055 0.441018 0.016055
0.016055 0.441018 0.016055
0.016055 0.434341 0.016055
0.016055 0.432630 0.016055
0.016055 0.430488 0.016055
0.016055 0.427802 0.016055
0.028330 0.424421 0.016055
0.166105 0.420152 0.016055
0.278214 0.414738 0.016055
0.373891 0.407817 0.016055
0.451598 0.398902 0.016055
0.518441 0.387314 0.016055
0.578086 0.372072 0.016055
0.632561 0.351282 0.016055
0.683344 0.321830 0.016055
0.730759 0.278848 0.016055
0.776338 0.216067 0.016055
0.818088 0.114515 0.016055
0.822913 0.016055 0.016055
0.822913 0.016055 0.016055
0.822913 0.016055 0.016055
0.822913 0.016055 0.028512
0.822912 0.016055 0.081284
0.822913 0.016055 0.117739
0.822913 0.016055 0.142733
0.822913 0.016055 0.161611
0.822913 0.016055 0.176055
0.822913 0.016055 0.187144
0.822913 0.016055 0.195753
0.822912 0.016055 0.202482
0.822912 0.016055 0.207777
0.016055 0.494755 0.016055
0.016055 0.494755 0.016055
0.016055 0.494755 0.016055
0.016055 0.489742 0.016055
0.016055 0.488464 0.016055
0.016055 0.486867 0.016055
0.016055 0.484868 0.016055
0.016055 0.482359 0.016055
0.097397 0.479201 0.016055
0.232114 0.475209 0.016055
0.343655 0.470135 0.016055
0.431423 0.463646 0.016055
0.504425 0.455282 0.016055
0.567943 0.444391 0.016055
0.625050 0.429984 0.016055
0.677706 0.410581 0.016055
0.726481 0.383731 0.016055
0.773056 0.344682 0.016055
0.815765 0.282457 0.016055
0.822912 0.157295 0.016055
0.822913 0.016055 0.016055
0.822913 0.016055 0.016055
0.822912 0.016055 0.016055
0.822913 0.016055 0.048822
0.822913 0.016055 0.097658
0.822913 0.016055 0.128412
0.822913 0.016055 0.150725
0.822913 0.016055 0.167718
0.822913 0.016055 0.180729
0.822912 0.016055 0.190766
0.822912 0.016055 0.198577
0.822913 0.016055 0.204697
0.016055 0.545514 0.016055
0.016055 0.545514 0.016055
0.016055 0.545514 0.016055
0.016055 0.541667 0.016055
0.016055 0.540690 0.016055
0.016055 0.539471 0.016055
0.016055 0.537949 0.016055
0.016055 0.536046 0.016055
0.016055 0.533659 0.016055
0.163075 0.530659 0.016055
0.298264 0.526873 0.016055
0.403244 0.522072 0.016055
0.485528 0.515948 0.016055
0.554554 0.508077 0.016055
0.615299 0.497857 0.016055
0.670456 0.484397 0.016055
0.721041 0.466238 0.016055
0.768870 0.441009 0.016055
0.812809 0.404509 0.016055
0.822913 0.313673 0.016055
0.822913 0.186372 0.016055
0.822913 0.027289 0.016055
0.822912 0.016055 0.016055
0.822913 0.016055 0.016055
0.822913 0.016055 0.067691
0.822913 0.016055 0.109525
0.822912 0.016055 0.136712
0.822912 0.016055 0.157029
0.822912 0.016055 0.172548
0.822913 0.016055 0.184438
0.822913 0.016055 0.193648
0.822913 0.016055 0.200824
0.016055 0.593982 0.016055
0.016055 0.593982 0.016055
0.016055 0.593982 0.016055
0.016055 0.591025 0.016055
0.016055 0.590275 0.016055
0.016055 0.589342 0.016055
0.016055 0.588177 0.016055
0.016055 0.586723 0.016055
0.016055 0.584904 0.016055
0.043191 0.582623 0.016055
0.229144 0.579755 0.016055
0.362159 0.576137 0.016055
0.459113 0.571549 0.016055
0.536512 0.565701 0.016055
0.602471 0.558187 0.016055
0.661030 0.548433 0.016055
0.714083 0.535597 0.016055
0.763505 0.518392 0.016055
0.809024 0.494693 0.016055
0.822913 0.428882 0.016055
0.822913 0.330597 0.016055
0.822912 0.207644 0.016055
0.822912 0.054072 0.016055
0.822913 0.016055 0.016055
0.822912 0.016055 0.029796
0.822912 0.016055 0.082479
0.822912 0.016055 0.118490
0.822913 0.016055 0.143286
0.822913 0.016055 0.162032
0.822913 0.016055 0.176377
0.822912 0.016055 0.187393
0.822912 0.016055 0.195940
0.016055 0.640505 0.016055
0.016055 0.640505 0.016055
0.016055 0.640505 0.016055
0.016055 0.638204 0.016055
0.016055 0.637623 0.016055
0.016055 0.636899 0.016055
0.016055 0.635998 0.016055
0.016055 0.634874 0.016055
0.016055 0.633472 0.016055
0.016055 0.631718 0.016055
0.114528 0.629520 0.016055
0.295233 0.626758 0.016055
0.420373 0.623276 0.016055
0.511495 0.618867 0.016055
0.585224 0.613255 0.016055
0.648602 0.606060 0.016055
0.705073 0.596737 0.016055
0.756599 0.584476 0.016055
0.804147 0.568034 0.016055
0.822913 0.518322 0.016055
0.822913 0.438187 0.016055
0.822913 0.343107 0.016055
0.822912 0.223556 0.016055
0.822912 0.078200 0.016055
0.822913 0.016055 0.016055
0.822913 0.016055 0.042689
0.822913 0.016055 0.093276
0.822913 0.016055 0.125471
0.822913 0.016055 0.148496
0.822912 0.016055 0.166015
0.822913 0.016055 0.179423
0.822913 0.016055 0.189744
0.016055 0.685461 0.016055
0.016055 0.685461 0.016055
0.016055 0.685461 0.016055
0.016055 0.683675 0.016055
0.016055 0.683224 0.016055
0.016055 0.682663 0.016055
0.016055 0.681966 0.016055
0.016055 0.681097 0.016055
0.016055 0.680013 0.016055
0.016055 0.678660 0.016055
0.016055 0.676968 0.016055
0.180162 0.674847 0.016055
0.359394 0.672182 0.016055
0.475192 0.668822 0.016055
0.561306 0.664564 0.016055
0.631929 0.659136 0.016055
0.693167 0.652167 0.016055
0.747681 0.643143 0.016055
0.797802 0.631305 0.016055
0.822912 0.594218 0.016055
0.822912 0.523871 0.016055
0.822912 0.445298 0.016055
0.822913 0.352568 0.016055
0.822913 0.235631 0.016055
0.822913 0.095567 0.016055
0.822913 0.016055 0.016055
0.822913 0.016055 0.054574
0.822912 0.016055 0.101352
0.822913 0.016055 0.130938
0.822913 0.016055 0.152639
0.822912 0.016055 0.169187
0.822913 0.016055 0.181847
0.016055 0.728603 0.016055
0.016055 0.728603 0.016055
0.016055 0.728603 0.016055
0.016055 0.727210 0.016055
0.016055 0.726859 0.016055
0.016055 0.726423 0.016055
0.016055 0.725881 0.016055
0.016055 0.725207 0.016055
0.016055 0.724368 0.016055
0.016055 0.723323 0.016055
0.016055 0.722018 0.016055
0.016055 0.720390 0.016055
0.245929 0.718353 0.016055
0.417794 0.715798 0.016055
0.526685 0.712581 0.016055
0.608935 0.708512 0.016055
0.677095 0.703328 0.016055
0.736015 0.696659 0.016055
0.789393 0.687984 0.016055
0.822912 0.662457 0.016055
0.822913 0.597611 0.016055
0.822913 0.528179 0.016055
0.822913 0.450794 0.016055
0.822912 0.359808 0.016055
0.822912 0.244982 0.016055
0.822913 0.108068 0.016055
0.822913 0.016055 0.016055
0.822913 0.016055 0.064298
0.822913 0.016055 0.107541
0.822912 0.016055 0.135287
0.822912 0.016055 0.155943
0.822913 0.016055 0.171713
0.016055 0.771006 0.016055
0.016055 0.771006 0.016055
0.016055 0.771006 0.016055
0.016055 0.769907 0.016055
0.016055 0.769630 0.016055
0.016055 0.769286 0.016055
0.016055 0.768858 0.016055
0.016055 0.768326 0.016055
0.016055 0.767663 0.016055
0.016055 0.766837 0.016055
0.016055 0.765806 0.016055
0.016055 0.764518 0.016055
0.016055 0.762908 0.016055
0.312235 0.760888 0.016055
0.472773 0.758351 0.016055
0.575825 0.755157 0.016055
0.654866 0.751124 0.016055
0.720453 0.746014 0.016055
0.778155 0.739475 0.016055
0.822913 0.725939 0.016055
0.822912 0.664482 0.016055
0.822912 0.600268 0.016055
0.822912 0.531551 0.016055
0.822912 0.455086 0.016055
0.822912 0.365401 0.016055
0.822913 0.252328 0.016055
0.822913 0.117441 0.016055
0.822913 0.016055 0.019847
0.822913 0.016055 0.072495
0.822913 0.016055 0.112352
0.822913 0.016055 0.138764
0.822913 0.016055 0.158578
0.016055 0.810999 0.016055
0.016055 0.810999 0.016055
0.016055 0.810999 0.016055
0.016055 0.810198 0.016055
0.016055 0.809997 0.016055
0.016055 0.809746 0.016055
0.016055 0.809434 0.016055
0.016055 0.809047 0.016055
0.016055 0.808564 0.016055
0.016055 0.807963 0.016055
0.016055 0.807213 0.016055
0.016055 0.806277 0.016055
0.016055 0.805105 0.016055
0.053150 0.803636 0.016055
0.374784 0.801790 0.016055
0.524393 0.799460 0.016055
0.622874 0.796496 0.016055
0.699179 0.792707 0.016055
0.762923 0.787837 0.016055
0.817393 0.781543 0.016055
0.822913 0.727007 0.016055
0.822912 0.666078 0.016055
0.822912 0.602362 0.016055
0.822913 0.534207 0.016055
0.822913 0.458459 0.016055
0.822913 0.369761 0.016055
0.822912 0.258128 0.016055
0.822913 0.124726 0.016055
0.822912 0.016055 0.025820
0.822912 0.016055 0.078691
0.822913 0.016055 0.116135
0.822912 0.016055 0.141539
0.016055 0.822913 0.016055
0.016055 0.822913 0.016055
0.016055 0.822913 0.016055
0.016055 0.822912 0.016055
0.016055 0.822913 0.016055
0.016055 0.822912 0.016055
0.016055 0.822913 0.016055
0.016055 0.822912 0.016055
0.016055 0.822912 0.016055
0.016055 0.822913 0.016055
0.016055 0.822912 0.016055
0.016055 0.822912 0.016055
0.016055 0.822913 0.016055
0.016055 0.822913 0.016055
0.114416 0.822912 0.016055
0.413230 0.822912 0.016055
0.557346 0.822912 0.016055
0.655567 0.822913 0.016055
0.733353 0.822912 0.016055
0.800332 0.822913 0.016055
0.822913 0.788070 0.016055
0.822913 0.727852 0.016055
0.822913 0.667340 0.016055
0.822912 0.604020 0.016055
0.822912 0.536309 0.016055
0.822913 0.461125 0.016055
0.822913 0.373190 0.016055
0.822912 0.262720 0.016055
0.822912 0.130425 0.016055
0.822912 0.016055 0.030955
0.822912 0.016055 0.083520
0.822913 0.016055 0.119139
0.016055 0.822913 0.016055
0.016055 0.822913 0.016055
0.016055 0.822913 0.016055
0.016055 0.822913 0.016055
0.016055 0.822913 0.016055
0.016055 0.822913 0.016055
0.016055 0.822913 0.016055
0.016055 0.822912 0.016055
0.016055 0.822913 0.016055
0.016055 0.822913 0.016055
0.016055 0.822912 0.016055
0.016055 0.822913 0.016055
0.016055 0.822912 0.016055
0.016055 0.822913 0.016055
0.016055 0.822913 0.016055
0.149390 0.822913 0.016055
0.423766 0.822913 0.016055
0.561750 0.822912 0.016055
0.657650 0.822912 0.016055
0.734238 0.822912 0.016055
0.800502 0.822912 0.016055
0.822913 0.788363 0.016055
0.822912 0.728523 0.016055
0.822913 0.668343 0.016055
0.822912 0.605338 0.016055
0.822912 0.537980 0.016055
0.822912 0.463240 0.016055
0.822912 0.375904 0.016055
0.822912 0.266372 0.016055
0.822912 0.134951 0.016055
0.822912 0.016055 0.035238
0.822913 0.016055 0.087277
0.016055 0.822913 0.016055
0.016055 0.822913 0.016055
0.016055 0.822913 0.016055
0.016055 0.822912 0.016055
0.016055 0.822913 0.016055
0.016055 0.822913 0.016055
0.016055 0.822912 0.016055
0.016055 0.822913 0.016055
0.016055 0.822913 0.016055
0.016055 0.822913 0.016055
0.016055 0.822913 0.016055
0.016055 0.822913 0.016055
0.016055 0.822913 0.016055
0.016055 0.822912 0.016055
0.016055 0.822912 0.016055
0.016055 0.822912 0.016055
0.175079 0.822912 0.016055
0.431788 0.822913 0.016055
0.565183 0.822913 0.016055
0.659290 0.822912 0.016055
0.734940 0.822912 0.016055
0.800637 0.822912 0.016055
0.822912 0.788597 0.016055
0.822912 0.729058 0.016055
0.822913 0.669142 0.016055
0.822912 0.606389 0.016055
0.822913 0.539311 0.016055
0.822913 0.464923 0.016055
0.822912 0.378060 0.016055
0.822912 0.269283 0.016055
0.822913 0.138567 0.016055
0.822913 0.016055 0.038797
0.016055 0.822912 0.016055
0.016055 0.822912 0.016055
0.016055 0.822912 0.016055
0.016055 0.822913 0.016055
0.016055 0.822913 0.016055
0.016055 0.822913 0.016055
0.016055 0.822912 0.016055
0.016055 0.822913 0.016055
0.016055 0.822912 0.016055
0.016055 0.822913 0.016055
0.016055 0.822913 0.016055
0.016055 0.822912 0.016055
0.016055 0.822912 0.016055
0.016055 0.822913 0.016055
0.016055 0.822912 0.016055
0.016055 0.822912 0.016055
0.016055 0.822913 0.016055
0.194152 0.822913 0.016055
0.437970 0.822912 0.016055
0.567878 0.822912 0.016055
0.660587 0.822912 0.016055
0.735497 0.822912 0.016055
0.800744 0.822912 0.016055
0.822912 0.788783 0.016055
0.822912 0.729486 0.016055
0.822912 0.669781 0.016055
0.822912 0.607229 0.016055
0.822913 0.540375 0.016055
0.822912 0.466266 0.016055
0.822913 0.379780 0.016055
0.822912 0.271608 0.016055
0.822912 0.141453 0.016055
0.016055 0.822912 0.016055
0.016055 0.822912 0.016055
0.016055 0.822912 0.016055
0.016055 0.822913 0.016055
0.016055 0.822913 0.016055
0.016055 0.822912 0.016055
0.016055 0.822912 0.016055
0.016055 0.822912 0.016055
0.016055 0.822912 0.016055
0.016055 0.822913 0.016055
0.016055 0.822912 0.016055
0.016055 0.822912 0.016055
0.016055 0.822912 0.016055
0.016055 0.822912 0.016055
0.016055 0.822912 0.016055
0.016055 0.822912 0.016055
0.016055 0.822912 0.016055
0.016055 0.822913 0.016055
0.208541 0.822912 0.016055
0.442778 0.822912 0.016055
0.570005 0.822912 0.016055
0.661617 0.822913 0.016055
0.735941 0.822912 0.016055
0.800830 0.822913 0.016055
0.822912 0.788932 0.016055
0.822913 0.729827 0.016055
0.822913 0.670291 0.016055
0.822912 0.607901 0.016055
0.822912 0.541226 0.016055
0.822913 0.467341 0.016055
0.822913 0.381154 0.016055
0.822913 0.273465 0.016055
0.016055 0.822912 0.016055
0.016055 0.822912 0.016055
0.016055 0.822912 0.016055
0.016055 0.822912 0.016055
0.016055 0.822912 0.016055
0.016055 0.822913 0.016055
0.016055 0.822912 0.016055
0.016055 0.822913 0.016055
0.016055 0.822913 0.016055
0.016055 0.822913 0.016055
0.016055 0.822912 0.016055
0.016055 0.822913 0.016055
0.016055 0.822913 0.016055
0.016055 0.822912 0.016055
0.016055 0.822913 0.016055
0.016055 0.822913 0.016055
0.016055 0.822912 0.016055
0.016055 0.822913 0.016055
0.016055 0.822912 0.016055
0.219566 0.822913 0.016055
0.446543 0.822913 0.016055
0.571693 0.822912 0.016055
0.662438 0.822912 0.016055
0.736296 0.822912 0.016055
0.800899 0.822912 0.016055
0.822913 0.789051 0.016055
0.822913 0.730101 0.016055
0.822912 0.670701 0.016055
0.822913 0.608440 0.016055
0.822912 0.541909 0.016055
0.822913 0.468201 0.016055
0.822912 0.382252 0.016055
0.016055 0.822913 0.016055
0.016055 0.822913 0.016055
0.016055 0.822913 0.016055
0.016055 0.822912 0.016055
0.016055 0.822913 0.016055
0.016055 0.822912 0.016055
0.016055 0.822913 0.016055
0.016055 0.822913 0.016055
0.016055 0.822912 0.016055
0.016055 0.822912 0.016055
0.016055 0.822913 0.016055
0.016055 0.822913 0.016055
0.016055 0.822912 0.016055
0.016055 0.822913 0.016055
0.016055 0.822913 0.016055
0.016055 0.822912 0.016055
0.016055 0.822913 0.016055
0.016055 0.822912 0.016055
0.016055 0.822912 0.016055
0.016055 0.822912 0.016055
0.228088 0.822912 0.016055
0.449512 0.822913 0.016055
0.573035 0.822912 0.016055
0.663094 0.822912 0.016055
0.736581 0.822912 0.016055
0.800954 0.822912 0.016055
0.822912 0.789147 0.016055
0.822912 0.730321 0.016055
0.822912 0.671030 0.016055
0.822913 0.608872 0.016055
0.822913 0.542456 0.016055
0.822912 0.468889 0.016055
0.016055 0.822912 0.016055
0.016055 0.822912 0.016055
0.016055 0.822912 0.016055
0.016055 0.822912 0.016055
0.016055 0.822913 0.016055
0.016055 0.822912 0.016055
0.016055 0.822913 0.016055
0.016055 0.822913 0.016055
0.016055 0.822913 0.016055
0.016055 0.822912 0.016055
0.016055 0.822913 0.016055
0.016055 0.822913 0.016055
0.016055 0.822913 0.016055
0.016055 0.822913 0.016055
0.016055 0.822912 0.016055
0.016055 0.822913 0.016055
0.016055 0.822912 0.016055
0.016055 0.822913 0.016055
0.016055 0.822913 0.016055
0.016055 0.822912 0.016055
0.016055 0.822912 0.016055
0.234734 0.822913 0.016055
0.451865 0.822913 0.016055
0.574105 0.822912 0.016055
0.663618 0.822913 0.016055
0.736809 0.822913 0.016055
0.800998 0.822913 0.016055
0.822913 0.789223 0.016055
0.822913 0.730498 0.016055
0.822913 0.671294 0.016055
0.822912 0.609220 0.016055
0.822913 0.542895 0.016055
0.016055 0.822913 0.016055
0.016055 0.822913 0.016055
0.016055 0.822913 0.016055
0.016055 0.822912 0.016055
0.016055 0.822912 0.016055
0.016055 0.822912 0.016055
0.016055 0.822913 0.016055
0.016055 0.822913 0.016055
0.016055 0.822913 0.016055
0.016055 0.822913 0.016055
0.016055 0.822913 0.016055
0.016055 0.822913 0.016055
0.016055 0.822913 0.016055
0.016055 0.822913 0.016055
0.016055 0.822912 0.016055
0.016055 0.822913 0.016055
0.016055 0.822913 0.016055
0.016055 0.822913 0.016055
0.016055 0.822912 0.016055
0.016055 0.822913 0.016055
0.016055 0.822913 0.016055
0.016055 0.822913 0.016055
0.239974 0.822912 0.016055
