luts/Z-Log2/gain +2/zLog2_zRGB-ax2_32_gain2.cube
TITLE "Generated by ZCAM"
LUT_3D_SIZE 5
DOMAIN_MIN 0.000000 0.000000 0.000000
DOMAIN_MAX 0.903226 0.903226 0.903226
0.016055 0.016055 0.016055
0.285509 0.016055 0.016055
0.660688 0.016055 0.016055
0.822913 0.016055 0.143009
0.822913 0.016055 0.212029
0.016055 0.254752 0.016055
0.179157 0.216314 0.016055
0.646598 0.016811 0.016055
0.822913 0.016055 0.055643
0.822913 0.016055 0.199400
0.016055 0.640505 0.016055
0.016055 0.634874 0.016055
0.585224 0.613255 0.016055
0.822913 0.343107 0.016055
0.822913 0.016055 0.148496
0.016055 0.822913 0.016055
0.016055 0.822913 0.016055
0.016055 0.822912 0.016055
0.800637 0.822912 0.016055
0.822912 0.378060 0.016055
0.016055 0.822913 0.016055
0.016055 0.822913 0.016055
0.016055 0.822913 0.016055
0.016055 0.822913 0.016055
0.801062 0.822912 0.016055
0.016055 0.016055 0.252591
0.260524 0.016055 0.266357
0.657060 0.016055 0.311280
0.822913 0.016055 0.310822
0.822913 0.016055 0.248320
0.016055 0.193132 0.128447
0.143354 0.144844 0.148593
0.642677 0.016055 0.212232
0.822913 0.016055 0.267125
0.822913 0.016055 0.237331
0.016055 0.631755 0.016055
0.016055 0.625847 0.016055
0.579741 0.603102 0.016055
0.822913 0.321201 0.016055
0.822912 0.016055 0.193653
0.016055 0.822912 0.016055
0.016055 0.822912 0.016055
0.016055 0.822913 0.016055
0.801475 0.822912 0.016055
0.822913 0.374321 0.016055
0.016055 0.822912 0.016055
0.016055 0.822912 0.016055
0.016055 0.822912 0.016055
0.016055 0.822913 0.016055
0.801243 0.822913 0.016055
0.016055 0.016055 0.641666
0.150948 0.016055 0.643767
0.643483 0.016055 0.651082
0.822912 0.016055 0.551841
0.822913 0.016055 0.351275
0.016055 0.016055 0.625598
0.016055 0.016055 0.627890
0.627954 0.016055 0.635849
0.822913 0.016055 0.541586
0.822913 0.016055 0.344108
0.016055 0.596691 0.553324
0.016055 0.589542 0.556694
0.558731 0.561471 0.568253
0.822912 0.221053 0.496294
0.822913 0.016055 0.315727
0.016055 0.822912 0.016055
0.016055 0.822912 0.016055
0.016055 0.822912 0.016055
0.804565 0.822913 0.016055
0.822912 0.360267 0.115357
0.016055 0.822913 0.016055
0.016055 0.822912 0.016055
0.016055 0.822913 0.016055
0.016055 0.822913 0.016055
0.801896 0.822913 0.016055
0.016055 0.016055 0.822912
0.016055 0.016055 0.822912
0.446624 0.016055 0.822912
0.816330 0.016055 0.822912
0.822913 0.016055 0.562609
0.016055 0.016055 0.822912
0.016055 0.016055 0.822912
0.425492 0.016055 0.822912
0.816283 0.016055 0.822912
0.822913 0.016055 0.560598
0.016055 0.118836 0.822912
0.016055 0.081873 0.822913
0.314137 0.016055 0.822912
0.816102 0.016055 0.822912
0.822913 0.016055 0.553124
0.016055 0.822913 0.789582
0.016055 0.822913 0.791497
0.016055 0.822913 0.798311
0.814908 0.817239 0.822912
0.822913 0.278705 0.512367
0.016055 0.822913 0.016055
0.016055 0.822912 0.016055
0.016055 0.822912 0.016055
0.016055 0.822913 0.016055
0.804928 0.822912 0.016055
0.016055 0.016055 0.822912
0.016055 0.016055 0.822912
0.016055 0.016055 0.822912
0.466885 0.016055 0.822912
0.816306 0.016055 0.822912
0.016055 0.016055 0.822912
0.016055 0.016055 0.822912
0.016055 0.016055 0.822912
0.463030 0.016055 0.822912
0.816296 0.016055 0.822912
0.016055 0.016055 0.822912
0.016055 0.016055 0.822912
0.016055 0.016055 0.822912
0.448358 0.016055 0.822912
0.816259 0.016055 0.822912
0.016055 0.204040 0.822912
0.016055 0.198373 0.822912
0.016055 0.177228 0.822912
0.356873 0.056147 0.822912
0.816080 0.016055 0.822912
0.016055 0.822913 0.790557
0.016055 0.822913 0.790971
0.016055 0.822913 0.792450
0.016055 0.822913 0.799084
0.814908 0.817239 0.822912
