luts/Z-Log2/gain +2/zLog2_zRGB-ax2_32_gain2.cube
TITLE "Generated by ZCAM"
LUT_3D_SIZE 8
DOMAIN_MIN 0.000000 0.000000 0.000000
DOMAIN_MAX 0.903226 0.903226 0.903226
0.016055 0.016055 0.016055
0.085507 0.016055 0.016055
0.350766 0.016055 0.016055
0.567426 0.016055 0.016055
0.747443 0.016055 0.016055
0.822912 0.016055 0.118107
0.822913 0.016055 0.187274
0.822913 0.016055 0.212029
0.016055 0.049192 0.016055
0.016055 0.016975 0.016055
0.312147 0.016055 0.016055
0.555482 0.016055 0.016055
0.743116 0.016055 0.016055
0.822913 0.016055 0.058094
0.822913 0.016055 0.170145
0.822912 0.016055 0.205594
0.016055 0.321649 0.016055
0.016055 0.306225 0.016055
0.244939 0.282707 0.016055
0.537197 0.219501 0.016055
0.736821 0.016055 0.016055
0.822913 0.016055 0.016055
0.822913 0.016055 0.144042
0.822913 0.016055 0.196215
0.016055 0.545514 0.016055
0.016055 0.540690 0.016055
0.016055 0.533659 0.016055
0.485528 0.515948 0.016055
0.721041 0.466238 0.016055
0.822913 0.186372 0.016055
0.822913 0.016055 0.067691
0.822912 0.016055 0.172548
0.016055 0.728603 0.016055
0.016055 0.726859 0.016055
0.016055 0.724368 0.016055
0.245929 0.718353 0.016055
0.677095 0.703328 0.016055
0.822913 0.597611 0.016055
0.822912 0.244982 0.016055
0.822913 0.016055 0.107541
0.016055 0.822913 0.016055
0.016055 0.822913 0.016055
0.016055 0.822913 0.016055
0.016055 0.822912 0.016055
0.423766 0.822913 0.016055
0.800502 0.822912 0.016055
0.822912 0.605338 0.016055
0.822912 0.266372 0.016055
0.016055 0.822912 0.016055
0.016055 0.822912 0.016055
0.016055 0.822913 0.016055
0.016055 0.822913 0.016055
0.016055 0.822912 0.016055
0.446543 0.822913 0.016055
0.800899 0.822912 0.016055
0.822913 0.608440 0.016055
0.016055 0.822913 0.016055
0.016055 0.822912 0.016055
0.016055 0.822912 0.016055
0.016055 0.822912 0.016055
0.016055 0.822912 0.016055
0.016055 0.822912 0.016055
0.455227 0.822912 0.016055
0.801062 0.822912 0.016055
0.016055 0.016055 0.042348
0.057400 0.016055 0.056949
0.341240 0.016055 0.078388
0.564334 0.016055 0.119848
0.746307 0.016055 0.197254
0.822913 0.016055 0.243282
0.822913 0.016055 0.234853
0.822912 0.016055 0.231306
0.016055 0.016055 0.016055
0.016055 0.016055 0.016055
0.300664 0.016055 0.016055
0.552185 0.016055 0.023423
0.741951 0.016055 0.126490
0.822913 0.016055 0.208800
0.822913 0.016055 0.220644
0.822913 0.016055 0.225355
0.016055 0.297488 0.016055
0.016055 0.280477 0.016055
0.230747 0.254939 0.016055
0.533565 0.185168 0.016055
0.735616 0.016055 0.016055
0.822912 0.016055 0.150154
0.822913 0.016055 0.198976
0.822913 0.016055 0.216671
0.016055 0.538029 0.016055
0.016055 0.533010 0.016055
0.016055 0.525688 0.016055
0.480769 0.507192 0.016055
0.719732 0.454792 0.016055
0.822913 0.161653 0.016055
0.822912 0.016055 0.139234
0.822913 0.016055 0.194810
0.016055 0.725910 0.016055
0.016055 0.724141 0.016055
0.016055 0.721614 0.016055
0.231780 0.715515 0.016055
0.675400 0.700231 0.016055
0.822913 0.594146 0.016055
0.822913 0.236907 0.016055
0.822913 0.016055 0.134635
0.016055 0.822913 0.016055
0.016055 0.822913 0.016055
0.016055 0.822913 0.016055
0.016055 0.822913 0.016055
0.420224 0.822912 0.016055
0.801040 0.822912 0.016055
0.822913 0.603975 0.016055
0.822913 0.263201 0.016055
0.016055 0.822912 0.016055
0.016055 0.822913 0.016055
0.016055 0.822913 0.016055
0.016055 0.822913 0.016055
0.016055 0.822913 0.016055
0.445298 0.822912 0.016055
0.801122 0.822912 0.016055
0.822913 0.607879 0.016055
0.016055 0.822912 0.016055
0.016055 0.822913 0.016055
0.016055 0.822913 0.016055
0.016055 0.822913 0.016055
0.016055 0.822912 0.016055
0.016055 0.822913 0.016055
0.454737 0.822912 0.016055
0.801155 0.822912 0.016055
0.016055 0.016055 0.320467
0.022224 0.016055 0.326141
0.326961 0.016055 0.333874
0.559878 0.016055 0.351041
0.744688 0.016055 0.386235
0.822913 0.016055 0.361392
0.822912 0.016055 0.291965
0.822912 0.016055 0.256629
0.016055 0.016055 0.274657
0.016055 0.016055 0.281402
0.283476 0.016055 0.290724
0.547426 0.016055 0.311501
0.740294 0.016055 0.354025
0.822913 0.016055 0.340627
0.822913 0.016055 0.280128
0.822912 0.016055 0.251145
0.016055 0.259331 0.196214
0.016055 0.240335 0.204820
0.209386 0.211430 0.216557
0.528313 0.129101 0.242422
0.733900 0.016055 0.296784
0.822913 0.016055 0.306136
0.822913 0.016055 0.262560
0.822913 0.016055 0.243223
0.016055 0.526929 0.016055
0.016055 0.521608 0.016055
0.016055 0.513830 0.016055
0.473829 0.494114 0.016055
0.717867 0.437384 0.084737
0.822912 0.123311 0.196474
0.822913 0.016055 0.216203
0.822912 0.016055 0.223598
0.016055 0.722038 0.016055
0.016055 0.720234 0.016055
0.016055 0.717658 0.016055
0.210503 0.711430 0.016055
0.672977 0.695748 0.016055
0.822913 0.589100 0.016055
0.822913 0.225108 0.051611
0.822913 0.016055 0.169712
0.016055 0.822913 0.016055
0.016055 0.822912 0.016055
0.016055 0.822912 0.016055
0.016055 0.822913 0.016055
0.415039 0.822912 0.016055
0.801808 0.822913 0.016055
0.822913 0.602026 0.016055
0.822913 0.258667 0.016055
0.016055 0.822913 0.016055
0.016055 0.822913 0.016055
0.016055 0.822912 0.016055
0.016055 0.822913 0.016055
0.016055 0.822912 0.016055
0.443512 0.822913 0.016055
0.801438 0.822912 0.016055
0.822913 0.607084 0.016055
0.016055 0.822913 0.016055
0.016055 0.822913 0.016055
0.016055 0.822913 0.016055
0.016055 0.822913 0.016055
0.016055 0.822913 0.016055
0.016055 0.822913 0.016055
0.454040 0.822912 0.016055
0.801288 0.822912 0.016055
0.016055 0.016055 0.546336
0.016055 0.016055 0.548147
0.288888 0.016055 0.550677
0.548904 0.016055 0.556523
0.740806 0.016055 0.569653
0.822913 0.016055 0.509009
0.822913 0.016055 0.390404
0.822912 0.016055 0.310072
0.016055 0.016055 0.532609
0.016055 0.016055 0.534554
0.239057 0.016055 0.537269
0.535682 0.016055 0.543537
0.736316 0.016055 0.557574
0.822913 0.016055 0.500414
0.822912 0.016055 0.383370
0.822912 0.016055 0.305534
0.016055 0.145587 0.511375
0.016055 0.117985 0.513546
0.151471 0.070773 0.516571
0.515299 0.016055 0.523538
0.729782 0.016055 0.539062
0.822912 0.016055 0.487278
0.822913 0.016055 0.372938
0.822912 0.016055 0.298972
0.016055 0.497848 0.449312
0.016055 0.491658 0.452307
0.016055 0.482556 0.456463
0.456319 0.459089 0.465945
0.713389 0.389096 0.486608
0.822913 0.016055 0.450147
0.822912 0.016055 0.345095
0.822913 0.016055 0.282579
0.016055 0.712578 0.114226
0.016055 0.710683 0.125253
0.016055 0.707970 0.140136
0.152820 0.701379 0.173272
0.667117 0.684634 0.239551
0.822913 0.576407 0.294167
0.822913 0.194805 0.254996
0.822913 0.016055 0.239602
0.016055 0.822912 0.016055
0.016055 0.822912 0.016055
0.016055 0.822913 0.016055
0.016055 0.822912 0.016055
0.401833 0.822913 0.016055
0.803662 0.822912 0.016055
0.822912 0.597310 0.016055
0.822912 0.247692 0.097633
0.016055 0.822912 0.016055
0.016055 0.822913 0.016055
0.016055 0.822912 0.016055
0.016055 0.822912 0.016055
0.016055 0.822913 0.016055
0.439170 0.822912 0.016055
0.802193 0.822913 0.016055
0.822912 0.605186 0.016055
0.016055 0.822913 0.016055
0.016055 0.822912 0.016055
0.016055 0.822912 0.016055
0.016055 0.822912 0.016055
0.016055 0.822913 0.016055
0.016055 0.822913 0.016055
0.452376 0.822913 0.016055
0.801602 0.822912 0.016055
0.016055 0.016055 0.729931
0.016055 0.016055 0.730591
0.173882 0.016055 0.731519
0.520144 0.016055 0.733695
0.731293 0.016055 0.738737
0.822913 0.016055 0.668943
0.822912 0.016055 0.522052
0.822912 0.016055 0.401374
0.016055 0.016055 0.725057
0.016055 0.016055 0.725734
0.098929 0.016055 0.726687
0.504704 0.016055 0.728919
0.726565 0.016055 0.734091
0.822912 0.016055 0.666336
0.822912 0.016055 0.518816
0.822913 0.016055 0.398609
0.016055 0.016055 0.717954
0.016055 0.016055 0.718656
0.016055 0.016055 0.719643
0.480572 0.016055 0.721957
0.719678 0.016055 0.727321
0.822912 0.016055 0.662493
0.822912 0.016055 0.514105
0.822913 0.016055 0.394624
0.016055 0.404211 0.700006
0.016055 0.394144 0.700784
0.016055 0.379104 0.701876
0.407445 0.338169 0.704428
0.702336 0.198129 0.710307
0.822913 0.016055 0.652591
0.822913 0.016055 0.502263
0.822913 0.016055 0.384837
0.016055 0.687917 0.647957
0.016055 0.685712 0.649007
0.016055 0.682548 0.650482
0.016055 0.674832 0.653921
0.652437 0.655131 0.661795
0.822912 0.541201 0.623290
0.822913 0.107339 0.469403
0.822913 0.016055 0.359225
0.016055 0.822912 0.324082
0.016055 0.822913 0.329060
0.016055 0.822913 0.335940
0.016055 0.822912 0.351625
0.364091 0.822913 0.385590
0.808279 0.822912 0.455739
0.822913 0.585492 0.340102
0.822913 0.220153 0.276468
0.016055 0.822913 0.016055
0.016055 0.822913 0.016055
0.016055 0.822912 0.016055
0.016055 0.822913 0.016055
0.016055 0.822912 0.016055
0.428185 0.822913 0.016055
0.804015 0.822912 0.016055
0.822913 0.600597 0.016055
0.016055 0.822912 0.016055
0.016055 0.822913 0.016055
0.016055 0.822912 0.016055
0.016055 0.822913 0.016055
0.016055 0.822913 0.016055
0.016055 0.822913 0.016055
0.448338 0.822912 0.016055
0.802351 0.822912 0.016055
0.016055 0.016055 0.822912
0.016055 0.016055 0.822912
0.016055 0.016055 0.822912
0.352690 0.016055 0.822912
0.630911 0.016055 0.822912
0.816337 0.016055 0.822912
0.822913 0.016055 0.673094
0.822913 0.016055 0.527206
0.016055 0.016055 0.822912
0.016055 0.016055 0.822912
0.016055 0.016055 0.822912
0.329655 0.016055 0.822912
0.627311 0.016055 0.822912
0.816307 0.016055 0.822912
0.822913 0.016055 0.672061
0.822913 0.016055 0.525899
0.016055 0.016055 0.822912
0.016055 0.016055 0.822912
0.016055 0.016055 0.822912
0.291015 0.016055 0.822912
0.621967 0.016055 0.822912
0.816264 0.016055 0.822912
0.822912 0.016055 0.670576
0.822913 0.016055 0.524031
0.016055 0.016055 0.822913
0.016055 0.016055 0.822912
0.016055 0.016055 0.822912
0.165644 0.016055 0.822912
0.607987 0.016055 0.822912
0.816156 0.016055 0.822912
0.822913 0.016055 0.666946
0.822913 0.016055 0.519506
0.016055 0.566701 0.822912
0.016055 0.562948 0.822912
0.016055 0.557536 0.822912
0.016055 0.544202 0.822912
0.564274 0.509150 0.822912
0.815867 0.393667 0.822912
0.822913 0.016055 0.657611
0.822913 0.016055 0.508150
0.016055 0.822912 0.789272
0.016055 0.822912 0.790506
0.016055 0.822912 0.792250
0.016055 0.822912 0.796360
0.197864 0.822912 0.805998
0.814908 0.817239 0.822912
0.822912 0.552992 0.630197
0.822912 0.141057 0.476831
0.016055 0.822913 0.364773
0.016055 0.822912 0.366513
0.016055 0.822913 0.368951
0.016055 0.822912 0.374635
0.016055 0.822912 0.387717
0.397346 0.822912 0.417140
0.808546 0.822912 0.479278
0.822912 0.589116 0.356435
0.016055 0.822912 0.016055
0.016055 0.822912 0.016055
0.016055 0.822912 0.016055
0.016055 0.822912 0.016055
0.016055 0.822913 0.016055
0.016055 0.822912 0.016055
0.438148 0.822912 0.016055
0.804160 0.822912 0.016055
0.016055 0.016055 0.822912
0.016055 0.016055 0.822912
0.016055 0.016055 0.822912
0.016055 0.016055 0.822912
0.383487 0.016055 0.822912
0.636279 0.016055 0.822912
0.816315 0.016055 0.822912
0.822913 0.016055 0.674785
0.016055 0.016055 0.822912
0.016055 0.016055 0.822912
0.016055 0.016055 0.822912
0.016055 0.016055 0.822912
0.375859 0.016055 0.822912
0.634864 0.016055 0.822912
0.816302 0.016055 0.822912
0.822913 0.016055 0.674360
0.016055 0.016055 0.822913
0.016055 0.016055 0.822912
0.016055 0.016055 0.822912
0.016055 0.016055 0.822912
0.364428 0.016055 0.822912
0.632824 0.016055 0.822912
0.816285 0.016055 0.822912
0.822912 0.016055 0.673754
0.016055 0.016055 0.822912
0.016055 0.016055 0.822912
0.016055 0.016055 0.822912
0.016055 0.016055 0.822913
0.333443 0.016055 0.822912
0.627809 0.016055 0.822912
0.816242 0.016055 0.822912
0.822913 0.016055 0.672302
0.016055 0.016055 0.822912
0.016055 0.016055 0.822912
0.016055 0.016055 0.822912
0.016055 0.016055 0.822912
0.232074 0.016055 0.822912
0.614735 0.016055 0.822912
0.816135 0.016055 0.822912
0.822913 0.016055 0.668755
0.016055 0.577193 0.822912
0.016055 0.575721 0.822912
0.016055 0.573624 0.822912
0.016055 0.568591 0.822912
0.016055 0.556233 0.822912
0.574451 0.524008 0.822912
0.815849 0.421531 0.822912
0.822913 0.016055 0.659647
0.016055 0.822912 0.790184
0.016055 0.822913 0.790694
0.016055 0.822913 0.791414
0.016055 0.822913 0.793116
0.016055 0.822913 0.797126
0.271228 0.822912 0.806532
0.814908 0.817239 0.822912
0.822913 0.557652 0.632975
0.016055 0.822912 0.379247
0.016055 0.822912 0.379937
0.016055 0.822913 0.380907
0.016055 0.822912 0.383192
0.016055 0.822913 0.388548
0.016055 0.822913 0.400959
0.409696 0.822913 0.428869
0.808655 0.822912 0.488149
0.016055 0.016055 0.822912
0.016055 0.016055 0.822912
0.016055 0.016055 0.822912
0.016055 0.016055 0.822912
0.016055 0.016055 0.822912
0.394975 0.016055 0.822912
0.638452 0.016055 0.822912
0.816306 0.016055 0.822912
0.016055 0.016055 0.822912
0.016055 0.016055 0.822912
0.016055 0.016055 0.822912
0.016055 0.016055 0.822912
0.016055 0.016055 0.822912
0.391985 0.016055 0.822912
0.637871 0.016055 0.822912
0.816301 0.016055 0.822912
0.016055 0.016055 0.822912
0.016055 0.016055 0.822912
0.016055 0.016055 0.822912
0.016055 0.016055 0.822912
0.016055 0.016055 0.822912
0.387672 0.016055 0.822912
0.637043 0.016055 0.822912
0.816293 0.016055 0.822912
0.016055 0.016055 0.822912
0.016055 0.016055 0.822912
0.016055 0.016055 0.822912
0.016055 0.016055 0.822912
0.016055 0.016055 0.822912
0.377059 0.016055 0.822912
0.635055 0.016055 0.822913
0.816275 0.016055 0.822912
0.016055 0.016055 0.822912
0.016055 0.016055 0.822912
0.016055 0.016055 0.822912
0.016055 0.016055 0.822912
0.016055 0.016055 0.822912
0.348741 0.016055 0.822912
0.630170 0.016055 0.822912
0.816232 0.016055 0.822912
0.016055 0.016055 0.822912
0.016055 0.016055 0.822912
0.016055 0.016055 0.822912
0.016055 0.016055 0.822912
0.016055 0.016055 0.822912
0.255603 0.016055 0.822912
0.617453 0.016055 0.822912
0.816126 0.016055 0.822912
0.016055 0.581344 0.822912
0.016055 0.580740 0.822912
0.016055 0.579883 0.822912
0.016055 0.577846 0.822912
0.016055 0.572958 0.822912
0.016055 0.560969 0.822912
0.578485 0.529808 0.822912
0.815842 0.432011 0.822912
0.016055 0.822913 0.790557
0.016055 0.822913 0.790770
0.016055 0.822912 0.791072
0.016055 0.822912 0.791785
0.016055 0.822912 0.793470
0.016055 0.822913 0.797440
0.297276 0.822913 0.806750
0.814908 0.817239 0.822912
