luts/Z-Log2/gain +2/zLog2_zRGB-ax2_32_gain2_desatuation.cube
TITLE "Generated by ZCAM"
LUT_3D_SIZE 32
0.016055 0.016055 0.016055
0.016055 0.016055 0.016055
0.016055 0.016055 0.016055
0.016055 0.016055 0.016055
0.020737 0.017104 0.017104
0.090001 0.026223 0.026223
0.158455 0.023450 0.023450
0.226518 0.004893 0.004893
0.294121 -0.036288 -0.036288
0.359530 -0.052640 -0.052640
0.418781 -0.064490 -0.064490
0.474348 -0.075603 -0.075603
0.526379 -0.086010 -0.086010
0.575913 -0.095917 -0.095917
0.623254 -0.105385 -0.105385
0.668950 -0.114524 -0.114524
0.712819 -0.108412 -0.108412
0.755485 -0.063452 -0.063452
0.796872 -0.014043 -0.014043
0.833749 0.034792 0.034792
0.865455 0.080405 0.080405
0.892956 0.122681 0.122681
0.916133 0.160266 0.212474
0.934726 0.191715 0.297881
0.949792 0.218041 0.373968
0.962161 0.240220 0.443205
0.971505 0.257314 0.505583
0.978661 0.270602 0.558980
0.984028 0.280680 0.606308
0.987402 0.287065 0.648013
0.988611 0.289361 0.685167
0.988611 0.289361 0.719323
0.016055 0.016055 0.016055
0.016055 0.016055 0.016055
0.016055 0.016055 0.016055
0.016055 0.016055 0.016055
0.020737 0.017104 0.017104
0.090001 0.026223 0.026223
0.158455 0.023450 0.023450
0.226518 0.004893 0.004893
0.294121 -0.036288 -0.036288
0.359530 -0.052640 -0.052640
0.418781 -0.064490 -0.064490
0.474348 -0.075603 -0.075603
0.526379 -0.086010 -0.086010
0.575913 -0.095917 -0.095917
0.623254 -0.105385 -0.105385
0.668950 -0.114524 -0.114524
0.712819 -0.108412 -0.108412
0.755485 -0.063452 -0.063452
0.796872 -0.014043 -0.014043
0.833749 0.034792 0.034792
0.865455 0.080405 0.080405
0.892956 0.122681 0.122681
0.916133 0.160266 0.212474
0.934726 0.191715 0.297881
0.949792 0.218041 0.373968
0.962161 0.240220 0.443205
0.971505 0.257314 0.505583
0.978661 0.270602 0.558980
0.984028 0.280680 0.606308
0.987402 0.287065 0.648013
0.988611 0.289361 0.685167
0.988611 0.289361 0.719323
0.016055 0.016055 0.016055
0.016055 0.016055 0.016055
0.016055 0.016055 0.016055
0.016055 0.016055 0.016055
0.020737 0.017104 0.017104
0.090001 0.026223 0.026223
0.158455 0.023450 0.023450
0.226518 0.004893 0.004893
0.294121 -0.036288 -0.036288
0.359530 -0.052640 -0.052640
0.418781 -0.064490 -0.064490
0.474348 -0.075603 -0.075603
0.526379 -0.086010 -0.086010
0.575913 -0.095917 -0.095917
0.623254 -0.105385 -0.105385
0.668950 -0.114524 -0.114524
0.712819 -0.108412 -0.108412
0.755485 -0.063452 -0.063452
0.796872 -0.014043 -0.014043
0.833749 0.034792 0.034792
0.865455 0.080405 0.080405
0.892956 0.122681 0.122681
0.916133 0.160266 0.212474
0.934726 0.191715 0.297881
0.949792 0.218041 0.373968
0.962161 0.240220 0.443205
0.971505 0.257314 0.505583
0.978661 0.270602 0.558980
0.984028 0.280680 0.606308
0.987402 0.287065 0.648013
0.988611 0.289361 0.685167
0.988611 0.289361 0.719323
0.016055 0.016055 0.016055
0.016055 0.016055 0.016055
0.016055 0.016055 0.016055
0.016055 0.016055 0.016055
0.016055 0.016055 0.016055
0.048042 0.022131 0.022131
0.129298 0.026063 0.026063
0.203265 0.014833 0.014833
0.275305 -0.022990 -0.022990
0.345656 -0.049865 -0.049865
0.408537 -0.062441 -0.062441
0.466659 -0.074066 -0.074066
0.520549 -0.084844 -0.084844
0.571440 -0.095022 -0.095022
0.619797 -0.104693 -0.104693
0.666265 -0.113987 -0.113987
0.710753 -0.110435 -0.110435
0.753834 -0.065305 -0.065305
0.795630 -0.015609 -0.015609
0.832893 0.033608 0.033608
0.864853 0.079507 0.079507
0.892540 0.122022 0.122022
0.915857 0.159809 0.176317
0.934550 0.191410 0.272680
0.949673 0.217830 0.354311
0.962086 0.240084 0.427892
0.971460 0.257231 0.494237
0.978633 0.270549 0.550811
0.984013 0.280652 0.600251
0.987394 0.287049 0.643478
0.988611 0.289361 0.681704
0.988611 0.289361 0.716655
0.016055 0.016055 0.016055
0.016055 0.016055 0.016055
0.016055 0.016055 0.016055
0.016055 0.016055 0.016055
0.016055 0.016055 0.016055
0.038270 0.020546 0.020546
0.121622 0.026398 0.026398
0.197118 0.016707 0.016707
0.270434 -0.019779 -0.019779
0.342012 -0.049136 -0.049136
0.405884 -0.061911 -0.061911
0.464679 -0.073670 -0.073670
0.519058 -0.084546 -0.084546
0.570300 -0.094794 -0.094794
0.618920 -0.104518 -0.104518
0.665585 -0.113851 -0.113851
0.710231 -0.110944 -0.110944
0.753418 -0.065770 -0.065770
0.795316 -0.016004 -0.016004
0.832678 0.033310 0.033310
0.864701 0.079280 0.079280
0.892435 0.121856 0.121856
0.915788 0.159694 0.168692
0.934505 0.191334 0.265899
0.949643 0.217777 0.349100
0.962067 0.240050 0.423911
0.971449 0.257210 0.491256
0.978626 0.270536 0.548694
0.984009 0.280644 0.598690
0.987392 0.287045 0.642316
0.988611 0.289361 0.680822
0.988611 0.289361 0.715978
0.024692 0.068669 0.024692
0.024692 0.068669 0.024692
0.024692 0.068669 0.024692
0.022822 0.052840 0.022822
0.022252 0.048854 0.022252
0.030595 0.044204 0.021537
0.111751 0.046880 0.026611
0.189305 0.034603 0.018371
0.264298 -0.005662 -0.015868
0.337398 -0.047406 -0.048214
0.402547 -0.061243 -0.061243
0.462196 -0.073173 -0.073173
0.517194 -0.084173 -0.084173
0.568878 -0.094510 -0.094510
0.617827 -0.104299 -0.104299
0.664738 -0.113682 -0.113682
0.709581 -0.111575 -0.111575
0.752901 -0.066348 -0.066348
0.794926 -0.016494 -0.016494
0.832409 0.032939 0.032939
0.864512 0.078999 0.078999
0.892305 0.121650 0.121650
0.915702 0.159551 0.160147
0.934450 0.191239 0.256966
0.949606 0.217712 0.342475
0.962043 0.240007 0.418894
0.971435 0.257185 0.487465
0.978617 0.270519 0.546031
0.984005 0.280635 0.596731
0.987390 0.287040 0.640863
0.988611 0.289361 0.679720
0.988611 0.289361 0.715133
0.025347 0.140045 0.025347
0.025347 0.140045 0.025347
0.025347 0.140045 0.025347
0.026072 0.129123 0.026072
0.026210 0.126335 0.026210
0.026354 0.122839 0.026354
0.100728 0.118421 0.026494
0.179315 0.114559 0.020276
0.256532 0.088645 -0.011134
0.331531 0.049294 -0.047040
0.398337 0.020857 -0.060401
0.459072 -0.012237 -0.072548
0.514858 -0.049627 -0.083705
0.567100 -0.087031 -0.094154
0.616463 -0.104027 -0.104027
0.663682 -0.113470 -0.113470
0.708773 -0.112360 -0.112360
0.752258 -0.067065 -0.067065
0.794440 -0.017104 -0.017104
0.832076 0.032478 0.032478
0.864278 0.078651 0.078651
0.892143 0.121394 0.121394
0.915595 0.159374 0.159374
0.934381 0.191121 0.244819
0.949560 0.217630 0.333983
0.962014 0.239954 0.412551
0.971417 0.257153 0.482623
0.978606 0.270498 0.542670
0.983999 0.280625 0.594264
0.987386 0.287034 0.639041
0.988611 0.289361 0.678341
0.988611 0.289361 0.714078
0.012810 0.208434 0.012810
0.012810 0.208434 0.012810
0.012810 0.208434 0.012810
0.016152 0.199575 0.016152
0.016665 0.197309 0.016665
0.017287 0.194474 0.017287
0.081930 0.190920 0.018040
0.166774 0.186447 0.018942
0.246664 0.174661 -0.005467
0.324000 0.143597 -0.045534
0.393000 0.118862 -0.059334
0.455128 0.092477 -0.071759
0.511921 0.063218 -0.083118
0.564871 0.029436 -0.093708
0.614758 -0.012563 -0.103686
0.662364 -0.070946 -0.113207
0.707765 -0.113335 -0.113335
0.751458 -0.067955 -0.067955
0.793835 -0.017862 -0.017862
0.831660 0.031905 0.031905
0.863986 0.078217 0.078217
0.891941 0.121076 0.121076
0.915462 0.159153 0.159153
0.934296 0.190974 0.227725
0.949503 0.217529 0.323086
0.961978 0.239889 0.404487
0.971396 0.257113 0.476423
0.978592 0.270473 0.538411
0.983992 0.280611 0.591146
0.987382 0.287027 0.636748
0.988611 0.289361 0.676610
0.988611 0.289361 0.712759
-0.023441 0.275976 -0.023441
-0.023441 0.275976 -0.023441
-0.023441 0.275976 -0.023441
-0.018757 0.268853 -0.018757
-0.017599 0.267043 -0.017599
-0.016173 0.264785 -0.016173
0.029697 0.261964 -0.014420
0.137047 0.258435 -0.012272
0.231913 0.254010 -0.009649
0.314239 0.235286 -0.043582
0.386202 0.212482 -0.057974
0.450125 0.189043 -0.070759
0.508217 0.163738 -0.082377
0.562071 0.135131 -0.093148
0.612623 0.101519 -0.103259
0.660716 0.060379 -0.112877
0.706507 0.014984 -0.114547
0.750462 -0.007201 -0.069060
0.793081 -0.018807 -0.018807
0.831142 0.031192 0.031192
0.863623 0.077677 0.077677
0.891691 0.120681 0.120681
0.915296 0.158879 0.158879
0.934190 0.190792 0.207581
0.949432 0.217404 0.309025
0.961933 0.239807 0.394052
0.971369 0.257063 0.468465
0.978575 0.270441 0.532967
0.983982 0.280594 0.587181
0.987378 0.287018 0.633854
0.988611 0.289361 0.674434
0.988611 0.289361 0.711106
-0.049318 0.342920 -0.049318
-0.049318 0.342920 -0.049318
-0.049318 0.342920 -0.049318
-0.048234 0.337500 -0.048234
-0.047957 0.336117 -0.047957
-0.047612 0.334390 -0.047612
-0.033841 0.332230 -0.047180
0.087762 0.329517 -0.046637
0.195983 0.326095 -0.045953
0.297539 0.321763 -0.045087
0.377488 0.304017 -0.056232
0.443742 0.282360 -0.069482
0.503525 0.259674 -0.081439
0.558540 0.234789 -0.092442
0.609942 0.206508 -0.102722
0.658651 0.173385 -0.112464
0.704935 0.137182 -0.116055
0.749222 0.127495 -0.070432
0.792139 0.112090 -0.019983
0.830496 0.074779 0.030302
0.863171 0.077006 0.077006
0.891379 0.120189 0.120189
0.915090 0.158538 0.158538
0.934059 0.190566 0.190566
0.949344 0.217248 0.290503
0.961877 0.239706 0.380339
0.971336 0.257002 0.458089
0.978554 0.270402 0.525911
0.983971 0.280572 0.582107
0.987372 0.287006 0.630182
0.988611 0.289361 0.671686
0.988611 0.289361 0.709027
-0.061451 0.403583 -0.061451
-0.061451 0.403583 -0.061451
-0.061451 0.403583 -0.061451
-0.060655 0.399605 -0.060655
-0.060453 0.398595 -0.060453
-0.060201 0.397336 -0.060201
-0.059887 0.395765 -0.059887
0.039498 0.393802 -0.059495
0.156755 0.391344 -0.059003
0.264271 0.388257 -0.058385
0.362491 0.384375 -0.057609
0.435521 0.368260 -0.067838
0.497549 0.348362 -0.080244
0.554068 0.327416 -0.091548
0.606566 0.304309 -0.102047
0.656058 0.277702 -0.111946
0.702963 0.247705 -0.117934
0.747673 0.241831 -0.072138
0.790960 0.234927 -0.021450
0.829688 0.220558 0.029192
0.862606 0.185591 0.076169
0.890991 0.119576 0.119576
0.914834 0.158113 0.158113
0.933895 0.190284 0.190284
0.949235 0.217054 0.263248
0.961808 0.239580 0.362056
0.971294 0.256925 0.444591
0.978528 0.270353 0.516591
0.983957 0.280546 0.575566
0.987364 0.286992 0.625490
0.988611 0.289361 0.668200
0.988611 0.289361 0.706403
-0.072773 0.460196 -0.072773
-0.072773 0.460196 -0.072773
-0.072773 0.460196 -0.072773
-0.072174 0.457199 -0.072174
-0.072022 0.456439 -0.072022
-0.071833 0.455494 -0.071833
-0.071597 0.454315 -0.071597
-0.027478 0.452844 -0.071303
0.109323 0.451004 -0.070935
0.225903 0.448699 -0.070474
0.332014 0.445805 -0.069895
0.421371 0.442154 -0.069165
0.489878 0.427060 -0.078710
0.548370 0.408294 -0.090408
0.602293 0.388453 -0.101193
0.652789 0.366651 -0.111292
0.700486 0.342027 -0.120277
0.745734 0.339898 -0.074263
0.789483 0.339747 -0.023282
0.828675 0.335430 0.027804
0.861902 0.318811 0.075126
0.890506 0.282994 0.118812
0.914514 0.200747 0.157583
0.933691 0.189933 0.189933
0.949099 0.216813 0.226407
0.961721 0.239424 0.337255
0.971243 0.256830 0.426861
0.978495 0.270292 0.504100
0.983940 0.280514 0.567044
0.987355 0.286974 0.619438
0.988611 0.289361 0.663752
0.988611 0.289361 0.703075
-0.083353 0.513094 -0.083353
-0.083353 0.513094 -0.083353
-0.083353 0.513094 -0.083353
-0.082899 0.510827 -0.082899
-0.082785 0.510254 -0.082785
-0.082642 0.509541 -0.082642
-0.082465 0.508654 -0.082465
-0.082244 0.507549 -0.082244
0.049551 0.506169 -0.081968
0.179798 0.504445 -0.081623
0.295924 0.502287 -0.081191
0.393011 0.499578 -0.080649
0.476667 0.496166 -0.079967
0.541060 0.482012 -0.088946
0.596855 0.464270 -0.100105
0.648654 0.445471 -0.110465
0.697358 0.424799 -0.120205
0.743300 0.421842 -0.076911
0.787629 0.423737 -0.025573
0.827403 0.425680 0.026065
0.861019 0.422340 0.073822
0.889900 0.408297 0.117858
0.914113 0.370662 0.156921
0.933436 0.289030 0.189496
0.948929 0.216513 0.216513
0.961614 0.239229 0.302774
0.971179 0.256712 0.402976
0.978455 0.270216 0.486978
0.983918 0.280473 0.555763
0.987343 0.286952 0.611529
0.988611 0.289361 0.658030
0.988611 0.289361 0.698827
-0.093390 0.563279 -0.093390
-0.093390 0.563279 -0.093390
-0.093390 0.563279 -0.093390
-0.093042 0.561538 -0.093042
-0.092954 0.561099 -0.092954
-0.092845 0.560553 -0.092845
-0.092709 0.559874 -0.092709
-0.092540 0.559029 -0.092540
-0.037066 0.557976 -0.092329
0.120753 0.556661 -0.092066
0.250692 0.555019 -0.091738
0.359687 0.552962 -0.091326
0.450049 0.550380 -0.090810
0.528483 0.547129 -0.090160
0.589880 0.533648 -0.098710
0.643395 0.516679 -0.109413
0.693390 0.498669 -0.119412
0.740238 0.493566 -0.080215
0.785293 0.495416 -0.028442
0.825799 0.499546 0.023881
0.859913 0.501663 0.072190
0.889141 0.498463 0.116665
0.913612 0.484567 0.156093
0.933119 0.449217 0.188950
0.948718 0.366188 0.216139
0.961480 0.238986 0.248614
0.971099 0.256565 0.369014
0.978405 0.270123 0.463190
0.983891 0.280422 0.540583
0.987329 0.286925 0.601045
0.988611 0.289361 0.650591
0.988611 0.289361 0.693361
-0.102968 0.611168 -0.102968
-0.102968 0.611168 -0.102968
-0.102968 0.611168 -0.102968
-0.102699 0.609826 -0.102699
-0.102632 0.609488 -0.102632
-0.102548 0.609068 -0.102548
-0.102443 0.608546 -0.102443
-0.102313 0.607897 -0.102313
-0.102152 0.607089 -0.102152
0.039666 0.606082 -0.101950
0.191755 0.604827 -0.101699
0.318538 0.603258 -0.101386
0.418652 0.601295 -0.100993
0.503231 0.598831 -0.100500
0.577863 0.595730 -0.099880
0.636661 0.582840 -0.108066
0.688335 0.566528 -0.118401
0.736369 0.558726 -0.084346
0.782343 0.559052 -0.032039
0.823767 0.563165 0.021126
0.858521 0.567296 0.070143
0.888189 0.569015 0.115171
0.912984 0.565047 0.155055
0.932721 0.550210 0.188267
0.948454 0.515807 0.215673
0.961312 0.436293 0.238683
0.970999 0.256381 0.318985
0.978342 0.270006 0.430091
0.983858 0.280359 0.519171
0.987311 0.286891 0.586863
0.988611 0.289361 0.640778
0.988611 0.289361 0.686256
-0.112193 0.657298 -0.112193
-0.112193 0.657298 -0.112193
-0.112193 0.657298 -0.112193
-0.111984 0.656251 -0.111984
-0.111932 0.655988 -0.111932
-0.111866 0.655661 -0.111866
-0.111785 0.655254 -0.111785
-0.111684 0.654749 -0.111684
-0.111558 0.654121 -0.111558
-0.087901 0.653339 -0.111402
0.111886 0.652365 -0.111207
0.263326 0.651150 -0.110964
0.379709 0.649632 -0.110660
0.473522 0.647733 -0.110281
0.553705 0.645351 -0.109804
0.625073 0.642355 -0.109205
0.681848 0.629916 -0.117104
0.731456 0.619353 -0.089519
0.778603 0.617219 -0.036556
0.821181 0.620136 0.017639
0.856763 0.624621 0.067567
0.886989 0.628407 0.113294
0.912193 0.628981 0.153751
0.932222 0.623085 0.187413
0.948125 0.607101 0.215091
0.961103 0.573936 0.238304
0.970875 0.499771 0.256152
0.978264 0.273449 0.380858
0.983816 0.280280 0.487183
0.987289 0.286849 0.567120
0.988611 0.289361 0.627578
0.988611 0.289361 0.676893
-0.119120 0.701712 -0.119120
-0.119120 0.701712 -0.119120
-0.119120 0.701712 -0.119120
-0.119881 0.700907 -0.119881
-0.120072 0.700704 -0.120072
-0.120309 0.700452 -0.120309
-0.120603 0.700139 -0.120603
-0.120684 0.699751 -0.120684
-0.120587 0.699268 -0.120587
-0.120467 0.698667 -0.120467
-0.008983 0.697918 -0.120318
0.183564 0.696985 -0.120131
0.328559 0.695820 -0.119898
0.436874 0.694364 -0.119607
0.525267 0.692540 -0.119242
0.601822 0.690251 -0.118784
0.670670 0.687369 -0.118208
0.725181 0.677174 -0.096009
0.773845 0.671809 -0.042238
0.817869 0.672671 0.013208
0.854534 0.676446 0.064315
0.885473 0.680722 0.110928
0.911194 0.683361 0.152107
0.931595 0.681905 0.186338
0.947713 0.674280 0.214363
0.960841 0.657616 0.237830
0.970719 0.624299 0.255865
0.978166 0.554071 0.296460
0.983764 0.334262 0.438631
0.987261 0.286797 0.538495
0.988611 0.289361 0.609196
0.988611 0.289361 0.664305
-0.075567 0.744537 -0.075567
-0.075567 0.744537 -0.075567
-0.075567 0.744537 -0.075567
-0.076260 0.743900 -0.076260
-0.076434 0.743739 -0.076434
-0.076650 0.743541 -0.076650
-0.076918 0.743294 -0.076918
-0.077250 0.742987 -0.077250
-0.077662 0.742606 -0.077662
-0.078174 0.742133 -0.078174
-0.078809 0.741545 -0.078809
0.101888 0.740812 -0.079598
0.282260 0.739900 -0.080578
0.407603 0.738763 -0.081796
0.503107 0.737344 -0.083310
0.582534 0.735569 -0.085194
0.652220 0.733344 -0.087541
0.715102 0.730548 -0.090466
0.767706 0.723476 -0.049457
0.813600 0.721586 0.007548
0.851689 0.723999 0.060189
0.883548 0.728022 0.107935
0.909927 0.731567 0.150028
0.930803 0.732459 0.184983
0.947196 0.729160 0.213451
0.960512 0.720275 0.237234
0.970524 0.702261 0.255506
0.978044 0.669003 0.269450
0.983698 0.602096 0.359188
0.987227 0.389819 0.492348
0.988611 0.289361 0.582378
0.988611 0.289361 0.646912
-0.026953 0.786507 -0.026953
-0.026953 0.786507 -0.026953
-0.026953 0.786507 -0.026953
-0.027559 0.786013 -0.027559
-0.027711 0.785889 -0.027711
-0.027900 0.785735 -0.027900
-0.028134 0.785544 -0.028134
-0.028425 0.785307 -0.028425
-0.028786 0.785012 -0.028786
-0.029234 0.784645 -0.029234
-0.029790 0.784190 -0.029790
-0.030481 0.783623 -0.030481
0.210460 0.782917 -0.031341
0.372861 0.782037 -0.032409
0.482441 0.780940 -0.033739
0.567325 0.779568 -0.035396
0.638666 0.777851 -0.037460
0.701495 0.775697 -0.040035
0.758685 0.772983 -0.043260
0.808052 0.768770 0.000284
0.848032 0.769017 0.054925
0.881088 0.771900 0.104128
0.908313 0.775263 0.147385
0.929798 0.777159 0.183267
0.946546 0.776231 0.212305
0.960097 0.771702 0.236485
0.970278 0.761439 0.255054
0.977892 0.742549 0.269165
0.983616 0.709390 0.279903
0.987184 0.644313 0.413628
0.988611 0.441109 0.540576
0.988611 0.289361 0.621816
0.022583 0.824843 0.022583
0.022583 0.824843 0.022583
0.022583 0.824843 0.022583
0.022113 0.824496 0.022113
0.021995 0.824409 0.021995
0.021849 0.824301 0.021849
0.021667 0.824167 0.021667
0.021442 0.824000 0.021442
0.021162 0.823793 0.021162
0.020814 0.823536 0.020814
0.020381 0.823216 0.020381
0.019843 0.822817 0.019843
0.067705 0.822320 0.019173
0.312803 0.821701 0.018339
0.454638 0.820927 0.017298
0.551342 0.819958 0.015998
0.627441 0.818742 0.014372
0.691993 0.817213 0.012334
0.748791 0.815283 0.009772
0.800632 0.812839 0.006545
0.843289 0.811030 0.048165
0.877919 0.812711 0.099253
0.906242 0.815793 0.144007
0.928514 0.818240 0.181079
0.945725 0.818675 0.210860
0.959573 0.816507 0.235538
0.969968 0.810211 0.254483
0.977700 0.798574 0.268808
0.983512 0.779337 0.279707
0.987131 0.745957 0.286549
0.988611 0.681953 0.463933
0.988611 0.489630 0.582538
0.068946 0.857705 0.068946
0.068946 0.857705 0.068946
0.068946 0.857705 0.068946
0.068593 0.857464 0.068593
0.068504 0.857403 0.068504
0.068394 0.857328 0.068394
0.068257 0.857235 0.068257
0.068087 0.857119 0.068087
0.067876 0.856975 0.067876
0.067615 0.856796 0.067615
0.067290 0.856574 0.067290
0.066886 0.856297 0.066886
0.066384 0.855954 0.066384
0.178882 0.855525 0.065759
0.402915 0.854992 0.064981
0.527083 0.854325 0.064012
0.613875 0.853492 0.062801
0.683031 0.852448 0.061288
0.741570 0.851137 0.059392
0.793916 0.849484 0.057010
0.837548 0.847392 0.054008
0.873796 0.847337 0.092960
0.903564 0.849999 0.139661
0.926860 0.852960 0.178269
0.944683 0.854786 0.209029
0.958907 0.854865 0.234336
0.969575 0.852018 0.253760
0.977459 0.845287 0.268357
0.983381 0.833210 0.279459
0.987064 0.812869 0.286423
0.988611 0.779264 0.297201
0.988611 0.716311 0.512021
0.112209 0.886295 0.112209
0.112209 0.886295 0.112209
0.112209 0.886295 0.112209
0.111947 0.886127 0.111947
0.111881 0.886085 0.111881
0.111799 0.886032 0.111799
0.111698 0.885967 0.111698
0.111573 0.885887 0.111573
0.111417 0.885787 0.111417
0.111223 0.885663 0.111223
0.110982 0.885508 0.110982
0.110684 0.885317 0.110684
0.110312 0.885078 0.110312
0.109850 0.884781 0.109850
0.277238 0.884412 0.109276
0.481149 0.883951 0.108560
0.592006 0.883375 0.107666
0.670851 0.882656 0.106551
0.733959 0.881753 0.105154
0.788217 0.880618 0.103402
0.833723 0.879186 0.101197
0.869224 0.877371 0.098413
0.900068 0.878397 0.134024
0.924716 0.881278 0.174640
0.943349 0.883695 0.206690
0.958055 0.885052 0.232802
0.969077 0.884517 0.252845
0.977154 0.881468 0.267788
0.983213 0.875272 0.279144
0.986980 0.863921 0.286264
0.988611 0.844064 0.289361
0.988611 0.810021 0.347792
0.151164 0.910620 0.151164
0.151164 0.910620 0.151164
0.151164 0.910620 0.151164
0.150979 0.910507 0.150979
0.150932 0.910479 0.150932
0.150874 0.910443 0.150874
0.150802 0.910400 0.150802
0.150713 0.910345 0.150713
0.150603 0.910278 0.150603
0.150466 0.910194 0.150466
0.150295 0.910091 0.150295
0.150083 0.909961 0.150083
0.149820 0.909801 0.149820
0.149493 0.909601 0.149493
0.149086 0.909353 0.149086
0.366015 0.909043 0.148579
0.549828 0.908656 0.147946
0.650117 0.908173 0.147156
0.722597 0.907567 0.146167
0.780915 0.906807 0.144927
0.829869 0.905850 0.143370
0.867227 0.904640 0.141406
0.896502 0.903105 0.138920
0.921906 0.904672 0.169909
0.941625 0.907344 0.203675
0.956959 0.909418 0.230830
0.968442 0.910199 0.251678
0.976766 0.909202 0.267066
0.982999 0.906143 0.278739
0.986875 0.899978 0.286064
0.988611 0.889310 0.289361
0.988611 0.871449 0.289361
0.184212 0.930351 0.184212
0.184212 0.930351 0.184212
0.184212 0.930351 0.184212
0.184088 0.930279 0.184088
0.184057 0.930261 0.184057
0.184019 0.930238 0.184019
0.183971 0.930211 0.183971
0.183912 0.930176 0.183912
0.183838 0.930133 0.183838
0.183747 0.930079 0.183747
0.183634 0.930013 0.183634
0.183493 0.929930 0.183493
0.183318 0.929828 0.183318
0.183101 0.929700 0.183101
0.182830 0.929542 0.182830
0.182493 0.929344 0.182493
0.445724 0.929098 0.182073
0.609599 0.928790 0.181549
0.701870 0.928405 0.180894
0.768907 0.927922 0.180073
0.823331 0.927315 0.179042
0.864498 0.926549 0.177742
0.895598 0.925581 0.176103
0.919235 0.924352 0.174025
0.939362 0.926078 0.199735
0.955533 0.928605 0.228272
0.967623 0.930280 0.250178
0.976271 0.930639 0.266144
0.982721 0.929570 0.278216
0.986741 0.926412 0.285811
0.988611 0.920480 0.289361
0.988611 0.910509 0.289361
0.211659 0.946179 0.211659
0.211659 0.946179 0.211659
0.211659 0.946179 0.211659
0.211575 0.946132 0.211575
0.211554 0.946120 0.211554
0.211528 0.946105 0.211528
0.211496 0.946086 0.211496
0.211455 0.946064 0.211455
0.211406 0.946035 0.211406
0.211344 0.946000 0.211344
0.211267 0.945957 0.211267
0.211172 0.945902 0.211172
0.211054 0.945835 0.211054
0.210907 0.945752 0.210907
0.210724 0.945648 0.210724
0.210497 0.945519 0.210497
0.210215 0.945358 0.210215
0.513053 0.945158 0.209863
0.662162 0.944909 0.209425
0.748036 0.944597 0.208878
0.811092 0.944207 0.208193
0.859002 0.943718 0.207335
0.893406 0.943102 0.206257
0.919001 0.942323 0.204895
0.937353 0.941334 0.203168
0.953651 0.943093 0.224906
0.966556 0.945300 0.248224
0.975633 0.946498 0.264958
0.982358 0.946708 0.277534
0.986571 0.945484 0.285488
0.988611 0.942460 0.289361
0.988611 0.936984 0.289361
0.235004 0.959277 0.235004
0.235004 0.959277 0.235004
0.235004 0.959277 0.235004
0.234948 0.959246 0.234948
0.234934 0.959238 0.234934
0.234916 0.959229 0.234916
0.234894 0.959217 0.234894
0.234868 0.959202 0.234868
0.234834 0.959183 0.234834
0.234793 0.959160 0.234793
0.234741 0.959131 0.234741
0.234677 0.959096 0.234677
0.234598 0.959052 0.234598
0.234499 0.958997 0.234499
0.234377 0.958929 0.234377
0.234224 0.958845 0.234224
0.234035 0.958740 0.234035
0.233799 0.958609 0.233799
0.571858 0.958445 0.233504
0.709229 0.958241 0.233137
0.789685 0.957986 0.232677
0.848387 0.957666 0.232101
0.888646 0.957263 0.231378
0.917423 0.956756 0.230466
0.937670 0.956113 0.229312
0.952075 0.955293 0.227842
0.965139 0.956876 0.245637
0.974805 0.958534 0.263421
0.981882 0.959404 0.276639
0.986351 0.959181 0.285071
0.988611 0.957717 0.289361
0.988611 0.954628 0.289361
0.253356 0.969355 0.253356
0.253356 0.969355 0.253356
0.253356 0.969355 0.253356
0.253321 0.969336 0.253321
0.253312 0.969332 0.253312
0.253302 0.969326 0.253302
0.253288 0.969319 0.253288
0.253272 0.969310 0.253272
0.253251 0.969298 0.253251
0.253226 0.969284 0.253226
0.253194 0.969267 0.253194
0.253155 0.969246 0.253155
0.253106 0.969220 0.253106
0.253046 0.969187 0.253046
0.252971 0.969146 0.252971
0.252878 0.969095 0.252878
0.252762 0.969032 0.252762
0.252618 0.968953 0.252618
0.252438 0.968856 0.252438
0.622919 0.968734 0.252214
0.751416 0.968581 0.251935
0.827761 0.968391 0.251585
0.879141 0.968152 0.251147
0.913238 0.967852 0.250597
0.936582 0.967473 0.249902
0.952458 0.966992 0.249021
0.963984 0.966377 0.247897
0.973724 0.967670 0.261416
0.981251 0.969039 0.275454
0.986062 0.969514 0.284524
0.988611 0.969008 0.289361
0.988611 0.967181 0.289361
0.267470 0.976983 0.267470
0.267470 0.976983 0.267470
0.267470 0.976983 0.267470
0.267448 0.976971 0.267448
0.267443 0.976968 0.267443
