luts/Z-Log2/gain +1/zLog2_zRGB-ax2_32_gain1_desatuation.cube
TITLE "Generated by ZCAM"
LUT_3D_SIZE 8
DOMAIN_MIN 0.000000 0.000000 0.000000
DOMAIN_MAX 0.903226 0.903226 0.903226
0.016055 0.016055 0.016055
0.019735 0.016884 0.016884
0.253402 -0.009295 -0.009295
0.481420 -0.077018 -0.077018
0.669583 -0.114651 -0.114651
0.832495 0.033058 0.033058
0.933748 0.190030 0.325308
0.978228 0.269793 0.566451
0.016055 0.016055 0.016055
0.016055 0.016055 0.016055
0.232438 0.002017 0.002017
0.474081 -0.075550 -0.075550
0.666927 -0.114119 -0.114119
0.831634 0.031869 0.031869
0.933568 0.189721 0.302621
0.978199 0.269738 0.558758
-0.000467 0.237333 -0.000467
0.003490 0.229441 0.003490
0.199368 0.217874 0.008840
0.463188 0.133481 -0.073372
0.663104 -0.006125 -0.113355
0.830403 0.030174 0.030174
0.933312 0.189282 0.267312
0.978157 0.269661 0.547189
-0.074352 0.468091 -0.074352
-0.073781 0.465236 -0.073781
0.034966 0.461127 -0.072959
0.431432 0.451058 -0.070946
0.653725 0.379236 -0.111479
0.827423 0.351869 0.026093
0.932701 0.188233 0.188233
0.978059 0.269477 0.515867
-0.112371 0.658183 -0.112371
-0.112164 0.657149 -0.112164
-0.111870 0.655678 -0.111870
0.284210 0.652155 -0.111165
0.626624 0.643551 -0.109444
0.819942 0.621451 0.015977
0.931219 0.625334 0.185694
0.977823 0.312136 0.404550
0.020914 0.823610 0.020914
0.020443 0.823261 0.020443
0.019774 0.822766 0.019774
0.018184 0.821586 0.018184
0.554537 0.818734 0.014361
0.799470 0.811643 0.004974
0.927471 0.816929 0.179306
0.977250 0.797951 0.267969
0.182472 0.929332 0.182472
0.182346 0.929258 0.182346
0.182168 0.929154 0.182168
0.181746 0.928905 0.181746
0.180737 0.928313 0.180737
0.768013 0.926875 0.178295
0.918102 0.923276 0.172212
0.975798 0.929607 0.265266
0.266612 0.976522 0.266612
0.266590 0.976510 0.266590
0.266558 0.976493 0.266558
0.266483 0.976452 0.266483
0.266304 0.976356 0.266304
0.265877 0.976127 0.265877
0.903504 0.975570 0.264842
0.972380 0.974176 0.262254
0.016055 0.016055 0.016055
0.016055 0.016055 0.016055
0.247957 -0.006188 -0.004461
0.479504 -0.076635 -0.056471
0.668883 -0.114511 -0.039989
0.832268 0.032744 0.175371
0.933700 0.189949 0.418068
0.978220 0.269778 0.601369
0.016055 0.016055 0.016055
0.016055 0.016055 0.016055
0.226654 0.004829 0.004829
0.472086 -0.075151 -0.075151
0.666216 -0.113977 -0.090154
0.831405 0.031553 0.145552
0.933520 0.189639 0.402515
0.978191 0.269723 0.595331
0.005572 0.225076 0.005572
0.009308 0.216804 0.009308
0.193379 0.204665 0.014295
0.461073 0.116289 -0.072949
0.662377 -0.030329 -0.113209
0.830170 0.029854 0.096884
0.933264 0.189199 0.379012
0.978149 0.269646 0.586345
-0.073469 0.463674 -0.073469
-0.072884 0.460751 -0.072884
0.024939 0.456545 -0.072043
0.429458 0.446232 -0.069980
0.652959 0.372778 -0.111326
0.827182 0.343544 0.025764
0.932652 0.188150 0.313259
0.978051 0.269462 0.562634
-0.112051 0.656588 -0.112051
-0.111843 0.655545 -0.111843
-0.111546 0.654061 -0.111546
0.279947 0.650506 -0.110835
0.625921 0.641823 -0.109099
0.819679 0.619416 0.015625
0.931168 0.623028 0.185607
0.977815 0.294235 0.485115
0.020187 0.823072 0.020187
0.019714 0.822721 0.019714
0.019042 0.822223 0.019042
0.017444 0.821036 0.017444
0.552981 0.818167 0.013604
0.799145 0.811035 0.004177
0.927415 0.816316 0.179211
0.977242 0.797184 0.267953
0.182278 0.929218 0.182278
0.182152 0.929144 0.182152
0.181974 0.929039 0.181974
0.181550 0.928790 0.181550
0.180538 0.928196 0.180538
0.767553 0.926754 0.178090
0.918019 0.923145 0.171991
0.975789 0.929483 0.265249
0.266578 0.976504 0.266578
0.266555 0.976491 0.266555
0.266523 0.976474 0.266523
0.266448 0.976434 0.266448
0.266269 0.976337 0.266269
0.265841 0.976108 0.265841
0.903396 0.975551 0.264805
0.972365 0.974155 0.262214
-0.000149 -0.000149 0.236716
-0.001701 -0.001701 0.239698
0.239808 -0.003934 0.243871
0.476762 -0.076086 0.208923
0.667890 -0.114312 0.196978
0.831946 0.032299 0.331992
0.933633 0.189833 0.502964
0.978209 0.269758 0.639435
0.010509 0.010509 0.214009
0.009115 0.009115 0.217247
0.218092 0.007103 0.221759
0.469230 -0.074580 0.184685
0.665207 -0.113775 0.173328
0.831079 0.031105 0.314420
0.933452 0.189523 0.493621
0.978180 0.269703 0.634850
0.013489 0.206728 0.177978
0.016538 0.197877 0.182067
0.184045 0.184921 0.187129
0.458045 0.090491 0.147004
0.661346 -0.070449 0.137404
0.829840 0.029401 0.287407
0.933196 0.189082 0.479573
0.978138 0.269626 0.628111
-0.072185 0.457253 -0.006581
-0.071580 0.454231 0.001155
0.009458 0.449881 0.011605
0.426651 0.439201 0.034286
0.651872 0.363346 0.033424
0.826840 0.331172 0.213480
0.932583 0.188031 0.440420
0.978040 0.269442 0.610823
-0.111596 0.654309 -0.111596
-0.111385 0.653253 -0.111385
-0.111084 0.651750 -0.111084
0.273777 0.648150 -0.110364
0.624925 0.639354 -0.108605
0.819307 0.616502 0.015127
0.931096 0.619710 0.300975
0.977804 0.273032 0.558957
0.019155 0.822307 0.019155
0.018678 0.821953 0.018678
0.018002 0.821451 0.018002
0.016394 0.820253 0.016394
0.550763 0.817359 0.012529
0.798686 0.810169 0.003044
0.927336 0.815443 0.179076
0.977230 0.796093 0.267931
0.182003 0.929057 0.182003
0.181877 0.928982 0.181877
0.181697 0.928877 0.181697
0.181272 0.928627 0.181272
0.180257 0.928030 0.180257
0.766901 0.926582 0.177798
0.917902 0.922959 0.171678
0.975776 0.929306 0.265225
0.266529 0.976477 0.266529
0.266506 0.976465 0.266506
0.266474 0.976448 0.266474
0.266399 0.976407 0.266399
0.266219 0.976311 0.266219
0.265791 0.976081 0.265791
0.903243 0.975523 0.264753
0.972346 0.974124 0.262158
-0.074450 -0.074450 0.468580
-0.074666 -0.074666 0.469661
0.170800 -0.074970 0.471178
0.469194 -0.075677 0.474714
0.665519 -0.113838 0.446265
0.831179 0.031243 0.506812
0.933473 0.189558 0.612208
0.978183 0.269709 0.701978
-0.072838 -0.072838 0.460519
-0.073063 -0.073063 0.461647
0.144101 -0.073380 0.463230
0.461381 -0.074117 0.466917
0.662799 -0.113294 0.437865
0.830305 0.030040 0.499659
0.933292 0.189247 0.607518
0.978154 0.269654 0.699072
-0.070439 0.099912 0.448525
-0.070679 0.087226 0.449723
0.102066 0.068722 0.451405
0.449771 0.020478 0.455323
0.658884 -0.112511 0.425359
0.829055 0.028325 0.489097
0.933034 0.188805 0.600652
0.978112 0.269577 0.694858
-0.068971 0.441187 0.412043
-0.068315 0.437905 0.414383
-0.032078 0.433169 0.417688
0.419271 0.420858 0.424842
0.649277 0.339456 0.392460
0.826027 0.298798 0.461595
0.932419 0.187750 0.583170
0.978014 0.269393 0.684345
-0.110496 0.648810 0.247049
-0.110278 0.647721 0.250073
-0.109969 0.646173 0.254300
0.258445 0.642462 0.264062
0.622559 0.633383 0.285883
0.818422 0.609436 0.377024
0.930926 0.611582 0.532337
0.977777 0.268952 0.655772
0.016687 0.820472 0.016687
0.016203 0.820111 0.016203
0.015517 0.819598 0.015517
0.013883 0.818376 0.013883
0.545422 0.815425 0.009960
0.797597 0.808097 0.000342
0.927148 0.813351 0.269994
0.977202 0.793479 0.549920
0.181350 0.928673 0.181350
0.181222 0.928598 0.181222
0.181041 0.928492 0.181041
0.180612 0.928239 0.180612
0.179587 0.927636 0.179587
0.765350 0.926174 0.177106
0.917625 0.922516 0.170932
0.975746 0.928885 0.265168
0.266412 0.976415 0.266412
0.266390 0.976402 0.266390
0.266358 0.976385 0.266358
0.266282 0.976345 0.266282
0.266101 0.976248 0.266101
0.265671 0.976017 0.265671
0.902880 0.975456 0.264630
0.972298 0.974053 0.262025
-0.112528 -0.112528 0.658973
-0.112607 -0.112607 0.659366
0.070991 -0.112718 0.659920
0.411842 -0.112978 0.661223
0.658889 -0.113586 0.664263
0.829342 0.028718 0.673703
0.933093 0.188906 0.733151
0.978122 0.269595 0.786855
-0.111951 -0.111951 0.656084
-0.112031 -0.112031 0.656484
0.037778 -0.112143 0.657047
0.402180 -0.112408 0.658371
0.656078 -0.113026 0.661460
0.828449 0.027495 0.670802
0.932910 0.188592 0.731042
0.978092 0.269540 0.785335
-0.111118 -0.111118 0.651923
-0.111200 -0.111200 0.652331
-0.014800 -0.111315 0.652908
0.387731 -0.111586 0.654262
0.652029 -0.112218 0.657422
0.827172 0.025750 0.666617
0.932650 0.188146 0.728009
0.978051 0.269462 0.783159
-0.109074 0.348256 0.641698
-0.109160 0.343284 0.642130
-0.109282 0.336105 0.642739
0.349361 0.318383 0.644169
0.642093 0.270197 0.647506
0.824075 0.205155 0.656308
0.932029 0.187081 0.720586
0.977951 0.269276 0.777872
-0.107759 0.635126 0.611003
-0.107525 0.633954 0.611836
-0.107191 0.632284 0.613012
0.217781 0.628279 0.615792
0.616249 0.617807 0.621714
0.816298 0.591619 0.629342
0.930520 0.590553 0.701430
0.977714 0.268834 0.764388
0.010705 0.815987 0.528890
0.010203 0.815609 0.529500
0.009493 0.815072 0.530358
0.007801 0.813792 0.532367
0.532227 0.810704 0.537018
0.795009 0.803045 0.547524
0.926700 0.808250 0.643929
0.977136 0.787103 0.725436
0.179781 0.927750 0.179781
0.179650 0.927673 0.179650
0.179465 0.927564 0.179465
0.179026 0.927306 0.179026
0.177978 0.926688 0.177978
0.761622 0.925194 0.175448
0.916963 0.921451 0.184290
0.975673 0.927873 0.526459
0.266136 0.976266 0.266136
0.266113 0.976254 0.266113
0.266080 0.976236 0.266080
0.266004 0.976195 0.266004
0.265822 0.976097 0.265822
0.265387 0.975864 0.265387
0.902013 0.975298 0.264335
0.972185 0.973881 0.261708
0.021933 0.021933 0.824363
0.022113 0.022113 0.824496
0.022365 0.022365 0.824682
0.410763 0.022961 0.825121
0.647312 0.024358 0.826150
0.824890 0.027608 0.828532
0.932181 0.187341 0.852287
0.977976 0.269322 0.880388
0.020623 0.020623 0.823395
0.020804 0.020804 0.823529
0.021059 0.021059 0.823717
0.399392 0.021660 0.824161
0.644004 0.023070 0.825201
0.823944 0.026348 0.827610
0.931994 0.187021 0.851516
0.977946 0.269266 0.879808
0.018752 0.018752 0.822008
0.018935 0.018935 0.822144
0.019193 0.019193 0.822335
0.382312 0.019801 0.822786
0.639227 0.021229 0.823843
0.822588 0.024549 0.826290
0.931727 0.186565 0.850414
0.977904 0.269187 0.878980
0.014241 0.229553 0.818644
0.014429 0.221589 0.818785
0.014695 0.209895 0.818983
0.335345 0.180129 0.819451
0.627421 0.095649 0.820547
0.819301 0.020206 0.823086
0.931091 0.185476 0.847745
0.977803 0.269000 0.876989
0.003088 0.594669 0.810203
0.003288 0.593269 0.810356
0.003571 0.591272 0.810572
0.169312 0.586465 0.811080
0.596221 0.574575 0.812272
0.811060 0.543018 0.815034
0.929544 0.526012 0.841040
0.977563 0.268552 0.872056
-0.004254 0.804546 0.786823
-0.004795 0.804126 0.787014
-0.005562 0.803530 0.787284
-0.007383 0.802110 0.787926
0.497367 0.798683 0.789473
0.788727 0.789994 0.793156
0.925624 0.795306 0.822722
0.976979 0.770758 0.858737
0.175937 0.925483 0.750088
0.175800 0.925402 0.750282
0.175606 0.925287 0.750554
0.175145 0.925015 0.751195
0.174047 0.924364 0.752696
0.752454 0.922789 0.756165
0.915364 0.918829 0.763959
0.975500 0.925370 0.814718
0.265471 0.975909 0.265471
0.265447 0.975896 0.265447
0.265414 0.975878 0.265414
0.265336 0.975836 0.265336
0.265150 0.975736 0.265150
0.264706 0.975497 0.264706
0.899916 0.974918 0.263630
0.971914 0.973471 0.454632
0.183159 0.183159 0.929735
0.183207 0.183207 0.929763
0.183275 0.183275 0.929802
0.355050 0.183433 0.929896
0.665832 0.183807 0.930115
0.834849 0.184684 0.930628
0.930286 0.186712 0.931814
0.977624 0.268665 0.945814
0.182811 0.182811 0.929531
0.182859 0.182859 0.929559
0.182927 0.182927 0.929599
0.335889 0.183086 0.929692
0.662621 0.183462 0.929913
0.833905 0.184343 0.930428
0.930088 0.186381 0.931620
0.977593 0.268608 0.945671
0.182316 0.182316 0.929240
0.182365 0.182365 0.929269
0.182433 0.182433 0.929309
0.305858 0.182593 0.929403
0.657969 0.182972 0.929625
0.832554 0.183859 0.930145
0.929806 0.185910 0.931345
0.977550 0.268527 0.945467
0.181133 0.181133 0.928545
0.181182 0.181182 0.928574
0.181251 0.181251 0.928615
0.213674 0.181415 0.928711
0.646392 0.181799 0.928937
0.829284 0.182701 0.929466
0.929132 0.184786 0.930688
0.977447 0.268335 0.944980
0.178254 0.545027 0.926851
0.178305 0.542637 0.926881
0.178377 0.539195 0.926924
0.178547 0.530756 0.927024
0.615105 0.508838 0.927260
0.821102 0.441597 0.927813
0.927490 0.182055 0.929087
0.977201 0.267876 0.943799
0.171012 0.797819 0.922563
0.171068 0.797385 0.922596
0.171147 0.796769 0.922643
0.171332 0.795300 0.922753
0.502561 0.791753 0.923013
0.798800 0.782978 0.923621
0.923334 0.760018 0.925025
0.976601 0.720887 0.940816
0.166073 0.919617 0.911956
0.165918 0.919525 0.911976
0.165699 0.919394 0.912003
0.165180 0.919083 0.912067
0.163939 0.918339 0.912217
0.728357 0.916532 0.912566
0.911642 0.912211 0.913623
0.975083 0.918808 0.932496
0.263839 0.975030 0.892838
0.263814 0.975017 0.892895
0.263779 0.974998 0.892976
0.263697 0.974954 0.893166
0.263500 0.974848 0.893612
0.263033 0.974596 0.894652
0.894661 0.973987 0.897024
0.971255 0.972459 0.902194
0.266911 0.266911 0.976683
0.266920 0.266920 0.976687
0.266932 0.266932 0.976694
0.266960 0.266960 0.976709
0.593530 0.267028 0.976745
0.831050 0.267186 0.976830
0.937924 0.267556 0.977029
0.976947 0.268411 0.977487
0.266849 0.266849 0.976649
0.266858 0.266858 0.976654
0.266870 0.266870 0.976660
0.266898 0.266898 0.976676
0.587340 0.266965 0.976712
0.829992 0.267124 0.976797
0.937743 0.267495 0.976996
0.976915 0.268352 0.977456
0.266761 0.266761 0.976602
0.266769 0.266769 0.976606
0.266782 0.266782 0.976613
0.266810 0.266810 0.976628
0.578122 0.266878 0.976665
0.828483 0.267037 0.976750
0.937487 0.267409 0.976950
0.976869 0.268269 0.977411
0.266551 0.266551 0.976489
0.266560 0.266560 0.976494
0.266572 0.266572 0.976501
0.266601 0.266601 0.976516
0.553778 0.266669 0.976553
0.824829 0.266829 0.976639
0.936874 0.267204 0.976840
0.976760 0.268070 0.977305
0.266050 0.266050 0.976220
0.266059 0.266059 0.976225
0.266071 0.266071 0.976232
0.266101 0.266101 0.976247
0.473506 0.266170 0.976285
0.815668 0.266333 0.976372
0.935382 0.266715 0.976577
0.976500 0.267596 0.977050
0.264831 0.736728 0.975565
0.264840 0.735945 0.975569
0.264853 0.734830 0.975576
0.264884 0.732159 0.975593
0.264956 0.725632 0.975632
0.791238 0.708836 0.975723
0.931585 0.658380 0.975937
0.975867 0.266442 0.976430
0.261751 0.920350 0.973905
0.261761 0.920255 0.973910
0.261775 0.920120 0.973918
0.261809 0.919798 0.973936
0.261888 0.919030 0.973978
0.705821 0.917159 0.974079
0.920761 0.912407 0.974314
0.974264 0.898994 0.974857
0.259639 0.972764 0.970092
0.259611 0.972749 0.970094
0.259572 0.972727 0.970096
0.259478 0.972677 0.970101
0.259256 0.972557 0.970112
0.258725 0.972269 0.970137
0.880289 0.971569 0.970190
0.969739 0.969941 0.970440
