luts/Z-Log2/gain +1/zLog2_zRGB-ax2_32_gain1_desatuation.cube
TITLE "Generated by ZCAM"
LUT_3D_SIZE 5
DOMAIN_MIN 0.000000 0.000000 0.000000
DOMAIN_MAX 0.903226 0.903226 0.903226
0.016055 0.016055 0.016055
0.193227 0.017555 0.017555
0.578868 -0.096508 -0.096508
0.864142 0.078449 0.078449
0.978228 0.269793 0.566451
0.020658 0.177140 0.020658
0.141528 0.157806 0.023531
0.570298 -0.022944 -0.094794
0.862959 0.076693 0.076693
0.978171 0.269687 0.551164
-0.094069 0.566673 -0.094069
-0.093408 0.563368 -0.093408
0.533047 0.551073 -0.090949
0.858597 0.507287 0.070255
0.977966 0.269305 0.478878
0.067038 0.856402 0.067038
0.066348 0.855929 0.066348
0.212240 0.854222 0.063861
0.836256 0.846102 0.052165
0.977005 0.844212 0.267512
0.266612 0.976522 0.266612
0.266569 0.976499 0.266569
0.266412 0.976415 0.266412
0.670178 0.976030 0.265697
0.972380 0.974176 0.262254
0.020849 0.020849 0.176026
0.180183 0.019575 0.183150
0.576636 -0.096061 0.133358
0.863830 0.077986 0.338306
0.978213 0.269765 0.627769
0.024739 0.146912 0.121015
0.125548 0.126109 0.127528
0.567960 -0.075816 0.073422
0.862643 0.076224 0.302072
0.978156 0.269658 0.617958
-0.093045 0.561556 -0.093045
-0.092366 0.558160 -0.092366
0.530793 0.545506 -0.089835
0.858264 0.499593 0.116360
0.977951 0.269276 0.576008
0.065974 0.855673 0.065974
0.065280 0.855196 0.065280
0.198096 0.853475 0.062776
0.835800 0.845285 0.050999
0.976989 0.843208 0.267481
0.266545 0.976486 0.266545
0.266501 0.976462 0.266501
0.266344 0.976378 0.266344
0.668341 0.975993 0.265628
0.972352 0.974135 0.262177
-0.094206 -0.094206 0.567360
0.040496 -0.094456 0.568608
0.567527 -0.095333 0.572997
0.862708 0.076320 0.610863
0.978159 0.269664 0.742213
-0.092338 -0.092338 0.558018
-0.042181 -0.092600 0.559329
0.558452 -0.093521 0.563937
0.861505 0.074539 0.602628
0.978102 0.269558 0.737982
-0.089146 0.542062 0.515961
-0.088392 0.538292 0.518631
0.521956 0.523537 0.527503
0.857066 0.469125 0.569776
0.977896 0.269174 0.721717
0.062117 0.853020 0.102322
0.061405 0.852530 0.112911
0.142497 0.850755 0.145270
0.834163 0.842313 0.248054
0.976930 0.839525 0.608113
0.266303 0.976356 0.266303
0.266259 0.976332 0.266259
0.266101 0.976248 0.266101
0.661578 0.975859 0.265378
0.972253 0.973985 0.261900
0.068015 0.068015 0.857069
0.068277 0.068277 0.857249
0.547271 0.069210 0.857885
0.857679 0.073343 0.860695
0.977914 0.269207 0.900096
0.066093 0.066093 0.855754
0.066359 0.066359 0.855936
0.535778 0.067302 0.856582
0.856394 0.071485 0.859434
0.977856 0.269099 0.899264
0.059039 0.438426 0.850892
0.059316 0.431682 0.851085
0.488090 0.405524 0.851767
0.851647 0.213775 0.854777
0.977647 0.268708 0.896197
0.043554 0.840024 0.825677
0.042763 0.839462 0.825890
0.039909 0.837425 0.826657
0.826648 0.827688 0.830274
0.976662 0.821074 0.880236
0.265190 0.975758 0.602592
0.265144 0.975733 0.604087
0.264980 0.975645 0.609289
0.626452 0.975241 0.630530
0.971800 0.973297 0.698838
0.266911 0.266911 0.976683
0.266928 0.266928 0.976692
0.266987 0.266987 0.976723
0.867765 0.267251 0.976865
0.976947 0.268411 0.977487
0.266790 0.266790 0.976618
0.266807 0.266807 0.976627
0.266866 0.266866 0.976659
0.866444 0.267132 0.976801
0.976884 0.268297 0.977426
0.266355 0.266355 0.976384
0.266372 0.266372 0.976393
0.266432 0.266432 0.976425
0.861500 0.266701 0.976570
0.976658 0.267884 0.977205
0.264309 0.804348 0.975284
0.264327 0.803445 0.975293
0.264392 0.800166 0.975328
0.834272 0.784347 0.975483
0.975595 0.671203 0.976165
0.259639 0.972764 0.970092
0.259585 0.972735 0.970095
0.259391 0.972630 0.970105
0.258501 0.972148 0.970147
0.969739 0.969941 0.970440
