luts/Z-Log2/gain +1/zLog2_zRGB-ax2_32_gain1_desatuation.cube
TITLE "Generated by ZCAM"
LUT_3D_SIZE 32
0.016055 0.016055 0.016055
0.016055 0.016055 0.016055
0.016055 0.016055 0.016055
0.016055 0.016055 0.016055
0.019735 0.016884 0.016884
0.074144 0.025194 0.025194
0.133875 0.025794 0.025794
0.193227 0.017555 0.017555
0.253402 -0.009295 -0.009295
0.315209 -0.043776 -0.043776
0.374148 -0.055564 -0.055564
0.429111 -0.066556 -0.066556
0.481420 -0.077018 -0.077018
0.531092 -0.086952 -0.086952
0.578868 -0.096508 -0.096508
0.624888 -0.105711 -0.105711
0.669583 -0.114651 -0.114651
0.712692 -0.108536 -0.108536
0.754773 -0.064252 -0.064252
0.795764 -0.015440 -0.015440
0.832495 0.033058 0.033058
0.864142 0.078449 0.078449
0.891679 0.120662 0.162617
0.914984 0.158361 0.249649
0.933748 0.190030 0.325308
0.948934 0.216522 0.394467
0.961457 0.238945 0.459021
0.970966 0.256321 0.516491
0.978228 0.269793 0.566451
0.983734 0.280126 0.611425
0.987205 0.286689 0.651418
0.988611 0.289361 0.687353
0.016055 0.016055 0.016055
0.016055 0.016055 0.016055
0.016055 0.016055 0.016055
0.016055 0.016055 0.016055
0.019735 0.016884 0.016884
0.074144 0.025194 0.025194
0.133875 0.025794 0.025794
0.193227 0.017555 0.017555
0.253402 -0.009295 -0.009295
0.315209 -0.043776 -0.043776
0.374148 -0.055564 -0.055564
0.429111 -0.066556 -0.066556
0.481420 -0.077018 -0.077018
0.531092 -0.086952 -0.086952
0.578868 -0.096508 -0.096508
0.624888 -0.105711 -0.105711
0.669583 -0.114651 -0.114651
0.712692 -0.108536 -0.108536
0.754773 -0.064252 -0.064252
0.795764 -0.015440 -0.015440
0.832495 0.033058 0.033058
0.864142 0.078449 0.078449
0.891679 0.120662 0.162617
0.914984 0.158361 0.249649
0.933748 0.190030 0.325308
0.948934 0.216522 0.394467
0.961457 0.238945 0.459021
0.970966 0.256321 0.516491
0.978228 0.269793 0.566451
0.983734 0.280126 0.611425
0.987205 0.286689 0.651418
0.988611 0.289361 0.687353
0.016055 0.016055 0.016055
0.016055 0.016055 0.016055
0.016055 0.016055 0.016055
0.016055 0.016055 0.016055
0.019735 0.016884 0.016884
0.074144 0.025194 0.025194
0.133875 0.025794 0.025794
0.193227 0.017555 0.017555
0.253402 -0.009295 -0.009295
0.315209 -0.043776 -0.043776
0.374148 -0.055564 -0.055564
0.429111 -0.066556 -0.066556
0.481420 -0.077018 -0.077018
0.531092 -0.086952 -0.086952
0.578868 -0.096508 -0.096508
0.624888 -0.105711 -0.105711
0.669583 -0.114651 -0.114651
0.712692 -0.108536 -0.108536
0.754773 -0.064252 -0.064252
0.795764 -0.015440 -0.015440
0.832495 0.033058 0.033058
0.864142 0.078449 0.078449
0.891679 0.120662 0.162617
0.914984 0.158361 0.249649
0.933748 0.190030 0.325308
0.948934 0.216522 0.394467
0.961457 0.238945 0.459021
0.970966 0.256321 0.516491
0.978228 0.269793 0.566451
0.983734 0.280126 0.611425
0.987205 0.286689 0.651418
0.988611 0.289361 0.687353
0.016055 0.016055 0.016055
0.016055 0.016055 0.016055
0.016055 0.016055 0.016055
0.016055 0.016055 0.016055
0.016055 0.016055 0.016055
0.040548 0.020937 0.020937
0.109166 0.026627 0.026627
0.172569 0.021422 0.021422
0.236740 -0.000161 -0.000161
0.301556 -0.041045 -0.041045
0.364120 -0.053558 -0.053558
0.421421 -0.065018 -0.065018
0.475577 -0.075849 -0.075849
0.526592 -0.086052 -0.086052
0.575383 -0.095811 -0.095811
0.622173 -0.105169 -0.105169
0.667463 -0.114227 -0.114227
0.711053 -0.110141 -0.110141
0.753459 -0.065724 -0.065724
0.794770 -0.016690 -0.016690
0.831807 0.032108 0.032108
0.863657 0.077727 0.077727
0.891342 0.120130 0.133583
0.914760 0.157990 0.226953
0.933604 0.189783 0.307323
0.948838 0.216351 0.380508
0.961396 0.238834 0.447761
0.970929 0.256253 0.508271
0.978204 0.269749 0.560333
0.983722 0.280102 0.606822
0.987198 0.286677 0.647920
0.988611 0.289361 0.684658
0.016055 0.016055 0.016055
0.016055 0.016055 0.016055
0.016055 0.016055 0.016055
0.016055 0.016055 0.016055
0.016055 0.016055 0.016055
0.033271 0.019643 0.019643
0.102460 0.026590 0.026590
0.167146 0.022260 0.022260
0.232438 0.002017 0.002017
0.298018 -0.039220 -0.039220
0.361512 -0.053036 -0.053036
0.419447 -0.064623 -0.064623
0.474081 -0.075550 -0.075550
0.525447 -0.085823 -0.085823
0.574498 -0.095634 -0.095634
0.621486 -0.105031 -0.105031
0.666927 -0.114119 -0.114119
0.710640 -0.110545 -0.110545
0.753128 -0.066094 -0.066094
0.794519 -0.017005 -0.017005
0.831634 0.031869 0.031869
0.863534 0.077546 0.077546
0.891258 0.119997 0.127379
0.914703 0.157896 0.220622
0.933568 0.189721 0.302621
0.948814 0.216308 0.376860
0.961380 0.238805 0.444831
0.970920 0.256236 0.506129
0.978199 0.269738 0.558758
0.983718 0.280096 0.605643
0.987196 0.286674 0.647030
0.988611 0.289361 0.683973
0.023264 0.056143 0.023264
0.023264 0.056143 0.023264
0.023264 0.056143 0.023264
0.021494 0.043936 0.021494
0.021034 0.041127 0.021034
0.027463 0.037752 0.020455
0.093720 0.041676 0.026373
0.160296 0.035386 0.023214
0.227013 0.012122 0.004658
0.293551 -0.035231 -0.035865
0.358221 -0.052378 -0.052378
0.416974 -0.064129 -0.064129
0.472210 -0.075176 -0.075176
0.524017 -0.085537 -0.085537
0.573395 -0.095413 -0.095413
0.620631 -0.104860 -0.104860
0.666260 -0.113986 -0.113986
0.710126 -0.111046 -0.111046
0.752717 -0.066553 -0.066553
0.794207 -0.017396 -0.017396
0.831419 0.031572 0.031572
0.863383 0.077320 0.077320
0.891152 0.119831 0.120326
0.914633 0.157780 0.212213
0.933523 0.189644 0.296698
0.948784 0.216255 0.372249
0.961361 0.238771 0.441150
0.970909 0.256214 0.503427
0.978191 0.269724 0.556783
0.983715 0.280088 0.604168
0.987194 0.286670 0.645917
0.988611 0.289361 0.683120
0.026495 0.118358 0.026495
0.026495 0.118358 0.026495
0.026495 0.118358 0.026495
0.026627 0.109015 0.026627
0.026626 0.106587 0.026626
0.026603 0.103526 0.026603
0.084208 0.099640 0.026541
0.151634 0.098131 0.024252
0.220121 0.082969 0.007843
0.287898 0.043253 -0.031734
0.354055 0.011508 -0.051545
0.413866 -0.017462 -0.063507
0.469863 -0.048439 -0.074707
0.522229 -0.079571 -0.085180
0.572019 -0.095138 -0.095138
0.619565 -0.104647 -0.104647
0.665430 -0.113820 -0.113820
0.709487 -0.111668 -0.111668
0.752207 -0.067122 -0.067122
0.793819 -0.017882 -0.017882
0.831151 0.031203 0.031203
0.863194 0.077040 0.077040
0.891022 0.119624 0.119624
0.914546 0.157637 0.200872
0.933467 0.189548 0.289195
0.948746 0.216189 0.366391
0.961337 0.238727 0.436524
0.970894 0.256188 0.500006
0.978182 0.269708 0.554299
0.983710 0.280079 0.602316
0.987192 0.286665 0.644525
0.988611 0.289361 0.682054
0.020658 0.177140 0.020658
0.020658 0.177140 0.020658
0.020658 0.177140 0.020658
0.021934 0.169312 0.021934
0.022235 0.167314 0.022235
0.022597 0.164822 0.022597
0.070438 0.161705 0.023027
0.141528 0.157806 0.023531
0.211319 0.151600 0.011635
0.280739 0.125148 -0.026686
0.348753 0.097079 -0.050485
0.409945 0.073077 -0.062723
0.466912 0.046560 -0.074116
0.519990 0.015839 -0.084732
0.570298 -0.022944 -0.094794
0.618235 -0.072234 -0.104381
0.664395 -0.113613 -0.113613
0.708691 -0.112440 -0.112440
0.751572 -0.067828 -0.067828
0.793337 -0.018486 -0.018486
0.830818 0.030745 0.030745
0.862959 0.076693 0.076693
0.890859 0.119369 0.119369
0.914438 0.157458 0.186575
0.933398 0.189430 0.279671
0.948700 0.216107 0.358912
0.961307 0.238674 0.430689
0.970877 0.256155 0.495656
0.978171 0.269687 0.551164
0.983704 0.280068 0.599986
0.987188 0.286659 0.642780
0.988611 0.289361 0.680722
-0.000467 0.237333 -0.000467
-0.000467 0.237333 -0.000467
-0.000467 0.237333 -0.000467
0.002708 0.231042 0.002708
0.003490 0.229441 0.003490
0.004452 0.227444 0.004452
0.036796 0.224946 0.005633
0.122402 0.221815 0.007078
0.199368 0.217874 0.008840
0.271676 0.204486 -0.020589
0.341971 0.179565 -0.049128
0.404975 0.157385 -0.061729
0.463188 0.133481 -0.073372
0.517176 0.106852 -0.084169
0.568142 0.076006 -0.094362
0.616573 0.039338 -0.104049
0.663104 -0.006125 -0.113355
0.707698 -0.063320 -0.113399
0.750782 -0.068705 -0.068705
0.792736 -0.019237 -0.019237
0.830403 0.030174 0.030174
0.862668 0.076260 0.076260
0.890657 0.119050 0.119050
0.914304 0.157236 0.170812
0.933312 0.189282 0.267312
0.948643 0.216006 0.349284
0.961271 0.238607 0.423271
0.970855 0.256115 0.490087
0.978157 0.269661 0.547189
0.983696 0.280053 0.597044
0.987184 0.286651 0.640585
0.988611 0.289361 0.679050
-0.039893 0.298902 -0.039893
-0.039893 0.298902 -0.039893
-0.039893 0.298902 -0.039893
-0.035938 0.293649 -0.035938
-0.034950 0.292314 -0.034950
-0.033728 0.290648 -0.033728
-0.021989 0.288569 -0.032217
0.077503 0.285969 -0.030353
0.169218 0.282717 -0.028060
0.257204 0.278643 -0.025246
0.333229 0.261600 -0.047380
0.398647 0.240806 -0.060463
0.458467 0.219075 -0.072427
0.513631 0.195610 -0.083460
0.565435 0.169352 -0.093821
0.614492 0.138822 -0.103632
0.661489 0.101753 -0.113032
0.706460 0.060889 -0.114592
0.749800 0.046584 -0.069793
0.791987 0.015886 -0.020172
0.829886 0.029464 0.029464
0.862305 0.075723 0.075723
0.890406 0.118655 0.118655
0.914137 0.156960 0.156960
0.933205 0.189099 0.250423
0.948571 0.215879 0.336757
0.961225 0.238525 0.413785
0.970827 0.256064 0.482863
0.978140 0.269628 0.542125
0.983687 0.280036 0.593311
0.987179 0.286642 0.637816
0.988611 0.289361 0.676950
-0.052583 0.359243 -0.052583
-0.052583 0.359243 -0.052583
-0.052583 0.359243 -0.052583
-0.051796 0.355310 -0.051796
-0.051596 0.354310 -0.051596
-0.051346 0.353061 -0.051346
-0.051034 0.351502 -0.051034
0.028300 0.349551 -0.050644
0.129820 0.347103 -0.050155
0.225479 0.344025 -0.049539
0.318157 0.340141 -0.048762
0.390534 0.324157 -0.058841
0.452450 0.304251 -0.071224
0.509142 0.283216 -0.082562
0.562023 0.260076 -0.093139
0.611880 0.233793 -0.103110
0.659466 0.202759 -0.112627
0.704912 0.169068 -0.116077
0.748575 0.161256 -0.071145
0.791051 0.149490 -0.021337
0.829241 0.124103 0.028579
0.861853 0.075053 0.075053
0.890094 0.118163 0.118163
0.913929 0.156616 0.156616
0.933072 0.188870 0.225326
0.948483 0.215723 0.320322
0.961168 0.238422 0.401572
0.970793 0.256002 0.473446
0.978118 0.269588 0.535633
0.983675 0.280014 0.588542
0.987173 0.286630 0.634308
0.988611 0.289361 0.674298
-0.063731 0.414984 -0.063731
-0.063731 0.414984 -0.063731
-0.063731 0.414984 -0.063731
-0.063135 0.412003 -0.063135
-0.062984 0.411248 -0.062984
-0.062795 0.410308 -0.062795
-0.062561 0.409136 -0.062561
-0.029032 0.407675 -0.062269
0.087407 0.405848 -0.061904
0.190363 0.403561 -0.061446
0.287963 0.400691 -0.060872
0.376659 0.397078 -0.060150
0.444727 0.382070 -0.069679
0.503430 0.363379 -0.081420
0.557705 0.343663 -0.092275
0.608592 0.322049 -0.102452
0.656926 0.297318 -0.112119
0.702973 0.269640 -0.117925
0.747045 0.264920 -0.072827
0.789881 0.259350 -0.022789
0.828434 0.247433 0.027474
0.861289 0.219007 0.074220
0.889704 0.152087 0.117550
0.913670 0.156188 0.156188
0.932907 0.188587 0.196327
0.948372 0.215528 0.298674
0.961098 0.238294 0.385396
0.970751 0.255924 0.461098
0.978092 0.269539 0.527173
0.983660 0.279986 0.582398
0.987166 0.286616 0.629834
0.988611 0.289361 0.670936
-0.074352 0.468091 -0.074352
-0.074352 0.468091 -0.074352
-0.074352 0.468091 -0.074352
-0.073896 0.465812 -0.073896
-0.073781 0.465236 -0.073781
-0.073638 0.464519 -0.073638
-0.073459 0.463627 -0.073459
-0.073237 0.462515 -0.073237
0.034966 0.461127 -0.072959
0.147956 0.459393 -0.072613
0.252639 0.457221 -0.072178
0.348675 0.454493 -0.071633
0.431432 0.451058 -0.070946
0.496110 0.436836 -0.079956
0.552209 0.418988 -0.091176
0.604434 0.400054 -0.101621
0.653725 0.379236 -0.111479
0.700535 0.355840 -0.120231
0.745131 0.353880 -0.074921
0.788416 0.354275 -0.024602
0.827423 0.351869 0.026093
0.860584 0.338589 0.073180
0.889218 0.307524 0.116786
0.913347 0.241142 0.155654
0.932701 0.188233 0.188233
0.948235 0.215285 0.267494
0.961010 0.238136 0.363495
0.970698 0.255827 0.444751
0.978059 0.269477 0.515867
0.983642 0.279952 0.574407
0.987156 0.286598 0.624079
0.988611 0.289361 0.666650
-0.084412 0.518390 -0.084412
-0.084412 0.518390 -0.084412
-0.084412 0.518390 -0.084412
-0.084062 0.516642 -0.084062
-0.083974 0.516201 -0.083974
-0.083865 0.515653 -0.083865
-0.083728 0.514971 -0.083728
-0.083558 0.514122 -0.083558
-0.041246 0.513064 -0.083347
0.094309 0.511745 -0.083083
0.209944 0.510096 -0.082753
0.315582 0.508033 -0.082341
0.404751 0.505444 -0.081823
0.483528 0.502186 -0.081171
0.545164 0.488653 -0.089767
0.599146 0.471588 -0.100563
0.649677 0.453467 -0.110669
0.697458 0.433560 -0.120226
0.742729 0.430648 -0.077530
0.786576 0.432575 -0.026868
0.826152 0.434956 0.024362
0.859703 0.432707 0.071880
0.888610 0.421234 0.115832
0.912943 0.389004 0.154988
0.932444 0.317717 0.187793
0.948065 0.214984 0.222708
0.960901 0.237938 0.333199
0.970633 0.255707 0.423017
0.978018 0.269400 0.500452
0.983620 0.279910 0.563878
0.987145 0.286576 0.616585
0.988611 0.289361 0.661144
-0.094069 0.566673 -0.094069
-0.094069 0.566673 -0.094069
-0.094069 0.566673 -0.094069
-0.093797 0.565317 -0.093797
-0.093729 0.564976 -0.093729
-0.093644 0.564552 -0.093644
-0.093539 0.564024 -0.093539
-0.093408 0.563368 -0.093408
-0.093244 0.562552 -0.093244
0.023615 0.561535 -0.093041
0.156431 0.560266 -0.092787
0.274272 0.558680 -0.092470
0.373402 0.556696 -0.092073
0.458184 0.554206 -0.091575
0.533047 0.551073 -0.090949
0.592372 0.538061 -0.099208
0.644532 0.521597 -0.109640
0.693557 0.504087 -0.119445
0.739706 0.498984 -0.080786
0.784260 0.500679 -0.029704
0.824551 0.504817 0.022187
0.858597 0.507287 0.070255
0.887849 0.504980 0.114640
0.912438 0.492910 0.154155
0.932124 0.461767 0.187243
0.947852 0.387742 0.214609
0.960765 0.237692 0.288844
0.970552 0.255557 0.392991
0.977966 0.269305 0.478878
0.983592 0.279857 0.549730
0.987130 0.286548 0.606670
0.988611 0.289361 0.653999
-0.103360 0.613129 -0.103360
-0.103360 0.613129 -0.103360
-0.103360 0.613129 -0.103360
-0.103149 0.612075 -0.103149
-0.103096 0.611810 -0.103096
-0.103030 0.611481 -0.103030
-0.102948 0.611072 -0.102948
-0.102847 0.610564 -0.102847
-0.102720 0.609932 -0.102720
-0.084299 0.609145 -0.102563
0.084075 0.608165 -0.102367
0.219998 0.606943 -0.102123
0.334829 0.605417 -0.101817
0.428290 0.603508 -0.101436
0.508720 0.601113 -0.100956
0.580706 0.598099 -0.100354
0.637950 0.585562 -0.108324
0.688588 0.569635 -0.118452
0.735888 0.561891 -0.084856
0.781337 0.562049 -0.033259
0.822522 0.566039 0.019445
0.857206 0.570225 0.068215
0.886895 0.572236 0.113146
0.911804 0.568964 0.153111
0.931722 0.555575 0.186556
0.947587 0.524085 0.214140
0.960595 0.452907 0.237384
0.970450 0.258242 0.348947
0.977903 0.269186 0.448406
0.983557 0.279792 0.530216
0.987112 0.286514 0.593313
0.988611 0.289361 0.644595
-0.112371 0.658183 -0.112371
-0.112371 0.658183 -0.112371
-0.112371 0.658183 -0.112371
-0.112205 0.657357 -0.112205
-0.112164 0.657149 -0.112164
-0.112112 0.656891 -0.112112
-0.112048 0.656571 -0.112048
-0.111969 0.656173 -0.111969
-0.111870 0.655678 -0.111870
-0.111747 0.655063 -0.111747
-0.021548 0.654298 -0.111594
0.146881 0.653344 -0.111403
0.284210 0.652155 -0.111165
0.391354 0.650670 -0.110868
0.480098 0.648811 -0.110496
0.557244 0.646481 -0.110030
0.626624 0.643551 -0.109444
0.682217 0.631380 -0.117177
0.731042 0.620946 -0.089951
0.777635 0.618691 -0.037719
0.819942 0.621451 0.015977
0.855450 0.625878 0.065650
0.885692 0.629741 0.111269
0.911007 0.630614 0.151799
0.931219 0.625334 0.185694
0.947256 0.610399 0.213556
0.960382 0.579416 0.237000
0.970323 0.511359 0.275815
0.977823 0.312136 0.404550
0.983514 0.279710 0.501346
0.987090 0.286472 0.574810
0.988611 0.289361 0.631986
-0.119061 0.701774 -0.119061
-0.119061 0.701774 -0.119061
-0.119061 0.701774 -0.119061
-0.119665 0.701136 -0.119665
-0.119816 0.700975 -0.119816
-0.120004 0.700775 -0.120004
-0.120237 0.700528 -0.120237
-0.120527 0.700220 -0.120527
-0.120702 0.699838 -0.120702
-0.120607 0.699363 -0.120607
-0.120488 0.698772 -0.120488
0.039324 0.698036 -0.120341
0.211402 0.697118 -0.120158
0.343168 0.695973 -0.119929
0.444910 0.694541 -0.119642
0.529629 0.692749 -0.119284
0.603896 0.690500 -0.118834
0.671239 0.687668 -0.118268
0.724854 0.677625 -0.096344
0.772922 0.672219 -0.043332
0.816640 0.672944 0.011572
0.853223 0.676629 0.062411
0.884173 0.680898 0.108905
0.910000 0.683661 0.150147
0.930585 0.682512 0.184611
0.946842 0.675358 0.212826
0.960116 0.659524 0.236519
0.970164 0.627850 0.254843
0.977724 0.561978 0.334652
0.983460 0.365650 0.456880
0.987062 0.286419 0.548203
0.988611 0.289361 0.614556
-0.076178 0.743976 -0.076178
-0.076178 0.743976 -0.076178
-0.076178 0.743976 -0.076178
-0.076728 0.743468 -0.076728
-0.076867 0.743341 -0.076867
-0.077038 0.743183 -0.077038
-0.077251 0.742986 -0.077251
-0.077515 0.742743 -0.077515
-0.077842 0.742440 -0.077842
-0.078248 0.742064 -0.078248
-0.078752 0.741597 -0.078752
-0.079378 0.741016 -0.079378
0.138123 0.740294 -0.080155
0.301018 0.739394 -0.081121
0.417105 0.738272 -0.082320
0.508095 0.736871 -0.083812
0.584968 0.735120 -0.085669
0.653076 0.732926 -0.087980
0.714911 0.730168 -0.090862
0.766841 0.723135 -0.050463
0.812388 0.721149 0.005953
0.850383 0.723468 0.058304
0.882245 0.727446 0.105915
0.908725 0.731038 0.148058
0.929785 0.732102 0.183245
0.946322 0.729055 0.211910
0.959782 0.720566 0.235916
0.969965 0.703225 0.254477
0.977600 0.671187 0.268622
0.983391 0.607523 0.386208
0.987027 0.414592 0.506507
0.988611 0.289361 0.589303
-0.028208 0.785484 -0.028208
-0.028208 0.785484 -0.028208
-0.028208 0.785484 -0.028208
-0.028691 0.785089 -0.028691
-0.028812 0.784990 -0.028812
-0.028963 0.784867 -0.028963
-0.029149 0.784715 -0.029149
-0.029381 0.784525 -0.029381
-0.029668 0.784290 -0.029668
-0.030025 0.783998 -0.030025
-0.030467 0.783635 -0.030467
-0.031017 0.783183 -0.031017
0.007803 0.782622 -0.031700
0.236483 0.781922 -0.032549
0.384736 0.781051 -0.033605
0.488175 0.779964 -0.034918
0.570031 0.778606 -0.036554
0.639646 0.776906 -0.038591
0.701406 0.774775 -0.041133
0.757897 0.772085 -0.044321
0.806869 0.767836 -0.001252
0.846732 0.767997 0.053065
0.879780 0.770824 0.102111
0.907100 0.774201 0.145405
0.928769 0.776204 0.181514
0.945668 0.775429 0.210760
0.959361 0.771120 0.235156
0.969714 0.761205 0.254015
0.977445 0.742822 0.268332
0.983306 0.710617 0.279318
0.986984 0.647944 0.435038
0.988611 0.460317 0.550364
0.020914 0.823610 0.020914
0.020914 0.823610 0.020914
0.020914 0.823610 0.020914
0.020537 0.823331 0.020537
0.020443 0.823261 0.020443
0.020325 0.823174 0.020325
0.020180 0.823067 0.020180
0.019999 0.822933 0.019999
0.019774 0.822766 0.019774
0.019496 0.822560 0.019496
0.019149 0.822303 0.019149
0.018719 0.821983 0.018719
0.018184 0.821586 0.018184
0.116455 0.821090 0.017518
0.331035 0.820472 0.016688
0.462011 0.819700 0.015653
0.554537 0.818734 0.014361
0.628558 0.817522 0.012745
0.691931 0.815999 0.010720
0.748017 0.814077 0.008177
0.799470 0.811643 0.004974
0.842004 0.809774 0.046345
0.876606 0.811382 0.097243
0.905017 0.814439 0.142016
0.927471 0.816929 0.179306
0.944842 0.817452 0.209308
0.958829 0.815413 0.234196
0.969399 0.809322 0.253436
0.977250 0.797951 0.267969
0.983198 0.779131 0.279114
0.986930 0.746489 0.292324
0.988611 0.684311 0.480845
0.067038 0.856402 0.067038
0.067038 0.856402 0.067038
0.067038 0.856402 0.067038
0.066754 0.856207 0.066754
0.066683 0.856158 0.066683
0.066594 0.856098 0.066594
0.066484 0.856022 0.066484
0.066348 0.855929 0.066348
0.066179 0.855813 0.066179
0.065969 0.855669 0.065969
0.065709 0.855491 0.065709
0.065385 0.855269 0.065385
0.064983 0.854993 0.064983
0.064483 0.854650 0.064483
0.212240 0.854222 0.063861
0.414288 0.853689 0.063087
0.531414 0.853024 0.062121
0.615348 0.852192 0.060916
0.683074 0.851149 0.059410
0.740808 0.849840 0.057522
0.792700 0.848190 0.055152
0.836256 0.846102 0.052165
0.872479 0.845988 0.090962
0.902326 0.848604 0.137660
0.925801 0.851578 0.176475
0.943792 0.853445 0.207466
0.958154 0.853572 0.232979
0.969001 0.850826 0.252705
0.977005 0.844212 0.267512
0.983061 0.832332 0.278856
0.986862 0.812311 0.286039
0.988611 0.779263 0.335857
0.110196 0.885003 0.110196
0.110196 0.885003 0.110196
0.110196 0.885003 0.110196
0.109985 0.884868 0.109985
0.109932 0.884834 0.109932
0.109866 0.884791 0.109866
0.109785 0.884739 0.109785
0.109684 0.884674 0.109684
0.109558 0.884593 0.109558
0.109402 0.884493 0.109402
0.109209 0.884369 0.109209
0.108968 0.884214 0.108968
0.108670 0.884022 0.108670
0.108299 0.883783 0.108299
0.107838 0.883486 0.107838
0.301636 0.883116 0.107263
0.488417 0.882654 0.106548
0.594318 0.882077 0.105656
0.671172 0.881356 0.104541
0.733285 0.880452 0.103145
0.786999 0.879315 0.101395
0.832355 0.877881 0.099194
0.867886 0.876064 0.096415
0.898816 0.877043 0.132014
0.923640 0.879913 0.172826
0.942447 0.882353 0.205112
0.957291 0.883746 0.231427
0.968497 0.883283 0.251779
0.976695 0.880296 0.266934
0.982886 0.874189 0.278527
0.986777 0.862932 0.285878
0.988611 0.843233 0.289361
0.149208 0.909427 0.149208
0.149208 0.909427 0.149208
0.149208 0.909427 0.149208
0.149057 0.909335 0.149057
0.149020 0.909312 0.149020
0.148973 0.909284 0.148973
0.148915 0.909248 0.148915
0.148843 0.909204 0.148843
0.148753 0.909149 0.148753
0.148642 0.909082 0.148642
0.148504 0.908997 0.148504
0.148333 0.908893 0.148333
0.148121 0.908763 0.148121
0.147856 0.908601 0.147856
0.147528 0.908400 0.147528
0.147119 0.908150 0.147119
0.384225 0.907838 0.146609
0.554222 0.907449 0.145974
0.651085 0.906962 0.145181
0.722162 0.906353 0.144189
0.779777 0.905589 0.142946
0.828462 0.904627 0.141383
0.865833 0.903411 0.139414
0.895219 0.901869 0.136923
0.920808 0.903415 0.168065
0.940706 0.906091 0.202073
0.956180 0.908181 0.229432
0.967852 0.909011 0.250597
0.976301 0.908053 0.266201
0.982662 0.905040 0.278106
0.986669 0.898932 0.285674
0.988611 0.888311 0.289361
0.182472 0.929332 0.182472
0.182472 0.929332 0.182472
0.182472 0.929332 0.182472
0.182371 0.929273 0.182371
0.182346 0.929258 0.182346
0.182315 0.929240 0.182315
0.182276 0.929217 0.182276
0.182228 0.929189 0.182228
0.182168 0.929154 0.182168
0.182094 0.929110 0.182094
0.182002 0.929056 0.182002
0.181888 0.928989 0.181888
0.181746 0.928905 0.181746
0.181569 0.928802 0.181569
0.181350 0.928673 0.181350
0.181077 0.928513 0.181077
0.180737 0.928313 0.180737
0.458105 0.928064 0.180313
0.612171 0.927753 0.179785
0.701987 0.927363 0.179123
0.768013 0.926875 0.178295
0.821986 0.926262 0.177256
0.863103 0.925491 0.175950
0.894281 0.924516 0.174302
0.918102 0.923276 0.172212
0.938419 0.924992 0.198097
0.954734 0.927522 0.226841
0.967020 0.929229 0.249074
0.975798 0.929607 0.265266
0.982374 0.928559 0.277563
0.986532 0.925432 0.285414
0.988611 0.919511 0.289361
0.210114 0.945301 0.210114
0.210114 0.945301 0.210114
0.210114 0.945301 0.210114
0.210046 0.945262 0.210046
0.210029 0.945253 0.210029
0.210008 0.945241 0.210008
0.209982 0.945226 0.209982
0.209949 0.945207 0.209949
0.209909 0.945184 0.209909
0.209859 0.945156 0.209859
0.209797 0.945120 0.209797
0.209719 0.945076 0.209719
0.209624 0.945022 0.209624
0.209505 0.944954 0.209505
0.209357 0.944870 0.209357
0.209174 0.944766 0.209174
0.208946 0.944636 0.208946
0.208662 0.944474 0.208662
0.521222 0.944272 0.208308
0.663476 0.944021 0.207867
0.747575 0.943707 0.207317
0.809908 0.943314 0.206628
0.857650 0.942820 0.205764
0.892086 0.942199 0.204678
0.917832 0.941413 0.203306
0.936387 0.940414 0.201565
0.952828 0.942165 0.223438
0.965934 0.944400 0.247088
0.975152 0.945626 0.264064
0.981999 0.945860 0.276859
0.986357 0.944661 0.285082
0.988611 0.941647 0.289361
0.233659 0.958531 0.233659
0.233659 0.958531 0.233659
0.233659 0.958531 0.233659
0.233613 0.958506 0.233613
0.233601 0.958499 0.233601
0.233587 0.958491 0.233587
0.233569 0.958481 0.233569
0.233547 0.958469 0.233547
0.233520 0.958454 0.233520
0.233486 0.958435 0.233486
0.233444 0.958412 0.233444
0.233392 0.958383 0.233392
0.233327 0.958347 0.233327
0.233247 0.958302 0.233247
0.233147 0.958247 0.233147
0.233023 0.958178 0.233023
0.232869 0.958092 0.232869
0.232677 0.957986 0.232677
0.232438 0.957853 0.232438
0.577226 0.957687 0.232140
0.709672 0.957480 0.231768
0.788829 0.957222 0.231303
0.847087 0.956898 0.230720
0.887337 0.956490 0.229988
0.916231 0.955976 0.229066
0.936683 0.955323 0.227896
0.951232 0.954491 0.226408
0.964489 0.956089 0.244453
0.974314 0.957774 0.262511
0.981509 0.958666 0.275938
0.986129 0.958481 0.284652
0.988611 0.957052 0.289361
0.252297 0.968779 0.252297
0.252297 0.968779 0.252297
0.252297 0.968779 0.252297
0.252269 0.968764 0.252269
