luts/Z-Log2/gain +1/zLog2_zRGB-ax2_32_gain1.cube
TITLE "Generated by ZCAM"
LUT_3D_SIZE 5
DOMAIN_MIN 0.000000 0.000000 0.000000
DOMAIN_MAX 0.903226 0.903226 0.903226
0.016055 0.016055 0.016055
0.245743 0.016055 0.016055
0.616544 0.016055 0.016055
0.822913 0.016055 0.143009
0.822913 0.016055 0.212029
0.016055 0.218537 0.016055
0.151499 0.184122 0.016055
0.602367 0.016655 0.016055
0.822913 0.016055 0.055643
0.822913 0.016055 0.199400
0.016055 0.596238 0.016055
0.016055 0.590574 0.016055
0.540468 0.568780 0.016055
0.822912 0.343107 0.016055
0.822913 0.016055 0.148496
0.016055 0.822913 0.016055
0.016055 0.822913 0.016055
0.016055 0.822912 0.016055
0.800637 0.822912 0.016055
0.822913 0.378060 0.016055
0.016055 0.822913 0.016055
0.016055 0.822913 0.016055
0.016055 0.822913 0.016055
0.016055 0.822912 0.016055
0.801062 0.822912 0.016055
0.016055 0.016055 0.216612
0.223670 0.016055 0.228836
0.612889 0.016055 0.268963
0.822913 0.016055 0.310822
0.822913 0.016055 0.248320
0.016055 0.163644 0.108430
0.121165 0.122428 0.125590
0.598423 0.016055 0.180500
0.822913 0.016055 0.267125
0.822913 0.016055 0.237331
0.016055 0.587434 0.016055
0.016055 0.581482 0.016055
0.534944 0.558523 0.016055
0.822913 0.321201 0.016055
0.822912 0.016055 0.193653
0.016055 0.822912 0.016055
0.016055 0.822912 0.016055
0.016055 0.822913 0.016055
0.801475 0.822912 0.016055
0.822913 0.374321 0.016055
0.016055 0.822913 0.016055
0.016055 0.822912 0.016055
0.016055 0.822912 0.016055
0.016055 0.822913 0.016055
0.801243 0.822912 0.016055
0.016055 0.016055 0.597407
0.127563 0.016055 0.599520
0.599235 0.016055 0.606876
0.822912 0.016055 0.551841
0.822913 0.016055 0.351275
0.016055 0.016055 0.581231
0.016055 0.016055 0.583541
0.583605 0.016055 0.591555
0.822913 0.016055 0.541586
0.822913 0.016055 0.344108
0.016055 0.552043 0.508396
0.016055 0.544824 0.511778
0.513823 0.516574 0.523389
0.822912 0.221053 0.496294
0.822913 0.016055 0.315727
0.016055 0.822912 0.016055
0.016055 0.822912 0.016055
0.016055 0.822912 0.016055
0.804565 0.822912 0.016055
0.822912 0.360267 0.115357
0.016055 0.822913 0.016055
0.016055 0.822912 0.016055
0.016055 0.822913 0.016055
0.016055 0.822913 0.016055
0.801896 0.822913 0.016055
0.016055 0.016055 0.822912
0.016055 0.016055 0.822912
0.446623 0.016055 0.822912
0.816330 0.016055 0.822912
0.822912 0.016055 0.562609
0.016055 0.016055 0.822912
0.016055 0.016055 0.822912
0.425492 0.016055 0.822912
0.816283 0.016055 0.822912
0.822913 0.016055 0.560598
0.016055 0.118836 0.822912
0.016055 0.081873 0.822912
0.314137 0.016055 0.822912
0.816102 0.016055 0.822912
0.822913 0.016055 0.553125
0.016055 0.822913 0.789582
0.016055 0.822912 0.791497
0.016055 0.822913 0.798311
0.814908 0.817239 0.822912
0.822913 0.278704 0.512367
0.016055 0.822913 0.016055
0.016055 0.822912 0.016055
0.016055 0.822912 0.016055
0.016055 0.822913 0.016055
0.804928 0.822912 0.016055
0.016055 0.016055 0.822912
0.016055 0.016055 0.822912
0.016055 0.016055 0.822912
0.466885 0.016055 0.822912
0.816306 0.016055 0.822912
0.016055 0.016055 0.822912
0.016055 0.016055 0.822912
0.016055 0.016055 0.822912
0.463030 0.016055 0.822912
0.816296 0.016055 0.822912
0.016055 0.016055 0.822912
0.016055 0.016055 0.822912
0.016055 0.016055 0.822912
0.448358 0.016055 0.822912
0.816259 0.016055 0.822912
0.016055 0.204040 0.822912
0.016055 0.198372 0.822912
0.016055 0.177228 0.822912
0.356873 0.056147 0.822912
0.816080 0.016055 0.822912
0.016055 0.822913 0.790557
0.016055 0.822912 0.790971
0.016055 0.822913 0.792450
0.016055 0.822912 0.799084
0.814908 0.817239 0.822912
