luts/Z-Log2/gain +1/zLog2_zRGB-ax2_32_gain1.cube
TITLE "Generated by ZCAM"
LUT_3D_SIZE 32
0.016055 0.016055 0.016055
0.016055 0.016055 0.016055
0.016055 0.016055 0.016055
0.018702 0.016055 0.016055
0.070126 0.016055 0.016055
0.128896 0.016055 0.016055
0.186704 0.016055 0.016055
0.245743 0.016055 0.016055
0.306542 0.016055 0.016055
0.365579 0.016055 0.016055
0.420418 0.016055 0.016055
0.472812 0.016055 0.016055
0.522558 0.016055 0.016055
0.570423 0.016055 0.016055
0.616544 0.016055 0.016055
0.661344 0.016055 0.016055
0.704683 0.016055 0.016055
0.746747 0.016055 0.016055
0.788073 0.016055 0.026522
0.822913 0.016055 0.081859
0.822913 0.016055 0.118107
0.822913 0.016055 0.143009
0.822913 0.016055 0.161825
0.822913 0.016055 0.176221
0.822913 0.016055 0.187274
0.822913 0.016055 0.195855
0.822913 0.016055 0.202562
0.822913 0.016055 0.207846
0.822913 0.016055 0.212029
0.822913 0.016055 0.215348
0.822913 0.016055 0.217993
0.822913 0.016055 0.220099
0.016055 0.016055 0.016055
0.016055 0.016055 0.016055
0.016055 0.016055 0.016055
0.018702 0.016055 0.016055
0.070126 0.016055 0.016055
0.128896 0.016055 0.016055
0.186704 0.016055 0.016055
0.245743 0.016055 0.016055
0.306542 0.016055 0.016055
0.365579 0.016055 0.016055
0.420418 0.016055 0.016055
0.472812 0.016055 0.016055
0.522558 0.016055 0.016055
0.570423 0.016055 0.016055
0.616544 0.016055 0.016055
0.661344 0.016055 0.016055
0.704683 0.016055 0.016055
0.746747 0.016055 0.016055
0.788073 0.016055 0.026522
0.822913 0.016055 0.081859
0.822913 0.016055 0.118107
0.822913 0.016055 0.143009
0.822913 0.016055 0.161825
0.822913 0.016055 0.176221
0.822913 0.016055 0.187274
0.822913 0.016055 0.195855
0.822913 0.016055 0.202562
0.822913 0.016055 0.207846
0.822913 0.016055 0.212029
0.822913 0.016055 0.215348
0.822913 0.016055 0.217993
0.822913 0.016055 0.220099
0.016055 0.016055 0.016055
0.016055 0.016055 0.016055
0.016055 0.016055 0.016055
0.018702 0.016055 0.016055
0.070126 0.016055 0.016055
0.128896 0.016055 0.016055
0.186704 0.016055 0.016055
0.245743 0.016055 0.016055
0.306542 0.016055 0.016055
0.365579 0.016055 0.016055
0.420418 0.016055 0.016055
0.472812 0.016055 0.016055
0.522558 0.016055 0.016055
0.570423 0.016055 0.016055
0.616544 0.016055 0.016055
0.661344 0.016055 0.016055
0.704683 0.016055 0.016055
0.746747 0.016055 0.016055
0.788073 0.016055 0.026522
0.822913 0.016055 0.081859
0.822913 0.016055 0.118107
0.822913 0.016055 0.143009
0.822913 0.016055 0.161825
0.822913 0.016055 0.176221
0.822913 0.016055 0.187274
0.822913 0.016055 0.195855
0.822913 0.016055 0.202562
0.822913 0.016055 0.207846
0.822913 0.016055 0.212029
0.822913 0.016055 0.215348
0.822913 0.016055 0.217993
0.822913 0.016055 0.220099
0.016055 0.016055 0.016055
0.016055 0.016055 0.016055
0.016055 0.016055 0.016055
0.016055 0.016055 0.016055
0.016055 0.016055 0.016055
0.073420 0.016055 0.016055
0.143001 0.016055 0.016055
0.210581 0.016055 0.016055
0.277475 0.016055 0.016055
0.343828 0.016055 0.016055
0.404045 0.016055 0.016055
0.460350 0.016055 0.016055
0.513027 0.016055 0.016055
0.563053 0.016055 0.016055
0.610827 0.016055 0.016055
0.656870 0.016055 0.016055
0.701228 0.016055 0.016055
0.744002 0.016055 0.016055
0.785947 0.016055 0.016055
0.822912 0.016055 0.019544
0.822912 0.016055 0.072178
0.822913 0.016055 0.112179
0.822912 0.016055 0.138643
0.822912 0.016055 0.158496
0.822913 0.016055 0.173675
0.822912 0.016055 0.185309
0.822912 0.016055 0.194323
0.822913 0.016055 0.201362
0.822913 0.016055 0.206900
0.822913 0.016055 0.211276
0.822912 0.016055 0.214751
0.822913 0.016055 0.217511
0.016055 0.041376 0.016055
0.016055 0.041376 0.016055
0.016055 0.041376 0.016055
0.016055 0.021202 0.016055
0.016055 0.016786 0.016055
0.056101 0.016055 0.016055
0.131192 0.016055 0.016055
0.201012 0.016055 0.016055
0.269756 0.016055 0.016055
0.337955 0.016055 0.016055
0.399726 0.016055 0.016055
0.457092 0.016055 0.016055
0.510561 0.016055 0.016055
0.561158 0.016055 0.016055
0.609365 0.016055 0.016055
0.655729 0.016055 0.016055
0.700349 0.016055 0.016055
0.743307 0.016055 0.016055
0.785408 0.016055 0.016055
0.822913 0.016055 0.016055
0.822913 0.016055 0.058094
0.822913 0.016055 0.103699
0.822913 0.016055 0.132579
0.822913 0.016055 0.153891
0.822913 0.016055 0.170145
0.822912 0.016055 0.182594
0.822913 0.016055 0.192211
0.822913 0.016055 0.199708
0.822913 0.016055 0.205594
0.822912 0.016055 0.210243
0.822913 0.016055 0.213930
0.822913 0.016055 0.216859
0.016055 0.102386 0.016055
0.016055 0.102386 0.016055
0.016055 0.102386 0.016055
0.016055 0.080746 0.016055
0.016055 0.074720 0.016055
0.036274 0.066835 0.016055
0.115957 0.057093 0.016055
0.188683 0.045324 0.016055
0.259943 0.032528 0.016055
0.330435 0.018489 0.016055
0.394248 0.016055 0.016055
0.452975 0.016055 0.016055
0.507459 0.016055 0.016055
0.558782 0.016055 0.016055
0.607537 0.016055 0.016055
0.654306 0.016055 0.016055
0.699253 0.016055 0.016055
0.742442 0.016055 0.016055
0.784737 0.016055 0.016055
0.822912 0.016055 0.016055
0.822913 0.016055 0.041577
0.822913 0.016055 0.092436
0.822913 0.016055 0.124921
0.822913 0.016055 0.148089
0.822913 0.016055 0.165706
0.822913 0.016055 0.179186
0.822912 0.016055 0.189568
0.822913 0.016055 0.197643
0.822913 0.016055 0.203970
0.822913 0.016055 0.208958
0.822913 0.016055 0.212908
0.822912 0.016055 0.216043
0.016055 0.159397 0.016055
0.016055 0.159397 0.016055
0.016055 0.159397 0.016055
0.016055 0.142730 0.016055
0.016055 0.138437 0.016055
0.016133 0.133054 0.016055
0.095314 0.126294 0.016055
0.172627 0.117655 0.016055
0.247381 0.106480 0.016055
0.320677 0.091415 0.016055
0.387263 0.070009 0.016055
0.447750 0.042112 0.016055
0.503544 0.016055 0.016055
0.555794 0.016055 0.016055
0.605247 0.016055 0.016055
0.652525 0.016055 0.016055
0.697883 0.016055 0.016055
0.741363 0.016055 0.016055
0.783901 0.016055 0.016055
0.822884 0.016055 0.016055
0.822912 0.016055 0.024039
0.822913 0.016055 0.076923
0.822913 0.016055 0.115051
0.822913 0.016055 0.140751
0.822912 0.016055 0.160102
0.822913 0.016055 0.174902
0.822913 0.016055 0.186254
0.822913 0.016055 0.195058
0.822913 0.016055 0.201939
0.822913 0.016055 0.207353
0.822912 0.016055 0.211638
0.822913 0.016055 0.215031
0.016055 0.218537 0.016055
0.016055 0.218537 0.016055
0.016055 0.218537 0.016055
0.016055 0.204850 0.016055
0.016055 0.201311 0.016055
0.016055 0.196862 0.016055
0.064533 0.191246 0.016055
0.151499 0.184122 0.016055
0.231200 0.175050 0.016055
0.307918 0.163390 0.016055
0.378301 0.148389 0.016055
0.441072 0.128984 0.016055
0.498580 0.102979 0.016055
0.552021 0.063047 0.016055
0.602367 0.016655 0.016055
0.650292 0.016055 0.016055
0.696167 0.016055 0.016055
0.740017 0.016055 0.016055
0.782858 0.016055 0.016055
0.822149 0.016055 0.016055
0.822913 0.016055 0.016055
0.822913 0.016055 0.055643
0.822912 0.016055 0.102071
0.822912 0.016055 0.131444
0.822913 0.016055 0.153025
0.822912 0.016055 0.169483
0.822913 0.016055 0.182083
0.822913 0.016055 0.191816
0.822913 0.016055 0.199400
0.822912 0.016055 0.205350
0.822913 0.016055 0.210050
0.822913 0.016055 0.213771
0.016055 0.278536 0.016055
0.016055 0.278536 0.016055
0.016055 0.278536 0.016055
0.016055 0.267238 0.016055
0.016055 0.264347 0.016055
0.016055 0.260726 0.016055
0.027528 0.256185 0.016055
0.123624 0.250472 0.016055
0.209774 0.243268 0.016055
0.291166 0.234145 0.016055
0.366622 0.222432 0.016055
0.432458 0.207143 0.016055
0.492246 0.186958 0.016055
0.547235 0.159820 0.016055
0.598733 0.123086 0.016055
0.647487 0.066588 0.016055
0.694013 0.016055 0.016055
0.738334 0.016055 0.016055
0.781555 0.016055 0.016055
0.821229 0.016055 0.016055
0.822913 0.016055 0.016055
0.822912 0.016055 0.031561
0.822913 0.016055 0.084079
0.822913 0.016055 0.119505
0.822913 0.016055 0.144042
0.822912 0.016055 0.162611
0.822913 0.016055 0.176820
0.822913 0.016055 0.187736
0.822913 0.016055 0.196215
0.822913 0.016055 0.202844
0.822913 0.016055 0.208068
0.822913 0.016055 0.212199
0.016055 0.339427 0.016055
0.016055 0.339427 0.016055
0.016055 0.339427 0.016055
0.016055 0.330604 0.016055
0.016055 0.328325 0.016055
0.016055 0.325462 0.016055
0.016055 0.321848 0.016055
0.083594 0.317279 0.016055
0.180690 0.311482 0.016055
0.268926 0.304112 0.016055
0.350990 0.294676 0.016055
0.421242 0.282455 0.016055
0.484093 0.266694 0.016055
0.541129 0.246131 0.016055
0.594125 0.218819 0.016055
0.643948 0.180743 0.016055
0.691304 0.126087 0.016055
0.736226 0.036285 0.016055
0.779923 0.016055 0.016055
0.820076 0.016055 0.016055
0.822912 0.016055 0.016055
0.822913 0.016055 0.016055
0.822913 0.016055 0.058084
0.822913 0.016055 0.103687
0.822913 0.016055 0.132568
0.822913 0.016055 0.153881
0.822913 0.016055 0.170137
0.822913 0.016055 0.182586
0.822913 0.016055 0.192205
0.822913 0.016055 0.199703
0.822913 0.016055 0.205589
0.822913 0.016055 0.210234
0.016055 0.395955 0.016055
0.016055 0.395955 0.016055
0.016055 0.395955 0.016055
0.016055 0.389373 0.016055
0.016055 0.387693 0.016055
0.016055 0.385592 0.016055
0.016055 0.382962 0.016055
0.025628 0.379657 0.016055
0.140340 0.375488 0.016055
0.239307 0.370194 0.016055
0.329618 0.363412 0.016055
0.406439 0.354614 0.016055
0.473461 0.343082 0.016055
0.533278 0.327789 0.016055
0.588245 0.307047 0.016055
0.639466 0.278706 0.016055
0.687881 0.239866 0.016055
0.733578 0.183903 0.016055
0.777878 0.096180 0.016055
0.818626 0.016055 0.016055
0.822913 0.016055 0.016055
0.822913 0.016055 0.016055
0.822913 0.016055 0.028512
0.822912 0.016055 0.081284
0.822913 0.016055 0.117739
0.822913 0.016055 0.142733
0.822913 0.016055 0.161611
0.822912 0.016055 0.176055
0.822913 0.016055 0.187144
0.822913 0.016055 0.195753
0.822912 0.016055 0.202482
0.822912 0.016055 0.207777
0.016055 0.449636 0.016055
0.016055 0.449636 0.016055
0.016055 0.449636 0.016055
0.016055 0.444590 0.016055
0.016055 0.443303 0.016055
0.016055 0.441695 0.016055
0.016055 0.439683 0.016055
0.016055 0.437158 0.016055
0.080791 0.433984 0.016055
0.198252 0.429975 0.016055
0.299612 0.424894 0.016055
0.386508 0.418418 0.016055
0.459372 0.410097 0.016055
0.523077 0.399290 0.016055
0.580679 0.385098 0.016055
0.633751 0.366124 0.016055
0.683540 0.339494 0.016055
0.730242 0.300612 0.016055
0.775306 0.243048 0.016055
0.816797 0.153029 0.016055
0.822912 0.016055 0.016055
0.822913 0.016055 0.016055
0.822912 0.016055 0.016055
0.822913 0.016055 0.048822
0.822913 0.016055 0.097658
0.822912 0.016055 0.128412
0.822913 0.016055 0.150725
0.822913 0.016055 0.167718
0.822913 0.016055 0.180729
0.822912 0.016055 0.190766
0.822912 0.016055 0.198577
0.822913 0.016055 0.204697
0.016055 0.500569 0.016055
0.016055 0.500569 0.016055
0.016055 0.500569 0.016055
0.016055 0.496718 0.016055
0.016055 0.495740 0.016055
0.016055 0.494521 0.016055
0.016055 0.492999 0.016055
0.016055 0.491094 0.016055
0.016055 0.488707 0.016055
0.137774 0.485705 0.016055
0.257121 0.481914 0.016055
0.358908 0.477104 0.016055
0.440347 0.470959 0.016055
0.509630 0.463047 0.016055
0.570844 0.452760 0.016055
0.626410 0.439208 0.016055
0.677999 0.421001 0.016055
0.726022 0.395946 0.016055
0.772051 0.360156 0.016055
0.814481 0.303885 0.016055
0.822913 0.186372 0.016055
0.822913 0.027289 0.016055
0.822912 0.016055 0.016055
0.822913 0.016055 0.016055
0.822913 0.016055 0.067691
0.822912 0.016055 0.109525
0.822912 0.016055 0.136712
0.822912 0.016055 0.157029
0.822912 0.016055 0.172548
0.822913 0.016055 0.184438
0.822913 0.016055 0.193648
0.822912 0.016055 0.200824
0.016055 0.549306 0.016055
0.016055 0.549306 0.016055
0.016055 0.549306 0.016055
0.016055 0.546320 0.016055
0.016055 0.545563 0.016055
0.016055 0.544621 0.016055
0.016055 0.543446 0.016055
0.016055 0.541979 0.016055
0.016055 0.540145 0.016055
0.036980 0.537847 0.016055
0.195583 0.534958 0.016055
0.317832 0.531316 0.016055
0.413907 0.526703 0.016055
0.491561 0.520824 0.016055
0.557885 0.513277 0.016055
0.616890 0.503493 0.016055
0.670879 0.490646 0.016055
0.720657 0.473413 0.016055
0.767902 0.449573 0.016055
0.811536 0.415330 0.016055
0.822913 0.330597 0.016055
0.822912 0.207644 0.016055
0.822913 0.054071 0.016055
0.822913 0.016055 0.016055
0.822912 0.016055 0.029796
0.822912 0.016055 0.082479
0.822912 0.016055 0.118490
0.822913 0.016055 0.143286
0.822913 0.016055 0.162032
0.822913 0.016055 0.176377
0.822912 0.016055 0.187393
0.822912 0.016055 0.195940
0.016055 0.596238 0.016055
0.016055 0.596238 0.016055
0.016055 0.596238 0.016055
0.016055 0.593924 0.016055
0.016055 0.593339 0.016055
0.016055 0.592611 0.016055
0.016055 0.591704 0.016055
0.016055 0.590574 0.016055
0.016055 0.589162 0.016055
0.016055 0.587396 0.016055
0.096191 0.585182 0.016055
0.254397 0.582400 0.016055
0.375704 0.578891 0.016055
0.466483 0.574445 0.016055
0.540468 0.568780 0.016055
0.604382 0.561512 0.016055
0.661631 0.552090 0.016055
0.713798 0.539713 0.016055
0.762591 0.523169 0.016055
0.807768 0.500467 0.016055
0.822913 0.438187 0.016055
0.822912 0.343107 0.016055
0.822913 0.223555 0.016055
0.822912 0.078200 0.016055
0.822913 0.016055 0.016055
0.822912 0.016055 0.042689
0.822913 0.016055 0.093276
0.822913 0.016055 0.125471
0.822913 0.016055 0.148496
0.822912 0.016055 0.166015
0.822913 0.016055 0.179423
0.822913 0.016055 0.189744
0.016055 0.641615 0.016055
0.016055 0.641615 0.016055
0.016055 0.641615 0.016055
0.016055 0.639802 0.016055
0.016055 0.639345 0.016055
0.016055 0.638776 0.016055
0.016055 0.638069 0.016055
0.016055 0.637187 0.016055
0.016055 0.636089 0.016055
0.016055 0.634718 0.016055
0.016055 0.633004 0.016055
0.152363 0.630856 0.016055
0.315073 0.628158 0.016055
0.429958 0.624758 0.016055
0.516409 0.620455 0.016055
0.587608 0.614980 0.016055
0.649450 0.607966 0.016055
0.704921 0.598892 0.016055
0.755761 0.586980 0.016055
0.802917 0.571040 0.016055
0.822912 0.523871 0.016055
0.822912 0.445298 0.016055
0.822912 0.352569 0.016055
0.822913 0.235631 0.016055
0.822913 0.095567 0.016055
0.822913 0.016055 0.016055
0.822913 0.016055 0.054573
0.822912 0.016055 0.101352
0.822913 0.016055 0.130938
0.822913 0.016055 0.152639
0.822912 0.016055 0.169187
0.822913 0.016055 0.181847
0.016055 0.685694 0.016055
0.016055 0.685694 0.016055
0.016055 0.685694 0.016055
0.016055 0.684280 0.016055
0.016055 0.683924 0.016055
0.016055 0.683480 0.016055
0.016055 0.682929 0.016055
0.016055 0.682244 0.016055
0.016055 0.681390 0.016055
0.016055 0.680326 0.016055
0.016055 0.678997 0.016055
0.016055 0.677335 0.016055
0.210660 0.675252 0.016055
0.373183 0.672636 0.016055
0.481726 0.669339 0.016055
0.564417 0.665162 0.016055
0.633133 0.659840 0.016055
0.693200 0.653012 0.016055
0.746952 0.644176 0.016055
0.796605 0.632600 0.016055
0.822913 0.597611 0.016055
0.822913 0.528179 0.016055
0.822913 0.450794 0.016055
0.822912 0.359808 0.016055
0.822912 0.244982 0.016055
0.822913 0.108068 0.016055
0.822913 0.016055 0.016055
0.822913 0.016055 0.064298
0.822913 0.016055 0.107541
0.822912 0.016055 0.135287
0.822912 0.016055 0.155943
0.822913 0.016055 0.171713
0.016055 0.728172 0.016055
0.016055 0.728172 0.016055
0.016055 0.728172 0.016055
0.016055 0.727065 0.016055
0.016055 0.726786 0.016055
0.016055 0.726440 0.016055
0.016055 0.726010 0.016055
0.016055 0.725476 0.016055
0.016055 0.724811 0.016055
0.016055 0.723984 0.016055
0.016055 0.722953 0.016055
0.016055 0.721667 0.016055
0.016055 0.720062 0.016055
0.269837 0.718054 0.016055
0.427533 0.715536 0.016055
0.531003 0.712367 0.016055
0.610681 0.708358 0.016055
0.677400 0.703253 0.016055
0.735431 0.696690 0.016055
0.788247 0.688158 0.016055
0.822912 0.664482 0.016055
0.822913 0.600268 0.016055
0.822912 0.531551 0.016055
0.822912 0.455086 0.016055
0.822913 0.365401 0.016055
0.822913 0.252328 0.016055
0.822913 0.117441 0.016055
0.822913 0.016055 0.019847
0.822913 0.016055 0.072495
0.822913 0.016055 0.112352
0.822913 0.016055 0.138764
0.822913 0.016055 0.158578
0.016055 0.770065 0.016055
0.016055 0.770065 0.016055
0.016055 0.770065 0.016055
0.016055 0.769187 0.016055
0.016055 0.768966 0.016055
0.016055 0.768692 0.016055
0.016055 0.768351 0.016055
0.016055 0.767927 0.016055
0.016055 0.767400 0.016055
0.016055 0.766743 0.016055
0.016055 0.765925 0.016055
0.016055 0.764905 0.016055
0.016055 0.763631 0.016055
0.044152 0.762037 0.016055
0.330515 0.760040 0.016055
0.479430 0.757532 0.016055
0.578486 0.754375 0.016055
0.655587 0.750392 0.016055
0.720078 0.745346 0.016055
0.777106 0.738889 0.016055
0.822913 0.727007 0.016055
0.822912 0.666078 0.016055
0.822912 0.602362 0.016055
0.822912 0.534207 0.016055
0.822913 0.458459 0.016055
0.822913 0.369761 0.016055
0.822912 0.258128 0.016055
0.822912 0.124726 0.016055
0.822912 0.016055 0.025820
0.822912 0.016055 0.078691
0.822913 0.016055 0.116135
0.822912 0.016055 0.141539
0.016055 0.809767 0.016055
0.016055 0.809767 0.016055
0.016055 0.809767 0.016055
0.016055 0.809125 0.016055
0.016055 0.808963 0.016055
0.016055 0.808762 0.016055
0.016055 0.808513 0.016055
0.016055 0.808203 0.016055
0.016055 0.807817 0.016055
0.016055 0.807337 0.016055
0.016055 0.806739 0.016055
0.016055 0.805993 0.016055
0.016055 0.805062 0.016055
0.016055 0.803898 0.016055
0.104420 0.802438 0.016055
0.387337 0.800603 0.016055
0.528798 0.798284 0.016055
0.624285 0.795335 0.016055
0.699116 0.791569 0.016055
0.762015 0.786735 0.016055
0.816104 0.780495 0.016055
0.822913 0.727852 0.016055
0.822913 0.667340 0.016055
0.822912 0.604020 0.016055
0.822912 0.536309 0.016055
0.822912 0.461125 0.016055
0.822913 0.373190 0.016055
0.822912 0.262720 0.016055
0.822912 0.130425 0.016055
0.822912 0.016055 0.030955
0.822912 0.016055 0.083520
0.822913 0.016055 0.119139
0.016055 0.822913 0.016055
0.016055 0.822913 0.016055
0.016055 0.822913 0.016055
0.016055 0.822913 0.016055
0.016055 0.822913 0.016055
0.016055 0.822912 0.016055
0.016055 0.822913 0.016055
0.016055 0.822912 0.016055
0.016055 0.822913 0.016055
0.016055 0.822913 0.016055
0.016055 0.822912 0.016055
0.016055 0.822912 0.016055
0.016055 0.822913 0.016055
0.016055 0.822913 0.016055
0.016055 0.822913 0.016055
0.149390 0.822913 0.016055
0.423766 0.822913 0.016055
0.561750 0.822913 0.016055
0.657650 0.822912 0.016055
0.734238 0.822912 0.016055
0.800502 0.822912 0.016055
0.822912 0.788363 0.016055
0.822912 0.728523 0.016055
0.822912 0.668343 0.016055
0.822912 0.605338 0.016055
0.822913 0.537980 0.016055
0.822912 0.463240 0.016055
0.822913 0.375904 0.016055
0.822912 0.266372 0.016055
0.822912 0.134951 0.016055
0.822912 0.016055 0.035238
0.822913 0.016055 0.087277
0.016055 0.822913 0.016055
0.016055 0.822913 0.016055
0.016055 0.822913 0.016055
0.016055 0.822912 0.016055
0.016055 0.822913 0.016055
0.016055 0.822913 0.016055
0.016055 0.822912 0.016055
0.016055 0.822913 0.016055
0.016055 0.822913 0.016055
0.016055 0.822913 0.016055
0.016055 0.822912 0.016055
0.016055 0.822913 0.016055
0.016055 0.822912 0.016055
0.016055 0.822912 0.016055
0.016055 0.822912 0.016055
0.016055 0.822912 0.016055
0.175079 0.822912 0.016055
0.431789 0.822912 0.016055
0.565183 0.822913 0.016055
0.659290 0.822913 0.016055
0.734940 0.822912 0.016055
0.800637 0.822912 0.016055
0.822913 0.788597 0.016055
0.822913 0.729058 0.016055
0.822912 0.669142 0.016055
0.822912 0.606389 0.016055
0.822912 0.539311 0.016055
0.822913 0.464923 0.016055
0.822913 0.378060 0.016055
0.822912 0.269283 0.016055
0.822913 0.138567 0.016055
0.822913 0.016055 0.038797
0.016055 0.822912 0.016055
0.016055 0.822912 0.016055
0.016055 0.822912 0.016055
0.016055 0.822913 0.016055
0.016055 0.822913 0.016055
0.016055 0.822913 0.016055
0.016055 0.822912 0.016055
0.016055 0.822912 0.016055
0.016055 0.822913 0.016055
0.016055 0.822913 0.016055
0.016055 0.822913 0.016055
0.016055 0.822912 0.016055
0.016055 0.822912 0.016055
0.016055 0.822913 0.016055
0.016055 0.822913 0.016055
0.016055 0.822912 0.016055
0.016055 0.822913 0.016055
0.194152 0.822913 0.016055
0.437970 0.822913 0.016055
0.567878 0.822912 0.016055
0.660587 0.822912 0.016055
0.735497 0.822913 0.016055
0.800744 0.822912 0.016055
0.822912 0.788783 0.016055
0.822912 0.729486 0.016055
0.822912 0.669781 0.016055
0.822912 0.607229 0.016055
0.822913 0.540375 0.016055
0.822913 0.466266 0.016055
0.822912 0.379780 0.016055
0.822912 0.271607 0.016055
0.822913 0.141453 0.016055
0.016055 0.822912 0.016055
0.016055 0.822912 0.016055
0.016055 0.822912 0.016055
0.016055 0.822913 0.016055
0.016055 0.822913 0.016055
0.016055 0.822913 0.016055
0.016055 0.822912 0.016055
0.016055 0.822912 0.016055
0.016055 0.822913 0.016055
0.016055 0.822913 0.016055
0.016055 0.822912 0.016055
0.016055 0.822912 0.016055
0.016055 0.822912 0.016055
0.016055 0.822912 0.016055
0.016055 0.822912 0.016055
0.016055 0.822912 0.016055
0.016055 0.822912 0.016055
0.016055 0.822913 0.016055
0.208541 0.822913 0.016055
0.442778 0.822913 0.016055
0.570005 0.822912 0.016055
0.661617 0.822912 0.016055
0.735941 0.822912 0.016055
0.800830 0.822913 0.016055
0.822912 0.788932 0.016055
0.822913 0.729827 0.016055
0.822913 0.670291 0.016055
0.822912 0.607901 0.016055
0.822913 0.541226 0.016055
0.822912 0.467341 0.016055
0.822912 0.381154 0.016055
0.822913 0.273465 0.016055
0.016055 0.822912 0.016055
0.016055 0.822912 0.016055
0.016055 0.822912 0.016055
0.016055 0.822913 0.016055
0.016055 0.822912 0.016055
0.016055 0.822912 0.016055
0.016055 0.822912 0.016055
0.016055 0.822912 0.016055
0.016055 0.822912 0.016055
0.016055 0.822913 0.016055
0.016055 0.822912 0.016055
0.016055 0.822913 0.016055
0.016055 0.822913 0.016055
0.016055 0.822912 0.016055
0.016055 0.822913 0.016055
0.016055 0.822913 0.016055
0.016055 0.822913 0.016055
0.016055 0.822913 0.016055
0.016055 0.822912 0.016055
0.219566 0.822913 0.016055
0.446544 0.822913 0.016055
0.571693 0.822912 0.016055
0.662438 0.822912 0.016055
0.736297 0.822913 0.016055
0.800899 0.822912 0.016055
0.822913 0.789051 0.016055
0.822912 0.730101 0.016055
0.822912 0.670701 0.016055
0.822913 0.608440 0.016055
0.822912 0.541909 0.016055
0.822912 0.468201 0.016055
0.822912 0.382252 0.016055
0.016055 0.822913 0.016055
0.016055 0.822913 0.016055
0.016055 0.822913 0.016055
0.016055 0.822912 0.016055
0.016055 0.822913 0.016055
0.016055 0.822912 0.016055
0.016055 0.822913 0.016055
0.016055 0.822913 0.016055
0.016055 0.822912 0.016055
0.016055 0.822912 0.016055
0.016055 0.822913 0.016055
0.016055 0.822913 0.016055
0.016055 0.822912 0.016055
0.016055 0.822913 0.016055
0.016055 0.822913 0.016055
0.016055 0.822912 0.016055
0.016055 0.822913 0.016055
0.016055 0.822912 0.016055
0.016055 0.822912 0.016055
0.016055 0.822912 0.016055
0.228087 0.822912 0.016055
0.449512 0.822913 0.016055
0.573035 0.822912 0.016055
0.663094 0.822912 0.016055
0.736581 0.822912 0.016055
0.800954 0.822912 0.016055
0.822913 0.789147 0.016055
0.822912 0.730321 0.016055
0.822913 0.671030 0.016055
0.822912 0.608873 0.016055
0.822913 0.542456 0.016055
0.822913 0.468889 0.016055
0.016055 0.822912 0.016055
0.016055 0.822912 0.016055
0.016055 0.822912 0.016055
0.016055 0.822912 0.016055
0.016055 0.822912 0.016055
0.016055 0.822912 0.016055
0.016055 0.822913 0.016055
0.016055 0.822913 0.016055
0.016055 0.822913 0.016055
0.016055 0.822912 0.016055
0.016055 0.822912 0.016055
0.016055 0.822913 0.016055
0.016055 0.822913 0.016055
0.016055 0.822913 0.016055
0.016055 0.822912 0.016055
0.016055 0.822913 0.016055
0.016055 0.822912 0.016055
0.016055 0.822913 0.016055
0.016055 0.822912 0.016055
0.016055 0.822912 0.016055
0.016055 0.822912 0.016055
0.234734 0.822912 0.016055
0.451865 0.822913 0.016055
0.574105 0.822912 0.016055
0.663618 0.822913 0.016055
0.736809 0.822913 0.016055
0.800998 0.822913 0.016055
0.822912 0.789223 0.016055
0.822912 0.730498 0.016055
0.822913 0.671294 0.016055
0.822912 0.609220 0.016055
0.822913 0.542895 0.016055
0.016055 0.822913 0.016055
0.016055 0.822913 0.016055
0.016055 0.822913 0.016055
0.016055 0.822912 0.016055
0.016055 0.822912 0.016055
0.016055 0.822912 0.016055
0.016055 0.822913 0.016055
0.016055 0.822913 0.016055
0.016055 0.822913 0.016055
0.016055 0.822913 0.016055
0.016055 0.822913 0.016055
0.016055 0.822913 0.016055
0.016055 0.822912 0.016055
0.016055 0.822913 0.016055
0.016055 0.822912 0.016055
0.016055 0.822913 0.016055
0.016055 0.822912 0.016055
0.016055 0.822913 0.016055
0.016055 0.822912 0.016055
0.016055 0.822913 0.016055
0.016055 0.822913 0.016055
0.016055 0.822913 0.016055
0.239974 0.822912 0.016055
