luts/Z-Log2/gain +1/zLog2_zRGB-ax2_32_gain1.cube
TITLE "Generated by ZCAM"
LUT_3D_SIZE 8
DOMAIN_MIN 0.000000 0.000000 0.000000
DOMAIN_MAX 0.903226 0.903226 0.903226
0.016055 0.016055 0.016055
0.070126 0.016055 0.016055
0.306542 0.016055 0.016055
0.522558 0.016055 0.016055
0.704683 0.016055 0.016055
0.822913 0.016055 0.118107
0.822913 0.016055 0.187274
0.822913 0.016055 0.212029
0.016055 0.041376 0.016055
0.016055 0.016786 0.016055
0.269756 0.016055 0.016055
0.510561 0.016055 0.016055
0.700349 0.016055 0.016055
0.822913 0.016055 0.058094
0.822913 0.016055 0.170145
0.822913 0.016055 0.205594
0.016055 0.278536 0.016055
0.016055 0.264347 0.016055
0.209774 0.243268 0.016055
0.492246 0.186958 0.016055
0.694013 0.016055 0.016055
0.822913 0.016055 0.016055
0.822913 0.016055 0.144042
0.822913 0.016055 0.196215
0.016055 0.500569 0.016055
0.016055 0.495740 0.016055
0.016055 0.488707 0.016055
0.440347 0.470959 0.016055
0.677999 0.421001 0.016055
0.822913 0.186372 0.016055
0.822913 0.016055 0.067691
0.822912 0.016055 0.172548
0.016055 0.685694 0.016055
0.016055 0.683924 0.016055
0.016055 0.681390 0.016055
0.210660 0.675252 0.016055
0.633133 0.659840 0.016055
0.822913 0.597611 0.016055
0.822912 0.244982 0.016055
0.822913 0.016055 0.107541
0.016055 0.822913 0.016055
0.016055 0.822913 0.016055
0.016055 0.822913 0.016055
0.016055 0.822913 0.016055
0.423766 0.822913 0.016055
0.800502 0.822912 0.016055
0.822912 0.605338 0.016055
0.822912 0.266372 0.016055
0.016055 0.822912 0.016055
0.016055 0.822912 0.016055
0.016055 0.822912 0.016055
0.016055 0.822913 0.016055
0.016055 0.822913 0.016055
0.446544 0.822913 0.016055
0.800899 0.822912 0.016055
0.822913 0.608440 0.016055
0.016055 0.822913 0.016055
0.016055 0.822912 0.016055
0.016055 0.822912 0.016055
0.016055 0.822912 0.016055
0.016055 0.822912 0.016055
0.016055 0.822912 0.016055
0.455227 0.822912 0.016055
0.801062 0.822912 0.016055
0.016055 0.016055 0.036356
0.047413 0.016055 0.047051
0.297272 0.016055 0.063846
0.519451 0.016055 0.100905
0.703546 0.016055 0.167266
0.822913 0.016055 0.243282
0.822912 0.016055 0.234853
0.822912 0.016055 0.231306
0.016055 0.016055 0.016055
0.016055 0.016055 0.016055
0.259287 0.016055 0.016055
0.507254 0.016055 0.021837
0.699181 0.016055 0.106723
0.822913 0.016055 0.208800
0.822913 0.016055 0.220644
0.822913 0.016055 0.225355
0.016055 0.256422 0.016055
0.016055 0.241302 0.016055
0.197023 0.218704 0.016055
0.488613 0.156697 0.016055
0.692797 0.016055 0.016055
0.822912 0.016055 0.150154
0.822913 0.016055 0.198976
0.822913 0.016055 0.216671
0.016055 0.493078 0.016055
0.016055 0.488057 0.016055
0.016055 0.480728 0.016055
0.435559 0.462157 0.016055
0.676662 0.409611 0.016055
0.822913 0.161654 0.016055
0.822912 0.016055 0.139234
0.822913 0.016055 0.194810
0.016055 0.682958 0.016055
0.016055 0.681159 0.016055
0.016055 0.678584 0.016055
0.197950 0.672347 0.016055
0.631416 0.656665 0.016055
0.822913 0.594146 0.016055
0.822913 0.236907 0.016055
0.822913 0.016055 0.134635
0.016055 0.822913 0.016055
0.016055 0.822913 0.016055
0.016055 0.822913 0.016055
0.016055 0.822913 0.016055
0.420224 0.822912 0.016055
0.801040 0.822913 0.016055
0.822912 0.603975 0.016055
0.822913 0.263201 0.016055
0.016055 0.822912 0.016055
0.016055 0.822913 0.016055
0.016055 0.822913 0.016055
0.016055 0.822913 0.016055
0.016055 0.822913 0.016055
0.445298 0.822912 0.016055
0.801122 0.822912 0.016055
0.822912 0.607879 0.016055
0.016055 0.822912 0.016055
0.016055 0.822913 0.016055
0.016055 0.822913 0.016055
0.016055 0.822913 0.016055
0.016055 0.822912 0.016055
0.016055 0.822913 0.016055
0.454737 0.822912 0.016055
0.801155 0.822912 0.016055
0.016055 0.016055 0.277432
0.020915 0.016055 0.282760
0.283537 0.016055 0.290150
0.514974 0.016055 0.306812
0.701926 0.016055 0.342004
0.822913 0.016055 0.361392
0.822913 0.016055 0.291965
0.822912 0.016055 0.256629
0.016055 0.016055 0.236169
0.016055 0.016055 0.242117
0.243947 0.016055 0.250371
0.502483 0.016055 0.269165
0.697514 0.016055 0.309749
0.822913 0.016055 0.340627
0.822913 0.016055 0.280128
0.822913 0.016055 0.251145
0.016055 0.222610 0.166350
0.016055 0.205641 0.173943
0.177978 0.179790 0.184337
0.483356 0.108996 0.207516
0.691062 0.016055 0.255789
0.822912 0.016055 0.306136
0.822913 0.016055 0.262560
0.822912 0.016055 0.243223
0.016055 0.481971 0.016055
0.016055 0.476639 0.016055
0.016055 0.468830 0.016055
0.428591 0.448991 0.016055
0.674756 0.392369 0.069449
0.822912 0.123311 0.196474
0.822913 0.016055 0.216203
0.822912 0.016055 0.223598
0.016055 0.679016 0.016055
0.016055 0.677176 0.016055
0.016055 0.674542 0.016055
0.178967 0.668158 0.016055
0.628963 0.652081 0.016055
0.822913 0.589100 0.016055
0.822913 0.225108 0.051611
0.822913 0.016055 0.169712
0.016055 0.822913 0.016055
0.016055 0.822913 0.016055
0.016055 0.822912 0.016055
0.016055 0.822913 0.016055
0.415039 0.822912 0.016055
0.800891 0.822061 0.016055
0.822913 0.602026 0.016055
0.822913 0.258667 0.016055
0.016055 0.822913 0.016055
0.016055 0.822913 0.016055
0.016055 0.822913 0.016055
0.016055 0.822913 0.016055
0.016055 0.822912 0.016055
0.443512 0.822913 0.016055
0.801438 0.822912 0.016055
0.822913 0.607084 0.016055
0.016055 0.822913 0.016055
0.016055 0.822913 0.016055
0.016055 0.822913 0.016055
0.016055 0.822913 0.016055
0.016055 0.822913 0.016055
0.016055 0.822913 0.016055
0.454040 0.822912 0.016055
0.801288 0.822912 0.016055
0.016055 0.016055 0.501391
0.016055 0.016055 0.503206
0.248738 0.016055 0.505742
0.503964 0.016055 0.511606
0.698029 0.016055 0.524797
0.822913 0.016055 0.509009
0.822913 0.016055 0.390404
0.822913 0.016055 0.310072
0.016055 0.016055 0.487656
0.016055 0.016055 0.489602
0.204495 0.016055 0.492318
0.490731 0.016055 0.498589
0.693504 0.016055 0.512660
0.822913 0.016055 0.500414
0.822912 0.016055 0.383370
0.822912 0.016055 0.305534
0.016055 0.123054 0.466363
0.016055 0.099257 0.468545
0.128004 0.057706 0.471585
0.470307 0.016055 0.478574
0.686891 0.016055 0.494112
0.822912 0.016055 0.487278
0.822913 0.016055 0.372938
0.822912 0.016055 0.298972
0.016055 0.452751 0.404169
0.016055 0.446519 0.407142
0.016055 0.437356 0.411271
0.411129 0.413882 0.420709
0.670167 0.344863 0.441434
0.822913 0.016055 0.450147
0.822912 0.016055 0.345095
0.822913 0.016055 0.282579
0.016055 0.669336 0.095923
0.016055 0.667392 0.105646
0.016055 0.664606 0.118435
0.129139 0.657841 0.146444
0.623034 0.640775 0.204938
0.822912 0.576407 0.294167
0.822913 0.194805 0.254996
0.822913 0.016055 0.239602
0.016055 0.822912 0.016055
0.016055 0.822912 0.016055
0.016055 0.822912 0.016055
0.016055 0.822912 0.016055
0.401833 0.822913 0.016055
0.798782 0.818343 0.016055
0.822912 0.597310 0.016055
0.822913 0.247692 0.097633
0.016055 0.822912 0.016055
0.016055 0.822913 0.016055
0.016055 0.822913 0.016055
0.016055 0.822912 0.016055
0.016055 0.822913 0.016055
0.439170 0.822912 0.016055
0.802193 0.822912 0.016055
0.822912 0.605186 0.016055
0.016055 0.822913 0.016055
0.016055 0.822912 0.016055
0.016055 0.822912 0.016055
0.016055 0.822912 0.016055
0.016055 0.822913 0.016055
0.016055 0.822913 0.016055
0.452376 0.822913 0.016055
0.801602 0.822912 0.016055
0.016055 0.016055 0.687042
0.016055 0.016055 0.687711
0.146966 0.016055 0.688652
0.475170 0.016055 0.690855
0.688423 0.016055 0.695946
0.822913 0.016055 0.668943
0.822912 0.016055 0.522052
0.822913 0.016055 0.401374
0.016055 0.016055 0.682091
0.016055 0.016055 0.682780
0.082184 0.016055 0.683748
0.459653 0.016055 0.686015
0.683624 0.016055 0.691255
0.822912 0.016055 0.666336
0.822912 0.016055 0.518816
0.822913 0.016055 0.398609
0.016055 0.016055 0.674844
0.016055 0.016055 0.675562
0.016055 0.016055 0.676571
0.435360 0.016055 0.678934
0.676607 0.016055 0.684392
0.822912 0.016055 0.662493
0.822912 0.016055 0.514105
0.822913 0.016055 0.394624
0.016055 0.359862 0.656434
0.016055 0.349892 0.657231
0.016055 0.334852 0.658351
0.363047 0.294297 0.660969
0.658822 0.168038 0.667006
0.822913 0.016055 0.652591
0.822913 0.016055 0.502263
0.822913 0.016055 0.384837
0.016055 0.644108 0.603733
0.016055 0.641869 0.604789
0.016055 0.638659 0.606272
0.016055 0.630840 0.609730
0.608238 0.610948 0.617660
0.822913 0.541201 0.623290
0.822913 0.107339 0.469403
0.822913 0.016055 0.359225
0.016055 0.822912 0.324082
0.016055 0.822913 0.329060
0.016055 0.822913 0.335940
0.016055 0.822912 0.351625
0.364091 0.822913 0.385590
0.793626 0.808960 0.439151
0.822913 0.585492 0.340102
0.822913 0.220153 0.276468
0.016055 0.822913 0.016055
0.016055 0.822913 0.016055
0.016055 0.822912 0.016055
0.016055 0.822913 0.016055
0.016055 0.822912 0.016055
0.428185 0.822913 0.016055
0.804015 0.822913 0.016055
0.822912 0.600597 0.016055
0.016055 0.822912 0.016055
0.016055 0.822913 0.016055
0.016055 0.822912 0.016055
0.016055 0.822913 0.016055
0.016055 0.822912 0.016055
0.016055 0.822913 0.016055
0.448338 0.822912 0.016055
0.802351 0.822912 0.016055
0.016055 0.016055 0.822912
0.016055 0.016055 0.822912
0.016055 0.016055 0.822912
0.352690 0.016055 0.822912
0.630911 0.016055 0.822912
0.816337 0.016055 0.822912
0.822913 0.016055 0.673094
0.822913 0.016055 0.527206
0.016055 0.016055 0.822912
0.016055 0.016055 0.822912
0.016055 0.016055 0.822912
0.329655 0.016055 0.822912
0.627311 0.016055 0.822912
0.816307 0.016055 0.822912
0.822913 0.016055 0.672061
0.822913 0.016055 0.525899
0.016055 0.016055 0.822912
0.016055 0.016055 0.822912
0.016055 0.016055 0.822912
0.291015 0.016055 0.822912
0.621967 0.016055 0.822912
0.816264 0.016055 0.822912
0.822913 0.016055 0.670576
0.822913 0.016055 0.524031
0.016055 0.016055 0.822912
0.016055 0.016055 0.822912
0.016055 0.016055 0.822912
0.165644 0.016055 0.822912
0.607987 0.016055 0.822912
0.816156 0.016055 0.822912
0.822913 0.016055 0.666946
0.822913 0.016055 0.519506
0.016055 0.565745 0.822121
0.016055 0.562318 0.822392
0.016055 0.557368 0.822774
0.016055 0.544202 0.822912
0.564274 0.509150 0.822912
0.815867 0.393667 0.822912
0.822913 0.016055 0.657611
0.822913 0.016055 0.508150
0.016055 0.811794 0.777001
0.016055 0.811005 0.777399
0.016055 0.809880 0.777961
0.016055 0.807175 0.779281
0.179959 0.800523 0.782359
0.780512 0.783075 0.789384
0.822913 0.552992 0.630197
0.822912 0.141057 0.476831
0.016055 0.822913 0.364773
0.016055 0.822912 0.366513
0.016055 0.822913 0.368951
0.016055 0.822912 0.374635
0.016055 0.822912 0.387717
0.397346 0.822912 0.417140
0.808546 0.822912 0.479278
0.822912 0.589116 0.356435
0.016055 0.822912 0.016055
0.016055 0.822912 0.016055
0.016055 0.822912 0.016055
0.016055 0.822912 0.016055
0.016055 0.822913 0.016055
0.016055 0.822912 0.016055
0.438148 0.822912 0.016055
0.804160 0.822912 0.016055
0.016055 0.016055 0.822912
0.016055 0.016055 0.822912
0.016055 0.016055 0.822912
0.016055 0.016055 0.822912
0.383487 0.016055 0.822912
0.636279 0.016055 0.822912
0.816315 0.016055 0.822912
0.822913 0.016055 0.674785
0.016055 0.016055 0.822912
0.016055 0.016055 0.822912
0.016055 0.016055 0.822912
0.016055 0.016055 0.822912
0.375859 0.016055 0.822912
0.634864 0.016055 0.822912
0.816302 0.016055 0.822912
0.822913 0.016055 0.674360
0.016055 0.016055 0.822913
0.016055 0.016055 0.822912
0.016055 0.016055 0.822912
0.016055 0.016055 0.822912
0.364428 0.016055 0.822912
0.632824 0.016055 0.822912
0.816285 0.016055 0.822912
0.822912 0.016055 0.673754
0.016055 0.016055 0.822912
0.016055 0.016055 0.822912
0.016055 0.016055 0.822912
0.016055 0.016055 0.822913
0.333443 0.016055 0.822912
0.627809 0.016055 0.822912
0.816242 0.016055 0.822912
0.822913 0.016055 0.672302
0.016055 0.016055 0.822912
0.016055 0.016055 0.822912
0.016055 0.016055 0.822912
0.016055 0.016055 0.822912
0.232074 0.016055 0.822912
0.614735 0.016055 0.822912
0.816135 0.016055 0.822912
0.822913 0.016055 0.668755
0.016055 0.577193 0.822912
0.016055 0.575721 0.822912
0.016055 0.573624 0.822912
0.016055 0.568591 0.822912
0.016055 0.556233 0.822912
0.574451 0.524008 0.822912
0.815849 0.421532 0.822912
0.822912 0.016055 0.659647
0.016055 0.822912 0.790184
0.016055 0.822913 0.790694
0.016055 0.822913 0.791414
0.016055 0.822912 0.793116
0.016055 0.822913 0.797126
0.271227 0.822912 0.806532
0.814908 0.817239 0.822912
0.822913 0.557652 0.632975
0.016055 0.822912 0.379247
0.016055 0.822913 0.379937
0.016055 0.822913 0.380907
0.016055 0.822912 0.383192
0.016055 0.822913 0.388548
0.016055 0.822913 0.400959
0.409696 0.822912 0.428869
0.808655 0.822912 0.488149
0.016055 0.016055 0.822912
0.016055 0.016055 0.822912
0.016055 0.016055 0.822912
0.016055 0.016055 0.822912
0.016055 0.016055 0.822912
0.394975 0.016055 0.822912
0.638452 0.016055 0.822912
0.816306 0.016055 0.822912
0.016055 0.016055 0.822912
0.016055 0.016055 0.822912
0.016055 0.016055 0.822912
0.016055 0.016055 0.822912
0.016055 0.016055 0.822912
0.391985 0.016055 0.822912
0.637871 0.016055 0.822912
0.816301 0.016055 0.822912
0.016055 0.016055 0.822912
0.016055 0.016055 0.822912
0.016055 0.016055 0.822912
0.016055 0.016055 0.822912
0.016055 0.016055 0.822912
0.387672 0.016055 0.822912
0.637043 0.016055 0.822912
0.816293 0.016055 0.822912
0.016055 0.016055 0.822912
0.016055 0.016055 0.822912
0.016055 0.016055 0.822912
0.016055 0.016055 0.822912
0.016055 0.016055 0.822912
0.377059 0.016055 0.822912
0.635055 0.016055 0.822912
0.816275 0.016055 0.822912
0.016055 0.016055 0.822912
0.016055 0.016055 0.822912
0.016055 0.016055 0.822912
0.016055 0.016055 0.822912
0.016055 0.016055 0.822912
0.348741 0.016055 0.822912
0.630170 0.016055 0.822912
0.816232 0.016055 0.822912
0.016055 0.016055 0.822912
0.016055 0.016055 0.822912
0.016055 0.016055 0.822912
0.016055 0.016055 0.822912
0.016055 0.016055 0.822912
0.255603 0.016055 0.822912
0.617453 0.016055 0.822912
0.816126 0.016055 0.822912
0.016055 0.581344 0.822912
0.016055 0.580740 0.822912
0.016055 0.579883 0.822912
0.016055 0.577846 0.822912
0.016055 0.572958 0.822912
0.016055 0.560969 0.822912
0.578485 0.529808 0.822912
0.815842 0.432011 0.822912
0.016055 0.822913 0.790557
0.016055 0.822912 0.790770
0.016055 0.822912 0.791072
0.016055 0.822913 0.791785
0.016055 0.822912 0.793470
0.016055 0.822913 0.797440
0.297276 0.822912 0.806750
0.814908 0.817239 0.822912
