luts/Z-Log2/normal/zLog2_zRGB-ax2_32.cube
TITLE "Generated by ZCAM"
LUT_3D_SIZE 5
DOMAIN_MIN 0.000000 0.000000 0.000000
DOMAIN_MAX 0.903226 0.903226 0.903226
0.016055 0.016055 0.016055
0.210494 0.016055 0.016055
0.572101 0.016055 0.016055
0.856754 0.016055 0.143009
0.976441 0.016055 0.212029
0.016055 0.186101 0.016055
0.128028 0.155789 0.016055
0.557780 0.016531 0.016055
0.854697 0.016055 0.055643
0.976339 0.016055 0.199400
0.016055 0.551586 0.016055
0.016055 0.545864 0.016055
0.495518 0.523919 0.016055
0.846941 0.343107 0.016055
0.975967 0.016055 0.148496
0.016055 0.842938 0.016055
0.016055 0.842069 0.016055
0.016055 0.838904 0.016055
0.800852 0.823111 0.016055
0.974180 0.378060 0.016055
0.016055 0.973260 0.016055
0.016055 0.973215 0.016055
0.016055 0.973053 0.016055
0.016055 0.972302 0.016055
0.962508 0.968401 0.016055
0.016055 0.016055 0.184386
0.190679 0.016055 0.195305
0.568411 0.016055 0.231140
0.856213 0.016055 0.310822
0.976414 0.016055 0.248320
0.016055 0.138258 0.090734
0.102062 0.103163 0.105937
0.553794 0.016055 0.152655
0.854144 0.016055 0.267125
0.976311 0.016055 0.237331
0.016055 0.542696 0.016055
0.016055 0.536697 0.016055
0.489992 0.513614 0.016055
0.846338 0.321201 0.016055
0.975939 0.016055 0.193653
0.016055 0.841596 0.016055
0.016055 0.840716 0.016055
0.016055 0.837505 0.016055
0.799885 0.821436 0.016055
0.974149 0.374320 0.016055
0.016055 0.973191 0.016055
0.016055 0.973145 0.016055
0.016055 0.972982 0.016055
0.016055 0.972228 0.016055
0.962448 0.968308 0.016055
0.016055 0.016055 0.552767
0.107659 0.016055 0.554903
0.554614 0.016055 0.562336
0.854257 0.016055 0.551841
0.976317 0.016055 0.351275
0.016055 0.016055 0.536445
0.016055 0.016055 0.538772
0.538837 0.016055 0.546855
0.852140 0.016055 0.541586
0.976214 0.016055 0.344108
0.016055 0.507112 0.463368
0.016055 0.499877 0.466768
0.468823 0.471588 0.478424
0.844154 0.221053 0.496294
0.975839 0.016055 0.315727
0.016055 0.836650 0.016055
0.016055 0.835722 0.016055
0.016055 0.832331 0.016055
0.796357 0.815197 0.016055
0.974038 0.360267 0.115357
0.016055 0.972940 0.016055
0.016055 0.972894 0.016055
0.016055 0.972728 0.016055
0.016055 0.971962 0.016055
0.962233 0.967972 0.016055
0.016055 0.016055 0.844162
0.016055 0.016055 0.844489
0.446624 0.016055 0.845649
0.844874 0.016055 0.850705
0.975872 0.016055 0.562609
0.016055 0.016055 0.841747
0.016055 0.016055 0.842082
0.425492 0.016055 0.843270
0.842531 0.016055 0.848451
0.975766 0.016055 0.560598
0.016055 0.118836 0.832596
0.016055 0.081873 0.832966
0.314137 0.016055 0.834273
0.833675 0.016055 0.839938
0.975380 0.016055 0.553124
0.016055 0.810249 0.775642
0.016055 0.809014 0.776260
0.016055 0.804494 0.778449
0.779055 0.781622 0.787945
0.973529 0.278704 0.512367
0.016055 0.971759 0.016055
0.016055 0.971710 0.016055
0.016055 0.971532 0.016055
0.016055 0.970703 0.016055
0.961237 0.966378 0.016055
0.016055 0.016055 0.973568
0.016055 0.016055 0.973585
0.016055 0.016055 0.973645
0.466885 0.016055 0.973915
0.973705 0.016055 0.975085
0.016055 0.016055 0.973444
0.016055 0.016055 0.973461
0.016055 0.016055 0.973522
0.463030 0.016055 0.973794
0.973585 0.016055 0.974970
0.016055 0.016055 0.972993
0.016055 0.016055 0.973011
0.016055 0.016055 0.973073
0.448358 0.016055 0.973352
0.973148 0.016055 0.974556
0.016055 0.204040 0.970792
0.016055 0.198373 0.970813
0.016055 0.177228 0.970884
0.356874 0.056147 0.971204
0.971023 0.016055 0.972567
0.016055 0.965087 0.955165
0.016055 0.965015 0.955208
0.016055 0.964754 0.955360
0.016055 0.963530 0.956035
0.956148 0.956947 0.958875
