luts/Z-Log2/normal/zLog2_zRGB-ax2_32_desatuation.cube
TITLE "Generated by ZCAM"
LUT_3D_SIZE 5
DOMAIN_MIN 0.000000 0.000000 0.000000
DOMAIN_MAX 0.903226 0.903226 0.903226
0.016055 0.016055 0.016055
0.163727 0.022751 0.022751
0.534065 -0.087547 -0.087547
0.830996 0.030990 0.030990
0.970403 0.255283 0.523748
0.024452 0.149759 0.024452
0.120056 0.133328 0.025829
0.525444 -0.030938 -0.085823
0.829644 0.029133 0.029133
0.970329 0.255147 0.508433
-0.085094 0.521801 -0.085094
-0.084430 0.518480 -0.084430
0.488092 0.506138 -0.081962
0.824638 0.440927 0.022306
0.970062 0.254656 0.436959
0.018881 0.822104 0.018881
0.018146 0.821557 0.018146
0.146090 0.819580 0.015493
0.797965 0.810143 0.003009
0.968808 0.808076 0.252350
0.251197 0.968179 0.251197
0.251141 0.968149 0.251141
0.250941 0.968040 0.250941
0.628388 0.967539 0.250023
0.962601 0.965098 0.245561
0.024550 0.024550 0.148804
0.152473 0.023877 0.154945
0.531818 -0.087098 0.104930
0.830640 0.030500 0.266077
0.970384 0.255247 0.585826
0.026303 0.124170 0.102568
0.105950 0.106424 0.107628
0.523094 -0.070933 0.053397
0.829283 0.028637 0.231866
0.970310 0.255111 0.575752
-0.084066 0.516660 -0.084066
-0.083384 0.513249 -0.083384
0.485839 0.500560 -0.080846
0.824255 0.432724 0.059514
0.970042 0.254619 0.533143
0.017747 0.821261 0.017747
0.017006 0.820709 0.017006
0.133179 0.818713 0.014334
0.797459 0.809192 0.001768
0.968786 0.806991 0.252311
0.251111 0.968132 0.251111
0.251055 0.968102 0.251055
0.250854 0.967992 0.250854
0.626495 0.967490 0.249934
0.962564 0.965042 0.245460
-0.085232 -0.085232 0.522491
0.025438 -0.085483 0.523746
0.522659 -0.086366 0.528158
0.829357 0.028738 0.551268
0.970314 0.255119 0.702956
-0.083355 -0.083355 0.513107
-0.045346 -0.083619 0.514423
0.513542 -0.084544 0.519052
0.827979 0.026852 0.542467
0.970239 0.254982 0.698607
-0.080157 0.497113 0.470982
-0.079402 0.493341 0.473659
0.476989 0.478573 0.482545
0.822871 0.400519 0.507441
0.969971 0.254487 0.681892
0.013630 0.818186 0.046047
0.012871 0.817616 0.054493
0.081562 0.815555 0.084221
0.795646 0.805731 0.177362
0.968710 0.803056 0.565217
0.250801 0.967963 0.250801
0.250744 0.967933 0.250744
0.250542 0.967822 0.250542
0.619534 0.967315 0.249614
0.962430 0.964842 0.245095
0.019922 0.019922 0.822876
0.020201 0.020201 0.823083
0.483555 0.021194 0.823817
0.823370 0.025585 0.827051
0.969994 0.254531 0.872719
0.017874 0.017874 0.821355
0.018157 0.018157 0.821566
0.471313 0.019163 0.822313
0.821883 0.023614 0.825602
0.969918 0.254391 0.871747
0.010343 0.368292 0.815714
0.010639 0.361287 0.815938
0.420371 0.333712 0.816731
0.816369 0.147604 0.820224
0.969644 0.253887 0.868169
-0.006158 0.803065 0.785385
-0.006998 0.802410 0.785684
-0.010023 0.800042 0.786762
0.787276 0.788549 0.791730
0.968362 0.783852 0.849319
0.249372 0.967183 0.559143
0.249313 0.967151 0.560660
0.249102 0.967036 0.565951
0.583419 0.966507 0.587603
0.961818 0.963910 0.656945
0.251580 0.251580 0.968388
0.251602 0.251602 0.968400
0.251677 0.251677 0.968441
0.834566 0.252016 0.968626
0.968720 0.253505 0.969436
0.251425 0.251425 0.968304
0.251447 0.251447 0.968315
0.251523 0.251523 0.968357
0.833008 0.251863 0.968542
0.968638 0.253358 0.969356
0.250867 0.250867 0.967999
0.250889 0.250889 0.968011
0.250966 0.250966 0.968053
0.827252 0.251311 0.968242
0.968343 0.252828 0.969068
0.248237 0.766550 0.966563
0.248260 0.765628 0.966576
0.248344 0.762276 0.966621
0.797245 0.745936 0.966825
0.966957 0.629480 0.967714
0.242075 0.963182 0.959460
0.242002 0.963142 0.959465
0.241741 0.962999 0.959481
0.240543 0.962339 0.959550
0.959030 0.959309 0.960002
