luts/Z-Log2/normal/zLog2_zRGB-ax2_32.cube
TITLE "Generated by ZCAM"
LUT_3D_SIZE 8
DOMAIN_MIN 0.000000 0.000000 0.000000
DOMAIN_MAX 0.903226 0.903226 0.903226
0.016055 0.016055 0.016055
0.057226 0.016055 0.016055
0.264636 0.016055 0.016055
0.477591 0.016055 0.016055
0.661231 0.016055 0.016055
0.824269 0.016055 0.118107
0.929284 0.016055 0.187273
0.976441 0.016055 0.212029
0.016055 0.035637 0.016055
0.016055 0.016635 0.016055
0.231839 0.016055 0.016055
0.465545 0.016055 0.016055
0.656786 0.016055 0.016055
0.822760 0.016055 0.058048
0.928963 0.016055 0.170145
0.976388 0.016055 0.205594
0.016055 0.239591 0.016055
0.016055 0.227056 0.016055
0.178321 0.208276 0.016055
0.447111 0.158251 0.016055
0.650312 0.016055 0.016055
0.820583 0.016055 0.016055
0.928504 0.016055 0.144042
0.976313 0.016055 0.196215
0.016055 0.455491 0.016055
0.016055 0.450628 0.016055
0.016055 0.443548 0.016055
0.395292 0.425718 0.016055
0.634049 0.376318 0.016055
0.815229 0.180208 0.016055
0.927399 0.016055 0.067691
0.976135 0.016055 0.172548
0.016055 0.641851 0.016055
0.016055 0.640054 0.016055
0.016055 0.637485 0.016055
0.179107 0.631266 0.016055
0.588821 0.615690 0.016055
0.801378 0.572725 0.016055
0.924665 0.244982 0.016055
0.975705 0.016055 0.107541
0.016055 0.808235 0.016055
0.016055 0.807588 0.016055
0.016055 0.806668 0.016055
0.016055 0.804465 0.016055
0.396078 0.799091 0.016055
0.760688 0.785270 0.016055
0.917450 0.605338 0.016055
0.974641 0.266372 0.016055
0.016055 0.921090 0.016055
0.016055 0.920948 0.016055
0.016055 0.920746 0.016055
0.016055 0.920266 0.016055
0.016055 0.919112 0.016055
0.446543 0.916258 0.016055
0.894451 0.908723 0.016055
0.971841 0.608440 0.016055
0.016055 0.973260 0.016055
0.016055 0.973237 0.016055
0.016055 0.973204 0.016055
0.016055 0.973126 0.016055
0.016055 0.972940 0.016055
0.016055 0.972492 0.016055
0.455227 0.971381 0.016055
0.962508 0.968401 0.016055
0.016055 0.016055 0.031828
0.040099 0.016055 0.039841
0.256228 0.016055 0.052524
0.474475 0.016055 0.083957
0.660064 0.016055 0.141330
0.823872 0.016055 0.243282
0.929199 0.016055 0.234853
0.976427 0.016055 0.231306
0.016055 0.016055 0.016055
0.016055 0.016055 0.016055
0.222571 0.016055 0.016055
0.462219 0.016055 0.020607
0.655589 0.016055 0.089207
0.822356 0.016055 0.208299
0.928877 0.016055 0.220644
0.976374 0.016055 0.225355
0.016055 0.220023 0.016055
0.016055 0.206512 0.016055
0.167062 0.186249 0.016055
0.443453 0.132395 0.016055
0.649073 0.016055 0.016055
0.820169 0.016055 0.148298
0.928418 0.016055 0.198976
0.976299 0.016055 0.216671
0.016055 0.447948 0.016055
0.016055 0.442894 0.016055
0.016055 0.435517 0.016055
0.390572 0.416935 0.016055
0.632694 0.365173 0.016055
0.814792 0.155882 0.016055
0.927310 0.016055 0.139234
0.976121 0.016055 0.194810
0.016055 0.639075 0.016055
0.016055 0.637251 0.016055
0.016055 0.634641 0.016055
0.167880 0.628324 0.016055
0.587092 0.612492 0.016055
0.800883 0.568681 0.016055
0.924570 0.236907 0.016055
0.975691 0.016055 0.134635
0.016055 0.807237 0.016055
0.016055 0.806585 0.016055
0.016055 0.805657 0.016055
0.016055 0.803435 0.016055
0.391374 0.798010 0.016055
0.760019 0.784058 0.016055
0.917338 0.603975 0.016055
0.974626 0.263201 0.016055
0.016055 0.920871 0.016055
0.016055 0.920728 0.016055
0.016055 0.920525 0.016055
0.016055 0.920043 0.016055
0.016055 0.918883 0.016055
0.445297 0.916014 0.016055
0.894282 0.908438 0.016055
0.971823 0.607880 0.016055
0.016055 0.973224 0.016055
0.016055 0.973201 0.016055
0.016055 0.973168 0.016055
0.016055 0.973090 0.016055
0.016055 0.972903 0.016055
0.016055 0.972455 0.016055
0.454736 0.971341 0.016055
0.962478 0.968354 0.016055
0.016055 0.016055 0.238617
0.019875 0.016055 0.243315
0.244001 0.016055 0.249861
0.469980 0.016055 0.264882
0.658402 0.016055 0.298010
0.823307 0.016055 0.361392
0.929079 0.016055 0.291965
0.976407 0.016055 0.256629
0.016055 0.016055 0.201898
0.016055 0.016055 0.207244
0.208886 0.016055 0.214632
0.457418 0.016055 0.231318
0.653885 0.016055 0.267561
0.821781 0.016055 0.339271
0.928756 0.016055 0.280128
0.976355 0.016055 0.251145
0.016055 0.189731 0.140549
0.016055 0.174670 0.147018
0.150484 0.152042 0.155975
0.438161 0.091239 0.176325
0.647306 0.016055 0.219460
0.819581 0.016055 0.302257
0.928295 0.016055 0.262560
0.976280 0.016055 0.243223
0.016055 0.436768 0.016055
0.016055 0.431409 0.016055
0.016055 0.423590 0.016055
0.383734 0.403850 0.016055
0.630763 0.348125 0.056722
0.814170 0.118569 0.189194
0.927183 0.016055 0.216203
0.976101 0.016055 0.223599
0.016055 0.635079 0.016055
0.016055 0.633214 0.016055
0.016055 0.630547 0.016055
0.151336 0.624087 0.016055
0.584621 0.607880 0.016055
0.800179 0.562814 0.016055
0.924436 0.225108 0.051611
0.975670 0.016055 0.169712
0.016055 0.805812 0.016055
0.016055 0.805152 0.016055
0.016055 0.804213 0.016055
0.016055 0.801964 0.016055
0.384559 0.796463 0.016055
0.759070 0.782328 0.016055
0.917180 0.602026 0.016055
0.974604 0.258666 0.016055
0.016055 0.920559 0.016055
0.016055 0.920416 0.016055
0.016055 0.920212 0.016055
0.016055 0.919726 0.016055
0.016055 0.918557 0.016055
0.443512 0.915667 0.016055
0.894041 0.908032 0.016055
0.971797 0.607084 0.016055
0.016055 0.973173 0.016055
0.016055 0.973150 0.016055
0.016055 0.973117 0.016055
0.016055 0.973039 0.016055
0.016055 0.972852 0.016055
0.016055 0.972401 0.016055
0.454040 0.971284 0.016055
0.962434 0.968286 0.016055
0.016055 0.016055 0.456319
0.016055 0.016055 0.458146
0.213172 0.016055 0.460698
0.458909 0.016055 0.466596
0.654411 0.016055 0.479834
0.821959 0.016055 0.507851
0.928793 0.016055 0.390404
0.976361 0.016055 0.310072
0.016055 0.016055 0.442490
0.016055 0.016055 0.444449
0.173655 0.016055 0.447183
0.445585 0.016055 0.453497
0.649793 0.016055 0.467655
0.820410 0.016055 0.497387
0.928468 0.016055 0.383370
0.976308 0.016055 0.305534
0.016055 0.103717 0.421127
0.016055 0.082478 0.423304
0.108044 0.047658 0.426344
0.425066 0.016055 0.433352
0.643065 0.016055 0.448989
0.818176 0.016055 0.481575
0.928003 0.016055 0.372938
0.976232 0.016055 0.298972
0.016055 0.407584 0.359821
0.016055 0.401398 0.362750
0.016055 0.392342 0.366802
0.366662 0.369358 0.376032
0.626119 0.300787 0.396366
0.812686 0.016055 0.437903
0.926883 0.016055 0.345095
0.976053 0.016055 0.282579
0.016055 0.625278 0.079461
0.016055 0.623311 0.088227
0.016055 0.620497 0.099653
0.109029 0.613676 0.123776
0.578647 0.596510 0.174048
0.798497 0.548175 0.267929
0.924117 0.194805 0.254996
0.975621 0.016055 0.239602
0.016055 0.802376 0.016055
0.016055 0.801696 0.016055
0.016055 0.800730 0.016055
0.016055 0.798410 0.016055
0.367559 0.792719 0.016055
0.756807 0.778162 0.016055
0.916805 0.597310 0.016055
0.974552 0.247692 0.097633
0.016055 0.919815 0.016055
0.016055 0.919668 0.016055
0.016055 0.919461 0.016055
0.016055 0.918967 0.016055
0.016055 0.917778 0.016055
0.439170 0.914836 0.016055
0.893469 0.907062 0.016055
0.971735 0.605186 0.016055
0.016055 0.973053 0.016055
0.016055 0.973029 0.016055
0.016055 0.972996 0.016055
0.016055 0.972917 0.016055
0.016055 0.972729 0.016055
0.016055 0.972275 0.016055
0.452376 0.971148 0.016055
0.962330 0.968124 0.016055
0.016055 0.016055 0.643219
0.016055 0.016055 0.643899
0.124215 0.016055 0.644855
0.429936 0.016055 0.647095
0.644622 0.016055 0.652284
0.818690 0.016055 0.663985
0.928110 0.016055 0.522052
0.976250 0.016055 0.401374
0.016055 0.016055 0.638196
0.016055 0.016055 0.638894
0.067182 0.016055 0.639876
0.414444 0.016055 0.642177
0.639750 0.016055 0.647502
0.817086 0.016055 0.659508
0.927779 0.016055 0.518816
0.976196 0.016055 0.398609
0.016055 0.016055 0.630853
0.016055 0.016055 0.631580
0.016055 0.016055 0.632602
0.390376 0.016055 0.634996
0.632638 0.016055 0.640530
0.814773 0.016055 0.652983
0.927306 0.016055 0.514105
0.976120 0.016055 0.394624
0.016055 0.315539 0.612259
0.016055 0.305685 0.613062
0.016055 0.291095 0.614189
0.318721 0.253560 0.616828
0.614664 0.141983 0.622922
0.809095 0.016055 0.636578
0.926167 0.016055 0.502263
0.975940 0.016055 0.384837
0.016055 0.599863 0.559160
0.016055 0.597611 0.560228
0.016055 0.594381 0.561726
0.016055 0.586512 0.565220
0.563713 0.566451 0.573227
0.794414 0.508331 0.590874
0.923354 0.107339 0.469403
0.975504 0.016055 0.359225
0.016055 0.793812 0.291548
0.016055 0.793077 0.295594
0.016055 0.792031 0.301192
0.016055 0.789522 0.313951
0.319877 0.783397 0.341469
0.751353 0.767832 0.394112
0.915905 0.585492 0.340102
0.974428 0.220152 0.276468
0.016055 0.918004 0.016055
0.016055 0.917852 0.016055
0.016055 0.917636 0.016055
0.016055 0.917121 0.016055
0.016055 0.915881 0.016055
0.428185 0.912809 0.016055
0.892098 0.904699 0.016055
0.971589 0.600597 0.016055
0.016055 0.972764 0.016055
0.016055 0.972740 0.016055
0.016055 0.972706 0.016055
0.016055 0.972626 0.016055
0.016055 0.972434 0.016055
0.016055 0.971972 0.016055
0.448337 0.970822 0.016055
0.962083 0.967736 0.016055
0.016055 0.016055 0.809628
0.016055 0.016055 0.809873
0.016055 0.016055 0.810216
0.338768 0.016055 0.811025
0.619194 0.016055 0.812911
0.810503 0.016055 0.817235
0.926446 0.016055 0.673094
0.975984 0.016055 0.527206
0.016055 0.016055 0.807836
0.016055 0.016055 0.808084
0.016055 0.016055 0.808434
0.313770 0.016055 0.809255
0.613598 0.016055 0.811172
0.808766 0.016055 0.815569
0.926102 0.016055 0.672061
0.975929 0.016055 0.525899
0.016055 0.016055 0.805255
0.016055 0.016055 0.805508
0.016055 0.016055 0.805866
0.273294 0.016055 0.806706
0.605399 0.016055 0.808666
0.806263 0.016055 0.813166
0.925610 0.016055 0.670576
0.975852 0.016055 0.524031
0.016055 0.016055 0.798920
0.016055 0.016055 0.799188
0.016055 0.016055 0.799566
0.150175 0.016055 0.800452
0.584451 0.016055 0.802518
0.800131 0.016055 0.807263
0.924426 0.016055 0.666946
0.975669 0.016055 0.519506
0.016055 0.520868 0.782396
0.016055 0.517425 0.782702
0.016055 0.512454 0.783134
0.016055 0.500177 0.784149
0.522868 0.467624 0.786518
0.784173 0.358680 0.791957
0.921498 0.016055 0.657611
0.975226 0.016055 0.508150
0.016055 0.770937 0.734254
0.016055 0.770071 0.734660
0.016055 0.768838 0.735233
0.016055 0.765884 0.736579
0.152188 0.758673 0.739723
0.737835 0.740455 0.746943
0.913705 0.552992 0.630197
0.974132 0.141054 0.476831
0.016055 0.913411 0.364773
0.016055 0.913243 0.366513
0.016055 0.913004 0.368951
0.016055 0.912434 0.374635
0.016055 0.911061 0.387717
0.397346 0.907662 0.417140
0.888741 0.898711 0.479278
0.971237 0.589116 0.356435
0.016055 0.972061 0.016055
0.016055 0.972036 0.016055
0.016055 0.972001 0.016055
0.016055 0.971917 0.016055
0.016055 0.971716 0.016055
0.016055 0.971232 0.016055
0.438146 0.970022 0.016055
0.961489 0.966787 0.016055
0.016055 0.016055 0.921863
0.016055 0.016055 0.921917
0.016055 0.016055 0.921992
0.016055 0.016055 0.922170
0.383487 0.016055 0.922587
0.636279 0.016055 0.923557
0.922247 0.016055 0.925769
0.975337 0.016055 0.674785
0.016055 0.016055 0.921472
0.016055 0.016055 0.921526
0.016055 0.016055 0.921602
0.016055 0.016055 0.921781
0.375859 0.016055 0.922202
0.634864 0.016055 0.923181
0.921868 0.016055 0.925411
0.975281 0.016055 0.674360
0.016055 0.016055 0.920914
0.016055 0.016055 0.920968
0.016055 0.016055 0.921045
0.016055 0.016055 0.921227
0.364428 0.016055 0.921653
0.632824 0.016055 0.922644
0.921327 0.016055 0.924900
0.975200 0.016055 0.673754
0.016055 0.016055 0.919566
0.016055 0.016055 0.919622
0.016055 0.016055 0.919702
0.016055 0.016055 0.919889
0.333443 0.016055 0.920328
0.627809 0.016055 0.921348
0.920023 0.016055 0.923670
0.975009 0.016055 0.672302
0.016055 0.016055 0.916210
0.016055 0.016055 0.916270
0.016055 0.016055 0.916356
0.016055 0.016055 0.916557
0.232075 0.016055 0.917030
0.614735 0.016055 0.918127
0.916779 0.016055 0.920618
0.974548 0.016055 0.668755
0.016055 0.577193 0.907166
0.016055 0.575721 0.907239
0.016055 0.573624 0.907342
0.016055 0.568591 0.907584
0.016055 0.556233 0.908151
0.574451 0.524008 0.909470
0.908070 0.421531 0.912457
0.973412 0.016055 0.659647
0.016055 0.900535 0.877898
0.016055 0.900322 0.878011
0.016055 0.900020 0.878172
0.016055 0.899301 0.878549
0.016055 0.897566 0.879433
0.271228 0.893264 0.881481
0.880107 0.881853 0.886104
0.970373 0.557652 0.632975
0.016055 0.970262 0.379247
0.016055 0.970234 0.379937
0.016055 0.970194 0.380907
0.016055 0.970100 0.383192
0.016055 0.969873 0.388547
0.016055 0.969328 0.400959
0.409696 0.967976 0.428869
0.960019 0.964325 0.488149
0.016055 0.016055 0.973568
0.016055 0.016055 0.973577
0.016055 0.016055 0.973589
0.016055 0.016055 0.973618
0.016055 0.016055 0.973687
0.394975 0.016055 0.973849
0.638452 0.016055 0.974225
0.973705 0.016055 0.975085
0.016055 0.016055 0.973504
0.016055 0.016055 0.973513
0.016055 0.016055 0.973525
0.016055 0.016055 0.973555
0.016055 0.016055 0.973624
0.391986 0.016055 0.973786
0.637871 0.016055 0.974163
0.973643 0.016055 0.975026
0.016055 0.016055 0.973413
0.016055 0.016055 0.973422
0.016055 0.016055 0.973435
0.016055 0.016055 0.973464
0.016055 0.016055 0.973534
0.387673 0.016055 0.973697
0.637043 0.016055 0.974076
0.973555 0.016055 0.974942
0.016055 0.016055 0.973197
0.016055 0.016055 0.973206
0.016055 0.016055 0.973219
0.016055 0.016055 0.973249
0.016055 0.016055 0.973319
0.377060 0.016055 0.973484
0.635056 0.016055 0.973868
0.973346 0.016055 0.974743
0.016055 0.016055 0.972675
0.016055 0.016055 0.972684
0.016055 0.016055 0.972697
0.016055 0.016055 0.972728
0.016055 0.016055 0.972800
0.348741 0.016055 0.972971
0.630170 0.016055 0.973366
0.972840 0.016055 0.974265
0.016055 0.016055 0.971369
0.016055 0.016055 0.971379
0.016055 0.016055 0.971393
0.016055 0.016055 0.971427
0.016055 0.016055 0.971506
0.255604 0.016055 0.971690
0.617453 0.016055 0.972117
0.971579 0.016055 0.973083
0.016055 0.581344 0.967789
0.016055 0.580740 0.967802
0.016055 0.579883 0.967819
0.016055 0.577846 0.967860
0.016055 0.572958 0.967957
0.016055 0.560969 0.968183
0.578485 0.529808 0.968707
0.968134 0.432010 0.969893
0.016055 0.965087 0.955165
0.016055 0.965050 0.955187
0.016055 0.964997 0.955218
0.016055 0.964872 0.955292
0.016055 0.964572 0.955465
0.016055 0.963842 0.955869
0.297275 0.962001 0.956799
0.956148 0.956947 0.958875
