luts/Z-Log2/normal/zLog2_zRGB-ax2_32_desatuation.cube
TITLE "Generated by ZCAM"
LUT_3D_SIZE 8
DOMAIN_MIN 0.000000 0.000000 0.000000
DOMAIN_MAX 0.903226 0.903226 0.903226
0.016055 0.016055 0.016055
0.018953 0.016711 0.016711
0.217334 0.009077 0.009077
0.436213 -0.067977 -0.067977
0.625527 -0.105839 -0.105839
0.794307 -0.017271 -0.017271
0.913742 0.156307 0.273371
0.970403 0.255283 0.523748
0.016055 0.016055 0.016055
0.016055 0.016055 0.016055
0.198543 0.016387 0.016387
0.428844 -0.066503 -0.066503
0.622842 -0.105302 -0.105302
0.793307 -0.018524 -0.018524
0.913514 0.155929 0.253156
0.970365 0.255213 0.516073
0.014955 0.202944 0.014955
0.016988 0.195851 0.016988
0.169979 0.185513 0.019124
0.417961 0.107849 -0.064326
0.618981 -0.018178 -0.104530
0.791879 -0.020306 -0.020306
0.913189 0.155393 0.221372
0.970311 0.255114 0.504408
-0.065304 0.422851 -0.065304
-0.064734 0.420002 -0.064734
0.023070 0.415911 -0.063916
0.386495 0.405901 -0.061914
0.609533 0.334343 -0.102641
0.788438 0.276207 -0.024574
0.912413 0.154113 0.154113
0.970183 0.254878 0.472509
-0.103538 0.614020 -0.103538
-0.103330 0.612979 -0.103330
-0.103034 0.611499 -0.103034
0.240134 0.607954 -0.102325
0.582268 0.599303 -0.100595
0.779946 0.563527 -0.034940
0.910528 0.571121 0.151014
0.969875 0.287770 0.369524
-0.029922 0.784082 -0.029922
-0.030404 0.783686 -0.030404
-0.031087 0.783126 -0.031087
-0.032706 0.781793 -0.032706
0.491648 0.778597 -0.036565
0.756651 0.770772 -0.045868
0.905785 0.772700 0.143264
0.969127 0.760455 0.252937
0.147093 0.908134 0.147093
0.146940 0.908041 0.146940
0.146724 0.907908 0.146724
0.146212 0.907595 0.146212
0.144991 0.906846 0.144991
0.721113 0.905036 0.142047
0.893815 0.900524 0.134757
0.967237 0.907716 0.249469
0.251197 0.968179 0.251197
0.251168 0.968164 0.251168
0.251127 0.968141 0.251127
0.251031 0.968089 0.251031
0.250801 0.967964 0.250801
0.250254 0.967665 0.250254
0.876481 0.966938 0.248924
0.962601 0.965098 0.245561
0.016055 0.016055 0.016055
0.016055 0.016055 0.016055
0.212475 0.011154 0.012436
0.434287 -0.067591 -0.051896
0.624819 -0.105698 -0.048591
0.794042 -0.017603 0.108134
0.913682 0.156207 0.359061
0.970393 0.255265 0.558832
0.016055 0.016055 0.016055
0.016055 0.016055 0.016055
0.193349 0.017529 0.017529
0.426846 -0.066103 -0.066103
0.622124 -0.105159 -0.086646
0.793040 -0.018857 0.081109
0.913453 0.155829 0.344599
0.970355 0.255195 0.552703
0.017828 0.191937 0.017828
0.019308 0.184556 0.019308
0.164273 0.173805 0.021220
0.415856 0.093055 -0.063905
0.618248 -0.039905 -0.104384
0.791609 -0.020642 0.034821
0.913128 0.155292 0.322797
0.970301 0.255095 0.543605
-0.064423 0.418446 -0.064423
-0.063841 0.415536 -0.063841
0.014111 0.411352 -0.063004
0.384565 0.401114 -0.060957
0.608763 0.328040 -0.102487
0.788161 0.267597 -0.024916
0.912351 0.154011 0.262029
0.970173 0.254859 0.519874
-0.103217 0.612414 -0.103217
-0.103007 0.611364 -0.103007
-0.102708 0.609871 -0.102708
0.236008 0.606296 -0.101993
0.581559 0.597565 -0.100247
0.779652 0.561351 -0.035294
0.910464 0.568700 0.150908
0.969865 0.273866 0.442651
-0.030666 0.783472 -0.030666
-0.031149 0.783075 -0.031149
-0.031833 0.782512 -0.031833
-0.033457 0.781173 -0.033457
0.490010 0.777965 -0.037323
0.756324 0.770104 -0.046652
0.905714 0.772029 0.143149
0.969116 0.759663 0.252917
0.146858 0.907990 0.146858
0.146705 0.907897 0.146705
0.146488 0.907764 0.146488
0.145975 0.907449 0.145975
0.144751 0.906699 0.144751
0.720615 0.904884 0.141800
0.893715 0.900360 0.134493
0.967225 0.907562 0.249447
0.251153 0.968155 0.251153
0.251124 0.968139 0.251124
0.251083 0.968117 0.251083
0.250986 0.968064 0.250986
0.250756 0.967939 0.250756
0.250208 0.967640 0.250208
0.876353 0.966913 0.248877
0.962582 0.965069 0.245509
0.015165 0.015165 0.202389
0.014138 0.014138 0.205070
0.205403 0.012656 0.208817
0.431533 -0.067041 0.174665
0.623815 -0.105497 0.159493
0.793668 -0.018071 0.256111
0.913596 0.156066 0.444686
0.970379 0.255239 0.597761
0.019775 0.019775 0.182075
0.019232 0.019232 0.184952
0.185886 0.018439 0.188971
0.423989 -0.065532 0.153099
0.621105 -0.104955 0.138618
0.792663 -0.019329 0.238822
0.913367 0.155687 0.434984
0.970341 0.255168 0.593062
0.020917 0.175626 0.151569
0.022160 0.167816 0.154532
0.155820 0.156552 0.158399
0.412844 0.071319 0.119833
0.617208 -0.071825 0.106509
0.791227 -0.021118 0.212977
0.913041 0.155150 0.420260
0.970287 0.255069 0.586149
-0.063145 0.412057 -0.013206
-0.062545 0.409053 -0.006937
0.000405 0.404733 0.002301
0.381827 0.394160 0.022859
0.607670 0.318819 0.016880
0.787769 0.254949 0.142446
0.912263 0.153866 0.380041
0.970158 0.254832 0.568401
-0.102758 0.610121 -0.102758
-0.102546 0.609059 -0.102546
-0.102243 0.607547 -0.102243
0.230055 0.603927 -0.101519
0.580555 0.595081 -0.099750
0.779236 0.558235 -0.035795
0.910372 0.565219 0.250355
0.969850 0.257494 0.516099
-0.031719 0.782606 -0.031719
-0.032204 0.782206 -0.032204
-0.032891 0.781640 -0.032891
-0.034519 0.780294 -0.034519
0.487675 0.777069 -0.038397
0.755863 0.769156 -0.047763
0.905615 0.771077 0.142987
0.969101 0.758535 0.252889
0.146524 0.907786 0.146524
0.146371 0.907692 0.146371
0.146154 0.907559 0.146154
0.145638 0.907243 0.145638
0.144411 0.906490 0.144411
0.719909 0.904668 0.141450
0.893574 0.900127 0.134119
0.967208 0.907344 0.249417
0.251090 0.968121 0.251090
0.251061 0.968105 0.251061
0.251020 0.968083 0.251020
0.250923 0.968030 0.250923
0.250693 0.967904 0.250693
0.250143 0.967604 0.250143
0.876171 0.966876 0.248809
0.962555 0.965028 0.245435
-0.065402 -0.065402 0.423339
-0.065618 -0.065618 0.424420
0.140623 -0.065921 0.425937
0.423952 -0.066630 0.429478
0.621419 -0.105018 0.400847
0.792779 -0.019184 0.440278
0.913393 0.155731 0.557870
0.970345 0.255177 0.661705
-0.063795 -0.063795 0.415306
-0.064020 -0.064020 0.416428
0.117155 -0.064335 0.418003
0.416162 -0.065070 0.421680
0.618674 -0.104469 0.392409
0.791766 -0.020447 0.432615
0.913163 0.155351 0.552946
0.970307 0.255106 0.658707
-0.061411 0.079527 0.403387
-0.061649 0.068826 0.404577
0.081256 0.053066 0.406246
0.404624 0.010125 0.410138
0.614726 -0.103679 0.379914
0.790320 -0.022245 0.421304
0.912836 0.154811 0.545732
0.970253 0.255006 0.654361
-0.059958 0.396122 0.367549
-0.059310 0.392882 0.369841
-0.031195 0.388222 0.373077
0.374627 0.376177 0.380069
0.605060 0.295213 0.347324
0.786837 0.223283 0.392018
0.912054 0.153523 0.527308
0.970124 0.254769 0.643539
-0.101652 0.604590 0.204839
-0.101433 0.603496 0.207641
-0.101122 0.601939 0.211578
0.215497 0.598207 0.220793
0.578169 0.589073 0.241889
0.778249 0.550672 0.303009
0.910156 0.556703 0.473988
0.969815 0.254201 0.614261
-0.034223 0.780540 -0.034223
-0.034711 0.780135 -0.034711
-0.035403 0.779562 -0.035403
-0.037043 0.778198 -0.037043
0.482060 0.774931 -0.040947
0.754775 0.766889 -0.050407
0.905378 0.768803 0.220846
0.969065 0.755828 0.506765
0.145732 0.907301 0.145732
0.145578 0.907206 0.145578
0.145359 0.907072 0.145359
0.144840 0.906753 0.144840
0.143602 0.905993 0.143602
0.718227 0.904155 0.140619
0.893241 0.899575 0.133232
0.967168 0.906825 0.249343
0.250941 0.968040 0.250941
0.250911 0.968024 0.250911
0.250870 0.968001 0.250870
0.250773 0.967948 0.250773
0.250542 0.967822 0.250542
0.249990 0.967521 0.249990
0.875739 0.966789 0.248650
0.962490 0.964932 0.245259
-0.103697 -0.103697 0.614816
-0.103776 -0.103776 0.615212
0.048354 -0.103888 0.615770
0.366463 -0.104151 0.617083
0.614731 -0.104764 0.620151
0.790652 -0.021834 0.619211
0.912911 0.154935 0.684697
0.970265 0.255029 0.749182
-0.103115 -0.103115 0.611907
-0.103196 -0.103196 0.612309
0.020417 -0.103309 0.612876
0.356886 -0.103576 0.614209
0.611900 -0.104199 0.617323
0.789621 -0.023112 0.616122
0.912678 0.154551 0.682444
0.970227 0.254959 0.747591
-0.102278 -0.102278 0.607720
-0.102360 -0.102360 0.608132
-0.025781 -0.102476 0.608711
0.342654 -0.102749 0.610073
0.607827 -0.103385 0.613254
0.788150 -0.024930 0.611671
0.912348 0.154007 0.679204
0.970172 0.254858 0.745310
-0.100222 0.303979 0.597439
-0.100309 0.299038 0.597874
-0.100431 0.291878 0.598486
0.305069 0.274096 0.599925
0.597837 0.226611 0.603280
0.784609 0.134279 0.600736
0.911558 0.152706 0.671285
0.970043 0.254620 0.739763
-0.098899 0.590827 0.566514
-0.098663 0.589647 0.567354
-0.098327 0.587967 0.568540
0.178837 0.583933 0.571344
0.571804 0.573375 0.577316
0.775894 0.531582 0.572210
0.909641 0.534655 0.650930
0.969732 0.254049 0.725675
-0.040210 0.775551 0.464381
-0.040706 0.775134 0.465051
-0.041410 0.774542 0.465994
-0.043082 0.773133 0.468205
0.468220 0.769741 0.473335
0.752220 0.761397 0.485031
0.904816 0.763298 0.589846
0.968979 0.749201 0.685479
0.143836 0.906137 0.143836
0.143679 0.906040 0.143679
0.143456 0.905903 0.143456
0.142927 0.905577 0.142927
0.141666 0.904801 0.141666
0.714181 0.902925 0.138628
0.892448 0.898249 0.143432
0.967073 0.905578 0.482213
0.250586 0.967846 0.250586
0.250556 0.967830 0.250556
0.250515 0.967807 0.250515
0.250417 0.967754 0.250417
0.250183 0.967626 0.250183
0.249626 0.967322 0.249626
0.874710 0.966582 0.248271
0.962338 0.964702 0.244840
-0.028876 -0.028876 0.784938
-0.028692 -0.028692 0.785089
-0.028432 -0.028432 0.785301
0.338693 -0.027818 0.785802
0.590998 -0.026375 0.786978
0.785265 -0.022994 0.789716
0.911751 0.153024 0.813665
0.970074 0.254678 0.849630
-0.030220 -0.030220 0.783838
-0.030035 -0.030035 0.783989
-0.029773 -0.029773 0.784203
0.326715 -0.029157 0.784708
0.587493 -0.027706 0.785893
0.784185 -0.024308 0.788654
0.911513 0.152632 0.812727
0.970035 0.254606 0.848940
-0.032129 -0.032129 0.782269
-0.031943 -0.031943 0.782422
-0.031680 -0.031680 0.782638
0.308546 -0.031060 0.783148
0.582430 -0.029599 0.784346
0.782646 -0.026177 0.787138
0.911175 0.152076 0.811389
0.969980 0.254505 0.847955
-0.036685 0.156930 0.778496
-0.036496 0.149327 0.778653
-0.036230 0.138249 0.778875
0.259012 0.110441 0.779397
0.569913 0.032548 0.780625
0.778947 -0.030646 0.783488
0.910366 0.150748 0.808157
0.969849 0.254264 0.845582
-0.047720 0.535235 0.769193
-0.047523 0.533715 0.769360
-0.047246 0.531549 0.769597
0.099689 0.526337 0.770154
0.536781 0.513478 0.771461
0.769839 0.479512 0.774501
0.908403 0.467140 0.800147
0.969535 0.253687 0.839714
-0.054878 0.763023 0.743025
-0.055402 0.762568 0.743265
-0.056143 0.761922 0.743606
-0.057900 0.760385 0.744418
0.431653 0.756701 0.746377
0.745952 0.747351 0.750861
0.903465 0.749492 0.779013
0.968774 0.732096 0.824170
0.139214 0.903288 0.701898
0.139050 0.903186 0.702097
0.138817 0.903042 0.702379
0.138265 0.902700 0.703040
0.136949 0.901885 0.704587
0.704190 0.899916 0.708157
0.890543 0.894997 0.716127
0.966846 0.902519 0.777133
0.249733 0.967380 0.249733
0.249703 0.967364 0.249703
0.249660 0.967341 0.249660
0.249559 0.967286 0.249559
0.249320 0.967155 0.249320
0.248748 0.966843 0.248748
0.872226 0.966082 0.247359
0.961972 0.964146 0.412169
0.147928 0.147928 0.908645
0.147986 0.147986 0.908680
0.148068 0.148068 0.908731
0.298919 0.148261 0.908849
0.613464 0.148716 0.909127
0.793023 0.149782 0.909778
0.909263 0.152256 0.911285
0.969614 0.253832 0.928372
0.147505 0.147505 0.908386
0.147563 0.147563 0.908422
0.147645 0.147645 0.908472
0.281077 0.147839 0.908591
0.610047 0.148296 0.908870
0.791932 0.149367 0.909524
0.909011 0.151852 0.911039
0.969574 0.253758 0.928187
0.146904 0.146904 0.908018
0.146963 0.146963 0.908054
0.147045 0.147045 0.908105
0.253761 0.147240 0.908224
0.605098 0.147700 0.908506
0.790374 0.148778 0.909165
0.908653 0.151278 0.910689
0.969518 0.253654 0.927923
0.145470 0.145470 0.907140
0.145529 0.145529 0.907176
0.145613 0.145613 0.907227
0.171272 0.145811 0.907349
0.592795 0.146277 0.907635
0.786614 0.147371 0.908304
0.907798 0.149907 0.909854
0.969383 0.253407 0.927292
0.141998 0.486203 0.905006
0.142060 0.483726 0.905043
0.142146 0.480162 0.905097
0.142351 0.471437 0.905223
0.559697 0.449027 0.905520
0.777312 0.379681 0.906215
0.905723 0.146588 0.907825
0.969062 0.252818 0.925760
0.133327 0.751886 0.899634
0.133393 0.751430 0.899675
0.133487 0.750783 0.899734
0.133708 0.749246 0.899871
0.441606 0.745553 0.900196
0.753002 0.736490 0.900955
0.900502 0.712461 0.902714
0.968282 0.680659 0.921901
0.127470 0.895972 0.886194
0.127287 0.895857 0.886223
0.127029 0.895695 0.886263
0.126417 0.895310 0.886359
0.124957 0.894392 0.886585
0.677846 0.892168 0.887119
0.886114 0.886834 0.888623
0.966299 0.894575 0.911285
0.247630 0.966231 0.864006
0.247598 0.966213 0.864072
0.247553 0.966188 0.864164
0.247445 0.966130 0.864380
0.247191 0.965991 0.864889
0.246582 0.965657 0.866072
0.866017 0.964844 0.868765
0.961080 0.962765 0.874638
0.251580 0.251580 0.968388
0.251591 0.251591 0.968394
0.251607 0.251607 0.968403
0.251643 0.251643 0.968423
0.550312 0.251729 0.968470
0.794168 0.251932 0.968580
0.918209 0.252407 0.968839
0.968720 0.253505 0.969436
0.251500 0.251500 0.968345
0.251512 0.251512 0.968351
0.251527 0.251527 0.968359
0.251564 0.251564 0.968379
0.544035 0.251650 0.968426
0.793062 0.251853 0.968537
0.917978 0.252329 0.968796
0.968678 0.253429 0.969395
0.251388 0.251388 0.968283
0.251398 0.251398 0.968289
0.251414 0.251414 0.968298
0.251451 0.251451 0.968318
0.534725 0.251537 0.968365
0.791485 0.251741 0.968476
0.917651 0.252218 0.968736
0.968618 0.253322 0.969337
0.251119 0.251119 0.968137
0.251130 0.251130 0.968143
0.251146 0.251146 0.968151
0.251183 0.251183 0.968172
0.510379 0.251270 0.968219
0.787687 0.251475 0.968331
0.916868 0.251956 0.968593
0.968476 0.253067 0.969198
0.250477 0.250477 0.967786
0.250488 0.250488 0.967792
0.250504 0.250504 0.967801
0.250541 0.250541 0.967822
0.431034 0.250630 0.967870
0.778302 0.250839 0.967984
0.914968 0.251328 0.968251
0.968137 0.252458 0.968867
0.248910 0.696602 0.966931
0.248922 0.695800 0.966937
0.248938 0.694659 0.966946
0.248978 0.691926 0.966968
0.249071 0.685245 0.967019
0.753158 0.668020 0.967138
0.910175 0.616293 0.967417
0.967311 0.250978 0.968060
0.244897 0.896349 0.964733
0.244910 0.896234 0.964740
0.244929 0.896072 0.964751
0.244973 0.895687 0.964775
0.245078 0.894765 0.964832
0.664408 0.892527 0.964967
0.896872 0.886881 0.965281
0.965197 0.871146 0.966003
0.242075 0.963182 0.959460
0.242037 0.963162 0.959462
0.241984 0.963132 0.959466
0.241858 0.963063 0.959474
0.241560 0.962899 0.959492
0.240844 0.962505 0.959533
0.848823 0.961544 0.959624
0.959030 0.959309 0.960002
