luts/Z-Log2/normal/zLog2_zRGB-ax2_32_desatuation.cube
TITLE "Generated by ZCAM"
LUT_3D_SIZE 32
0.016055 0.016055 0.016055
0.016055 0.016055 0.016055
0.016055 0.016055 0.016055
0.016055 0.016055 0.016055
0.018953 0.016711 0.016711
0.060334 0.023785 0.023785
0.113102 0.026597 0.026597
0.163727 0.022751 0.022751
0.217334 0.009077 0.009077
0.272567 -0.021174 -0.021174
0.329876 -0.046709 -0.046709
0.384243 -0.057583 -0.057583
0.436213 -0.067977 -0.067977
0.486137 -0.077962 -0.077962
0.534065 -0.087547 -0.087547
0.580515 -0.096837 -0.096837
0.625527 -0.105839 -0.105839
0.669453 -0.114625 -0.114625
0.711986 -0.109229 -0.109229
0.753601 -0.065566 -0.065566
0.794307 -0.017271 -0.017271
0.830996 0.030990 0.030990
0.862654 0.076240 0.110013
0.890276 0.118450 0.196983
0.913742 0.156307 0.273371
0.932707 0.188244 0.343947
0.948036 0.214933 0.408664
0.960720 0.237610 0.469787
0.970403 0.255283 0.523748
0.977778 0.268954 0.571432
0.983424 0.279541 0.614735
0.986994 0.286290 0.653401
0.016055 0.016055 0.016055
0.016055 0.016055 0.016055
0.016055 0.016055 0.016055
0.016055 0.016055 0.016055
0.018953 0.016711 0.016711
0.060334 0.023785 0.023785
0.113102 0.026597 0.026597
0.163727 0.022751 0.022751
0.217334 0.009077 0.009077
0.272567 -0.021174 -0.021174
0.329876 -0.046709 -0.046709
0.384243 -0.057583 -0.057583
0.436213 -0.067977 -0.067977
0.486137 -0.077962 -0.077962
0.534065 -0.087547 -0.087547
0.580515 -0.096837 -0.096837
0.625527 -0.105839 -0.105839
0.669453 -0.114625 -0.114625
0.711986 -0.109229 -0.109229
0.753601 -0.065566 -0.065566
0.794307 -0.017271 -0.017271
0.830996 0.030990 0.030990
0.862654 0.076240 0.110013
0.890276 0.118450 0.196983
0.913742 0.156307 0.273371
0.932707 0.188244 0.343947
0.948036 0.214933 0.408664
0.960720 0.237610 0.469787
0.970403 0.255283 0.523748
0.977778 0.268954 0.571432
0.983424 0.279541 0.614735
0.986994 0.286290 0.653401
0.016055 0.016055 0.016055
0.016055 0.016055 0.016055
0.016055 0.016055 0.016055
0.016055 0.016055 0.016055
0.018953 0.016711 0.016711
0.060334 0.023785 0.023785
0.113102 0.026597 0.026597
0.163727 0.022751 0.022751
0.217334 0.009077 0.009077
0.272567 -0.021174 -0.021174
0.329876 -0.046709 -0.046709
0.384243 -0.057583 -0.057583
0.436213 -0.067977 -0.067977
0.486137 -0.077962 -0.077962
0.534065 -0.087547 -0.087547
0.580515 -0.096837 -0.096837
0.625527 -0.105839 -0.105839
0.669453 -0.114625 -0.114625
0.711986 -0.109229 -0.109229
0.753601 -0.065566 -0.065566
0.794307 -0.017271 -0.017271
0.830996 0.030990 0.030990
0.862654 0.076240 0.110013
0.890276 0.118450 0.196983
0.913742 0.156307 0.273371
0.932707 0.188244 0.343947
0.948036 0.214933 0.408664
0.960720 0.237610 0.469787
0.970403 0.255283 0.523748
0.977778 0.268954 0.571432
0.983424 0.279541 0.614735
0.986994 0.286290 0.653401
0.016055 0.016055 0.016055
0.016055 0.016055 0.016055
0.016055 0.016055 0.016055
0.016055 0.016055 0.016055
0.016055 0.016055 0.016055
0.035010 0.019964 0.019964
0.091392 0.026283 0.026283
0.145843 0.024841 0.024841
0.202411 0.015156 0.015156
0.260100 -0.013279 -0.013279
0.319794 -0.044693 -0.044693
0.376727 -0.056079 -0.056079
0.430343 -0.066803 -0.066803
0.481633 -0.077061 -0.077061
0.530558 -0.086846 -0.086846
0.577779 -0.096290 -0.096290
0.623384 -0.105411 -0.105411
0.667772 -0.114288 -0.114288
0.710681 -0.110505 -0.110505
0.752553 -0.066736 -0.066736
0.793508 -0.018272 -0.018272
0.830441 0.030227 0.030227
0.862262 0.075659 0.086716
0.890003 0.118020 0.175652
0.913559 0.156005 0.257297
0.932590 0.188043 0.330938
0.947958 0.214795 0.398213
0.960669 0.237519 0.461413
0.970373 0.255227 0.517646
0.977759 0.268918 0.566763
0.983414 0.279521 0.611190
0.986988 0.286279 0.650677
0.016055 0.016055 0.016055
0.016055 0.016055 0.016055
0.016055 0.016055 0.016055
0.016055 0.016055 0.016055
0.016055 0.016055 0.016055
0.029453 0.018911 0.018911
0.085374 0.025987 0.025987
0.141227 0.025251 0.025251
0.198543 0.016387 0.016387
0.256899 -0.011353 -0.011353
0.317185 -0.044171 -0.044171
0.374800 -0.055694 -0.055694
0.428844 -0.066503 -0.066503
0.480486 -0.076831 -0.076831
0.529668 -0.086668 -0.086668
0.577086 -0.096151 -0.096151
0.622842 -0.105302 -0.105302
0.667347 -0.114203 -0.114203
0.710352 -0.110825 -0.110825
0.752289 -0.067030 -0.067030
0.793307 -0.018524 -0.018524
0.830302 0.030035 0.030035
0.862163 0.075513 0.081606
0.889935 0.117913 0.169655
0.913514 0.155929 0.253156
0.932561 0.187993 0.327558
0.947938 0.214760 0.395530
0.960657 0.237496 0.459256
0.970365 0.255213 0.516073
0.977754 0.268909 0.565571
0.983411 0.279516 0.610286
0.986987 0.286277 0.649985
0.021882 0.046406 0.021882
0.021882 0.046406 0.021882
0.021882 0.046406 0.021882
0.020419 0.037547 0.020419
0.020045 0.035453 0.020045
0.025015 0.032887 0.019571
0.077477 0.037087 0.025462
0.135427 0.034865 0.025690
0.193674 0.022980 0.017460
0.252891 -0.008530 -0.008998
0.313905 -0.043515 -0.043515
0.372382 -0.055210 -0.055210
0.426970 -0.066128 -0.066128
0.479053 -0.076545 -0.076545
0.528559 -0.086446 -0.086446
0.576223 -0.095979 -0.095979
0.622168 -0.105168 -0.105168
0.666820 -0.114098 -0.114098
0.709944 -0.111223 -0.111223
0.751962 -0.067394 -0.067394
0.793057 -0.018837 -0.018837
0.830128 0.029797 0.029797
0.862041 0.075332 0.075747
0.889850 0.117779 0.161777
0.913457 0.155835 0.247950
0.932524 0.187930 0.323301
0.947913 0.214717 0.392176
0.960641 0.237468 0.456555
0.970356 0.255196 0.514093
0.977748 0.268898 0.564078
0.983408 0.279510 0.609157
0.986985 0.286273 0.649123
0.026540 0.099586 0.026540
0.026540 0.099586 0.026540
0.026540 0.099586 0.026540
0.026277 0.091256 0.026277
0.026180 0.089084 0.026180
0.026040 0.086335 0.026040
0.069327 0.082822 0.025835
0.128142 0.082820 0.026123
0.187512 0.074429 0.018732
0.247860 0.047615 -0.006133
0.309778 0.005353 -0.042690
0.369342 -0.019814 -0.054602
0.424622 -0.045288 -0.065658
0.477262 -0.071779 -0.076186
0.527175 -0.086169 -0.086169
0.575148 -0.095764 -0.095764
0.621330 -0.105000 -0.105000
0.666163 -0.113967 -0.113967
0.709436 -0.111717 -0.111717
0.751555 -0.067847 -0.067847
0.792746 -0.019225 -0.019225
0.829912 0.029501 0.029501
0.861889 0.075107 0.075107
0.889744 0.117612 0.152204
0.913386 0.155718 0.241304
0.932479 0.187852 0.317916
0.947883 0.214664 0.387963
0.960621 0.237432 0.453150
0.970344 0.255174 0.511595
0.977741 0.268884 0.562208
0.983403 0.279502 0.607743
0.986983 0.286269 0.648045
0.024452 0.149759 0.024452
0.024452 0.149759 0.024452
0.024452 0.149759 0.024452
0.025094 0.143065 0.025094
0.025239 0.141371 0.025239
0.025410 0.139253 0.025410
0.060613 0.136616 0.025607
0.120056 0.133328 0.025829
0.179691 0.130506 0.020209
0.241532 0.114300 -0.002674
0.304573 0.080072 -0.041649
0.365501 0.057819 -0.053834
0.421674 0.033332 -0.065069
0.475016 0.004624 -0.075737
0.525444 -0.030938 -0.085823
0.573807 -0.070693 -0.095495
0.620285 -0.104791 -0.104791
0.665346 -0.113803 -0.113803
0.708804 -0.112330 -0.112330
0.751050 -0.068408 -0.068408
0.792360 -0.019707 -0.019707
0.829644 0.029133 0.029133
0.861700 0.074827 0.074827
0.889613 0.117406 0.140679
0.913298 0.155573 0.232759
0.932423 0.187756 0.311066
0.947846 0.214597 0.382642
0.960597 0.237388 0.448834
0.970329 0.255147 0.508433
0.977732 0.268867 0.559855
0.983398 0.279492 0.605971
0.986980 0.286264 0.646699
0.014955 0.202944 0.014955
0.014955 0.202944 0.014955
0.014955 0.202944 0.014955
0.016670 0.197287 0.016670
0.016988 0.195851 0.016988
0.017377 0.194059 0.017377
0.040467 0.191820 0.017852
0.107910 0.189021 0.018429
0.169979 0.185513 0.019124
0.233537 0.177584 0.001468
0.297978 0.151551 -0.039189
0.360616 0.130075 -0.052857
0.417961 0.107849 -0.064326
0.472192 0.083318 -0.075172
0.523278 0.055563 -0.085390
0.572130 0.023007 -0.095160
0.618981 -0.018178 -0.104530
0.664327 -0.075165 -0.113599
0.708018 -0.113091 -0.113091
0.750422 -0.069104 -0.069104
0.791879 -0.020306 -0.020306
0.829311 0.028675 0.028675
0.861465 0.074480 0.074480
0.889449 0.117150 0.128240
0.913189 0.155393 0.221372
0.932353 0.187636 0.302321
0.947799 0.214515 0.375855
0.960567 0.237334 0.443353
0.970311 0.255114 0.504408
0.977720 0.268846 0.556887
0.983392 0.279480 0.603742
0.986977 0.286258 0.645011
-0.011828 0.257695 -0.011828
-0.011828 0.257695 -0.011828
-0.011828 0.257695 -0.011828
-0.009049 0.252980 -0.009049
-0.008361 0.251788 -0.008361
-0.007512 0.250303 -0.007512
0.000993 0.248455 -0.006467
0.076059 0.246151 -0.005183
0.149354 0.243277 -0.003612
0.222007 0.239685 -0.001694
0.289530 0.225448 -0.032914
0.354362 0.204532 -0.051606
0.413264 0.184098 -0.063387
0.468630 0.161947 -0.074460
0.520556 0.137298 -0.084845
0.570030 0.108851 -0.094740
0.617352 0.074916 -0.104204
0.663055 0.033267 -0.113345
0.707037 -0.012796 -0.114037
0.749641 -0.040635 -0.069968
0.791280 -0.021052 -0.021052
0.828896 0.028106 0.028106
0.861173 0.074048 0.074048
0.889247 0.116831 0.116831
0.913053 0.155169 0.205493
0.932266 0.187487 0.291140
0.947741 0.214413 0.367119
0.960530 0.237267 0.436388
0.970289 0.255073 0.499259
0.977706 0.268819 0.553126
0.983384 0.279465 0.600927
0.986973 0.286251 0.642890
-0.043718 0.314922 -0.043718
-0.043718 0.314922 -0.043718
-0.043718 0.314922 -0.043718
-0.042938 0.311018 -0.042938
-0.042740 0.310030 -0.042740
-0.042494 0.308798 -0.042494
-0.042187 0.307264 -0.042187
0.019178 0.305352 -0.041804
0.107743 0.302964 -0.041327
0.192059 0.299972 -0.040713
0.275328 0.296205 -0.037849
0.346297 0.280478 -0.049993
0.407284 0.261058 -0.062191
0.464118 0.240546 -0.073558
0.517129 0.218364 -0.084160
0.567392 0.193494 -0.094212
0.615313 0.164806 -0.103797
0.661466 0.130546 -0.113027
0.705814 0.092712 -0.115213
0.748669 0.080372 -0.071041
0.790534 0.060734 -0.021979
0.828378 0.027397 0.027397
0.860810 0.073512 0.073512
0.888994 0.116435 0.116435
0.912884 0.154891 0.183771
0.932158 0.187302 0.276745
0.947669 0.214286 0.355796
0.960483 0.237183 0.427527
0.970261 0.255021 0.492621
0.977689 0.268786 0.548334
0.983374 0.279447 0.597359
0.986968 0.286241 0.640215
-0.054821 0.370436 -0.054821
-0.054821 0.370436 -0.054821
-0.054821 0.370436 -0.054821
-0.054237 0.367517 -0.054237
-0.054090 0.366779 -0.054090
-0.053905 0.365857 -0.053905
-0.053676 0.364708 -0.053676
-0.027768 0.363272 -0.053388
0.070180 0.361477 -0.053029
0.159360 0.359221 -0.052578
0.246515 0.356384 -0.052011
0.332415 0.352805 -0.051295
0.399623 0.337998 -0.060659
0.458371 0.319313 -0.072408
0.512792 0.299544 -0.083292
0.564070 0.277798 -0.093548
0.612754 0.252981 -0.103285
0.659475 0.223811 -0.112629
0.704285 0.191480 -0.116676
0.747457 0.184292 -0.072375
0.789603 0.174940 -0.023134
0.827731 0.153763 0.026514
0.860357 0.100399 0.072844
0.888680 0.115942 0.115942
0.912674 0.154545 0.160862
0.932024 0.187072 0.257494
0.947580 0.214129 0.340927
0.960426 0.237078 0.416114
0.970226 0.254957 0.483955
0.977667 0.268746 0.542192
0.983362 0.279424 0.592809
0.986962 0.286229 0.636826
-0.065304 0.422851 -0.065304
-0.065304 0.422851 -0.065304
-0.065304 0.422851 -0.065304
-0.064849 0.420577 -0.064849
-0.064734 0.420002 -0.064734
-0.064592 0.419288 -0.064592
-0.064414 0.418400 -0.064414
-0.064192 0.417292 -0.064192
0.023070 0.415911 -0.063916
0.120641 0.414185 -0.063571
0.213791 0.412025 -0.063139
0.304532 0.409313 -0.062597
0.386495 0.405901 -0.061914
0.451001 0.391711 -0.070934
0.507278 0.373896 -0.082190
0.559869 0.355011 -0.092708
0.609533 0.334343 -0.102641
0.656976 0.310886 -0.112129
0.702369 0.284518 -0.118498
0.745942 0.280594 -0.074034
0.788438 0.276207 -0.024574
0.826923 0.265887 0.025412
0.859792 0.241749 0.072011
0.888289 0.188522 0.115328
0.912413 0.154113 0.154113
0.931857 0.186786 0.228580
0.947469 0.213933 0.321123
0.960354 0.236949 0.401301
0.970183 0.254878 0.472509
0.977640 0.268695 0.534258
0.983347 0.279396 0.586958
0.986954 0.286215 0.632511
-0.075416 0.473411 -0.075416
-0.075416 0.473411 -0.075416
-0.075416 0.473411 -0.075416
-0.075065 0.471655 -0.075065
-0.074976 0.471212 -0.074976
-0.074866 0.470662 -0.074866
-0.074729 0.469977 -0.074729
-0.074559 0.469124 -0.074559
-0.042311 0.468061 -0.074346
0.072804 0.466735 -0.074081
0.174795 0.465078 -0.073750
0.271603 0.463002 -0.073334
0.360125 0.460398 -0.072814
0.438333 0.457119 -0.072158
0.500218 0.443528 -0.080778
0.554525 0.426354 -0.091639
0.605463 0.408098 -0.101826
0.653828 0.388015 -0.111500
0.699961 0.365229 -0.120726
0.744047 0.363317 -0.076100
0.786980 0.363930 -0.026371
0.825911 0.362732 0.024033
0.859086 0.351904 0.070973
0.887800 0.324172 0.114563
0.912086 0.265891 0.153575
0.931649 0.186430 0.192695
0.947331 0.213689 0.294622
0.960265 0.236788 0.381445
0.970129 0.254779 0.457297
0.977606 0.268633 0.523788
0.983328 0.279360 0.579355
0.986945 0.286197 0.626971
-0.085094 0.521801 -0.085094
-0.085094 0.521801 -0.085094
-0.085094 0.521801 -0.085094
-0.084822 0.520439 -0.084822
-0.084753 0.520095 -0.084753
-0.084668 0.519669 -0.084668
-0.084562 0.519139 -0.084562
-0.084430 0.518480 -0.084430
-0.084266 0.517660 -0.084266
0.010756 0.516638 -0.084062
0.125814 0.515363 -0.083807
0.231516 0.513772 -0.083488
0.329171 0.511780 -0.083090
0.412885 0.509281 -0.082590
0.488092 0.506138 -0.081962
0.547680 0.493068 -0.090270
0.600290 0.476507 -0.100792
0.649847 0.458887 -0.110703
0.696922 0.439541 -0.120118
0.741669 0.436382 -0.078675
0.785151 0.438266 -0.028615
0.824638 0.440927 0.022306
0.858204 0.439451 0.069677
0.887190 0.429625 0.113608
0.911679 0.401425 0.152904
0.931389 0.337255 0.185985
0.947160 0.213386 0.254177
0.960154 0.236587 0.354012
0.970062 0.254656 0.436959
0.977564 0.268554 0.509538
0.983305 0.279316 0.569362
0.986933 0.286174 0.619776
-0.094465 0.568653 -0.094465
-0.094465 0.568653 -0.094465
-0.094465 0.568653 -0.094465
-0.094252 0.567589 -0.094252
-0.094198 0.567321 -0.094198
-0.094132 0.566989 -0.094132
-0.094049 0.566576 -0.094049
-0.093946 0.566062 -0.093946
-0.093819 0.565424 -0.093819
-0.079430 0.564629 -0.093660
0.061109 0.563639 -0.093462
0.181330 0.562404 -0.093215
0.290642 0.560862 -0.092906
0.382968 0.558933 -0.092521
0.463684 0.556512 -0.092036
0.535910 0.553467 -0.091427
0.593668 0.540812 -0.099468
0.644790 0.524732 -0.109692
0.693071 0.507601 -0.119348
0.738678 0.502283 -0.081887
0.782849 0.503806 -0.031423
0.823034 0.507920 0.020135
0.857096 0.510633 0.068055
0.886426 0.508983 0.112414
0.911168 0.498251 0.152065
0.931065 0.470001 0.185430
0.946946 0.402555 0.213009
0.960016 0.238648 0.315356
0.969979 0.254503 0.409397
0.977512 0.268457 0.489660
0.983276 0.279262 0.555977
0.986918 0.286146 0.610280
-0.103538 0.614020 -0.103538
-0.103538 0.614020 -0.103538
-0.103538 0.614020 -0.103538
-0.103372 0.613188 -0.103372
-0.103330 0.612979 -0.103330
-0.103278 0.612719 -0.103278
-0.103213 0.612397 -0.103213
-0.103133 0.611997 -0.103133
-0.103034 0.611499 -0.103034
-0.102910 0.610880 -0.102910
-0.031873 0.610110 -0.102756
0.115182 0.609150 -0.102564
0.240134 0.607954 -0.102325
0.346230 0.606461 -0.102026
0.434907 0.604592 -0.101652
0.512278 0.602249 -0.101184
0.582268 0.599303 -0.100595
0.638323 0.587035 -0.108399
0.688169 0.571401 -0.118368
0.734900 0.563549 -0.085901
0.779946 0.563527 -0.034940
0.821003 0.567395 0.017401
0.855704 0.571616 0.066020
0.885467 0.573854 0.110919
0.910528 0.571121 0.151014
0.930659 0.558832 0.184736
0.946679 0.529488 0.212539
0.959843 0.464235 0.252337
0.969875 0.287770 0.369524
0.977447 0.268336 0.461298
0.983240 0.279193 0.537657
0.986900 0.286111 0.597517
-0.112383 0.658247 -0.112383
-0.112383 0.658247 -0.112383
-0.112383 0.658247 -0.112383
-0.112252 0.657591 -0.112252
-0.112219 0.657427 -0.112219
-0.112179 0.657223 -0.112179
-0.112128 0.656969 -0.112128
-0.112065 0.656654 -0.112065
-0.111986 0.656262 -0.111986
-0.111889 0.655776 -0.111889
-0.111768 0.655171 -0.111768
0.020343 0.654418 -0.111618
0.171494 0.653480 -0.111430
0.298715 0.652311 -0.111196
0.399439 0.650851 -0.110904
0.484474 0.649024 -0.110539
0.559336 0.646734 -0.110081
0.627199 0.643855 -0.109505
0.681885 0.631890 -0.117111
0.730107 0.621459 -0.090926
0.776272 0.619060 -0.039349
0.818422 0.621669 0.013945
0.853946 0.626046 0.063460
0.884261 0.629973 0.109041
0.909724 0.631091 0.149694
0.930149 0.626316 0.183866
0.946346 0.612205 0.211952
0.959627 0.582851 0.235636
0.969746 0.519077 0.308011
0.977367 0.340056 0.420811
0.983194 0.279108 0.511013
0.986877 0.286068 0.579913
-0.119593 0.701212 -0.119593
-0.119593 0.701212 -0.119593
-0.119593 0.701212 -0.119593
-0.120072 0.700703 -0.120072
-0.120193 0.700575 -0.120193
-0.120342 0.700417 -0.120342
-0.120527 0.700220 -0.120527
-0.120729 0.699975 -0.120729
-0.120668 0.699671 -0.120668
-0.120593 0.699294 -0.120593
-0.120499 0.698825 -0.120499
-0.120382 0.698241 -0.120382
0.073384 0.697514 -0.120237
0.231088 0.696608 -0.120056
0.353410 0.695477 -0.119829
0.450366 0.694065 -0.119547
0.532345 0.692296 -0.119193
0.604873 0.690076 -0.118749
0.671059 0.687283 -0.118191
0.723988 0.677316 -0.097228
0.771589 0.671827 -0.044905
0.815122 0.672408 0.009558
0.851717 0.676012 0.060230
0.882736 0.680277 0.106675
0.908708 0.683153 0.148032
0.929508 0.682275 0.182773
0.945929 0.675515 0.211218
0.959357 0.660337 0.235148
0.969584 0.629934 0.253776
0.977266 0.567264 0.357593
0.983138 0.386864 0.469766
0.986849 0.286014 0.554732
-0.077318 0.742924 -0.077318
-0.077318 0.742924 -0.077318
-0.077318 0.742924 -0.077318
-0.077756 0.742520 -0.077756
-0.077866 0.742418 -0.077866
-0.078003 0.742292 -0.078003
-0.078172 0.742135 -0.078172
-0.078382 0.741941 -0.078382
-0.078642 0.741700 -0.078642
-0.078965 0.741400 -0.078965
-0.079366 0.741028 -0.079366
-0.079863 0.740566 -0.079863
-0.048564 0.739991 -0.080480
0.162845 0.739276 -0.081247
0.313609 0.738386 -0.082199
0.423349 0.737276 -0.083382
0.511082 0.735890 -0.084854
0.586092 0.734158 -0.086684
0.653048 0.731987 -0.088964
0.714140 0.729260 -0.091805
0.765550 0.722218 -0.051962
0.810876 0.720115 0.003968
0.848875 0.722345 0.056134
0.880800 0.726287 0.103683
0.907422 0.729927 0.145931
0.928698 0.731150 0.181393
0.945406 0.728328 0.210298
0.959018 0.720167 0.234536
0.969381 0.703378 0.253403
0.977140 0.672291 0.267763
0.983067 0.611054 0.405070
0.986813 0.431541 0.516088
-0.029922 0.784082 -0.029922
-0.029922 0.784082 -0.029922
-0.029922 0.784082 -0.029922
-0.030308 0.783765 -0.030308
-0.030404 0.783686 -0.030404
-0.030525 0.783588 -0.030525
-0.030673 0.783465 -0.030673
-0.030858 0.783314 -0.030858
-0.031087 0.783126 -0.031087
-0.031372 0.782892 -0.031372
-0.031724 0.782602 -0.031724
-0.032162 0.782241 -0.032162
-0.032706 0.781793 -0.032706
0.052543 0.781235 -0.033382
0.254598 0.780540 -0.034222
0.392592 0.779676 -0.035266
0.491648 0.778597 -0.036565
0.571298 0.777249 -0.038181
0.639656 0.775564 -0.040194
0.700661 0.773446 -0.042711
0.756651 0.770772 -0.045868
0.805371 0.766455 -0.003190
0.845223 0.766522 0.050911
0.878327 0.769299 0.099877
0.905785 0.772700 0.143264
0.927669 0.774812 0.179643
0.944747 0.774186 0.209140
0.958590 0.770073 0.233766
0.969127 0.760455 0.252937
0.976982 0.742483 0.267469
0.982977 0.711033 0.283560
0.986769 0.650095 0.449717
0.018881 0.822104 0.018881
0.018881 0.822104 0.018881
0.018881 0.822104 0.018881
0.018578 0.821879 0.018578
0.018502 0.821822 0.018502
0.018408 0.821752 0.018408
0.018291 0.821665 0.018291
0.018146 0.821557 0.018146
0.017966 0.821423 0.017966
0.017742 0.821257 0.017742
0.017464 0.821050 0.017464
0.017119 0.820793 0.017119
0.016690 0.820474 0.016690
0.016156 0.820076 0.016156
0.146090 0.819580 0.015493
0.343094 0.818962 0.014666
0.466619 0.818190 0.013635
0.556126 0.817224 0.012348
0.628630 0.816013 0.010739
0.691155 0.814491 0.008724
0.746738 0.812572 0.006194
0.797965 0.810143 0.003009
0.840500 0.808198 0.044224
0.875143 0.809728 0.095009
0.903687 0.812759 0.139861
0.926355 0.815293 0.177414
0.943914 0.815903 0.207679
0.958051 0.813980 0.232793
0.968808 0.808076 0.252350
0.976784 0.796937 0.267100
0.982865 0.778461 0.278487
0.986714 0.746307 0.321746
0.064857 0.854906 0.064857
0.064857 0.854906 0.064857
0.064857 0.854906 0.064857
0.064629 0.854749 0.064629
0.064571 0.854710 0.064571
0.064500 0.854661 0.064500
0.064412 0.854601 0.064412
0.064302 0.854525 0.064302
0.064167 0.854432 0.064167
0.063998 0.854316 0.063998
0.063789 0.854172 0.063789
0.063529 0.853993 0.063529
0.063206 0.853771 0.063206
0.062805 0.853495 0.062805
0.062306 0.853151 0.062306
0.234935 0.852723 0.061686
0.421770 0.852190 0.060913
0.533829 0.851524 0.059950
0.615673 0.850691 0.058749
0.682355 0.849648 0.057246
0.739517 0.848338 0.055364
0.791108 0.846688 0.053001
0.834728 0.844600 0.050026
0.871004 0.844421 0.088731
0.900979 0.846990 0.135489
0.924671 0.849977 0.174564
0.942854 0.851883 0.205823
0.957365 0.852049 0.231560
0.968404 0.849393 0.251610
0.976535 0.842870 0.266636
0.982722 0.831149 0.278218
0.986644 0.811304 0.285627
0.107976 0.883575 0.107976
0.107976 0.883575 0.107976
0.107976 0.883575 0.107976
0.107805 0.883465 0.107805
0.107763 0.883438 0.107763
0.107710 0.883403 0.107710
0.107644 0.883361 0.107644
0.107562 0.883308 0.107562
0.107461 0.883243 0.107461
0.107335 0.883162 0.107335
0.107179 0.883061 0.107179
0.106986 0.882937 0.106986
0.106746 0.882781 0.106746
0.106447 0.882589 0.106447
0.106076 0.882349 0.106076
0.105614 0.882050 0.105614
0.318230 0.881679 0.105039
0.492946 0.881215 0.104324
0.595264 0.880637 0.103431
0.670656 0.879913 0.102315
0.732053 0.879005 0.100919
0.785386 0.877864 0.099169
0.830727 0.876426 0.096967
0.866380 0.874604 0.094188
0.897449 0.875532 0.129826
0.922490 0.878393 0.170888
0.941495 0.880859 0.203449
0.956490 0.882285 0.229988
0.967892 0.881891 0.250670
0.976220 0.878958 0.266050
0.982540 0.872919 0.277876
0.986557 0.861641 0.285461
0.147093 0.908134 0.147093
0.147093 0.908134 0.147093
0.147093 0.908134 0.147093
0.146971 0.908059 0.146971
0.146940 0.908041 0.146940
0.146902 0.908018 0.146902
0.146855 0.907989 0.146855
0.146797 0.907953 0.146797
0.146724 0.907908 0.146724
0.146634 0.907853 0.146634
0.146523 0.907785 0.146523
0.146384 0.907700 0.146384
0.146212 0.907595 0.146212
0.145998 0.907464 0.145998
0.145733 0.907301 0.145733
0.145402 0.907098 0.145402
0.144991 0.906846 0.144991
0.396530 0.906532 0.144479
0.556717 0.906140 0.143841
0.651066 0.905650 0.143044
0.721113 0.905036 0.142047
0.778217 0.904266 0.140799
0.826774 0.903298 0.139231
0.864259 0.902075 0.137255
0.893815 0.900524 0.134757
0.919628 0.902046 0.166091
0.939734 0.904729 0.200381
0.955362 0.906835 0.227966
0.967237 0.907716 0.249469
0.975820 0.906793 0.265306
0.982308 0.903816 0.277439
0.986446 0.897689 0.285251
0.180616 0.928242 0.180616
0.180616 0.928242 0.180616
0.180616 0.928242 0.180616
0.180534 0.928194 0.180534
0.180514 0.928181 0.180514
0.180488 0.928167 0.180488
0.180457 0.928148 0.180457
0.180417 0.928125 0.180417
0.180369 0.928096 0.180369
0.180308 0.928061 0.180308
0.180233 0.928017 0.180233
0.180140 0.927962 0.180140
0.180025 0.927894 0.180025
0.179881 0.927810 0.179881
0.179703 0.927705 0.179703
0.179481 0.927574 0.179481
0.179206 0.927412 0.179206
0.178862 0.927209 0.178862
0.466204 0.926957 0.178434
0.613380 0.926642 0.177900
0.701376 0.926249 0.177234
0.766662 0.925756 0.176400
0.820334 0.925138 0.175354
0.861518 0.924360 0.174039
0.892837 0.923375 0.172379
0.916881 0.922124 0.170274
0.937420 0.923829 0.196366
0.953894 0.926361 0.225340
0.966390 0.928102 0.247921
0.975309 0.928498 0.264357
0.982010 0.927467 0.276878
0.986305 0.924314 0.284983
0.208494 0.944378 0.208494
0.208494 0.944378 0.208494
0.208494 0.944378 0.208494
0.208438 0.944347 0.208438
0.208425 0.944339 0.208425
0.208407 0.944329 0.208407
0.208386 0.944317 0.208386
0.208360 0.944302 0.208360
0.208327 0.944283 0.208327
0.208286 0.944260 0.208286
0.208236 0.944231 0.208236
0.208173 0.944196 0.208173
0.208096 0.944151 0.208096
0.207999 0.944096 0.207999
0.207879 0.944028 0.207879
0.207731 0.943943 0.207731
0.207546 0.943838 0.207546
0.207316 0.943707 0.207316
0.207030 0.943543 0.207030
0.526538 0.943340 0.206674
0.663800 0.943086 0.206230
0.746579 0.942769 0.205675
0.808380 0.942372 0.204981
0.856091 0.941873 0.204110
0.890632 0.941245 0.203014
0.916572 0.940451 0.201629
0.935364 0.939440 0.199870
0.951965 0.941183 0.221900
0.965282 0.943449 0.245898
0.974654 0.944705 0.263140
0.981623 0.944958 0.276152
0.986123 0.943740 0.284640
0.232250 0.957749 0.232250
0.232250 0.957749 0.232250
