luts/Z-Log2/normal/zLog2_zRGB-ax2_32.cube
TITLE "Generated by ZCAM"
LUT_3D_SIZE 32
0.016055 0.016055 0.016055
0.016055 0.016055 0.016055
0.016055 0.016055 0.016055
0.018156 0.016055 0.016055
0.057226 0.016055 0.016055
0.108819 0.016055 0.016055
0.158030 0.016055 0.016055
0.210494 0.016055 0.016055
0.264636 0.016055 0.016055
0.321258 0.016055 0.016055
0.375748 0.016055 0.016055
0.427572 0.016055 0.016055
0.477591 0.016055 0.016055
0.525570 0.016055 0.016055
0.572101 0.016055 0.016055
0.617206 0.016055 0.016055
0.661231 0.016055 0.016055
0.703986 0.016055 0.016055
0.745589 0.016055 0.024250
0.786595 0.016055 0.068019
0.824269 0.016055 0.118107
0.856754 0.016055 0.143009
0.885155 0.016055 0.161825
0.909450 0.016055 0.176221
0.929284 0.016055 0.187273
0.945218 0.016055 0.195855
0.958434 0.016055 0.202562
0.968689 0.016055 0.207846
0.976441 0.016055 0.212029
0.982471 0.016055 0.215348
0.986412 0.016055 0.217992
0.988611 0.016055 0.220099
0.016055 0.016055 0.016055
0.016055 0.016055 0.016055
0.016055 0.016055 0.016055
0.018156 0.016055 0.016055
0.057226 0.016055 0.016055
0.108819 0.016055 0.016055
0.158030 0.016055 0.016055
0.210494 0.016055 0.016055
0.264636 0.016055 0.016055
0.321258 0.016055 0.016055
0.375748 0.016055 0.016055
0.427572 0.016055 0.016055
0.477591 0.016055 0.016055
0.525570 0.016055 0.016055
0.572101 0.016055 0.016055
0.617206 0.016055 0.016055
0.661231 0.016055 0.016055
0.703986 0.016055 0.016055
0.745589 0.016055 0.024250
0.786595 0.016055 0.068019
0.824269 0.016055 0.118107
0.856754 0.016055 0.143009
0.885155 0.016055 0.161825
0.909450 0.016055 0.176221
0.929284 0.016055 0.187273
0.945218 0.016055 0.195855
0.958434 0.016055 0.202562
0.968689 0.016055 0.207846
0.976441 0.016055 0.212029
0.982471 0.016055 0.215348
0.986412 0.016055 0.217992
0.988611 0.016055 0.220099
0.016055 0.016055 0.016055
0.016055 0.016055 0.016055
0.016055 0.016055 0.016055
0.018156 0.016055 0.016055
0.057226 0.016055 0.016055
0.108819 0.016055 0.016055
0.158030 0.016055 0.016055
0.210494 0.016055 0.016055
0.264636 0.016055 0.016055
0.321258 0.016055 0.016055
0.375748 0.016055 0.016055
0.427572 0.016055 0.016055
0.477591 0.016055 0.016055
0.525570 0.016055 0.016055
0.572101 0.016055 0.016055
0.617206 0.016055 0.016055
0.661231 0.016055 0.016055
0.703986 0.016055 0.016055
0.745589 0.016055 0.024250
0.786595 0.016055 0.068019
0.824269 0.016055 0.118107
0.856754 0.016055 0.143009
0.885155 0.016055 0.161825
0.909450 0.016055 0.176221
0.929284 0.016055 0.187273
0.945218 0.016055 0.195855
0.958434 0.016055 0.202562
0.968689 0.016055 0.207846
0.976441 0.016055 0.212029
0.982471 0.016055 0.215348
0.986412 0.016055 0.217992
0.988611 0.016055 0.220099
0.016055 0.016055 0.016055
0.016055 0.016055 0.016055
0.016055 0.016055 0.016055
0.016055 0.016055 0.016055
0.016055 0.016055 0.016055
0.059743 0.016055 0.016055
0.120865 0.016055 0.016055
0.179036 0.016055 0.016055
0.238656 0.016055 0.016055
0.299781 0.016055 0.016055
0.359699 0.016055 0.016055
0.415137 0.016055 0.016055
0.468024 0.016055 0.016055
0.518164 0.016055 0.016055
0.566328 0.016055 0.016055
0.612698 0.016055 0.016055
0.657686 0.016055 0.016055
0.701238 0.016055 0.016055
0.743400 0.016055 0.016055
0.784891 0.016055 0.018834
0.823065 0.016055 0.072178
0.855911 0.016055 0.112179
0.884567 0.016055 0.138643
0.909052 0.016055 0.158496
0.929027 0.016055 0.173675
0.945050 0.016055 0.185309
0.958323 0.016055 0.194323
0.968622 0.016055 0.201362
0.976399 0.016055 0.206900
0.982446 0.016055 0.211276
0.986400 0.016055 0.214751
0.988611 0.016055 0.217511
0.016055 0.035637 0.016055
0.016055 0.035637 0.016055
0.016055 0.035637 0.016055
0.016055 0.020104 0.016055
0.016055 0.016635 0.016055
0.046373 0.016055 0.016055
0.110797 0.016055 0.016055
0.170579 0.016055 0.016055
0.231839 0.016055 0.016055
0.294090 0.016055 0.016055
0.355430 0.016055 0.016055
0.411897 0.016055 0.016055
0.465545 0.016055 0.016055
0.516260 0.016055 0.016055
0.564852 0.016055 0.016055
0.611550 0.016055 0.016055
0.656786 0.016055 0.016055
0.700541 0.016055 0.016055
0.742847 0.016055 0.016055
0.784461 0.016055 0.016055
0.822760 0.016055 0.058048
0.855699 0.016055 0.103699
0.884418 0.016055 0.132579
0.908951 0.016055 0.153891
0.928963 0.016055 0.170145
0.945008 0.016055 0.182594
0.958295 0.016055 0.192211
0.968605 0.016055 0.199708
0.976388 0.016055 0.205594
0.982439 0.016055 0.210243
0.986397 0.016055 0.213930
0.988611 0.016055 0.216859
0.016055 0.085306 0.016055
0.016055 0.085306 0.016055
0.016055 0.085306 0.016055
0.016055 0.065909 0.016055
0.016055 0.060805 0.016055
0.031765 0.054803 0.016055
0.097469 0.047167 0.016055
0.159754 0.038609 0.016055
0.223152 0.028880 0.016055
0.286848 0.017987 0.016055
0.349995 0.016055 0.016055
0.407806 0.016055 0.016055
0.462426 0.016055 0.016055
0.513874 0.016055 0.016055
0.563005 0.016055 0.016055
0.610117 0.016055 0.016055
0.655663 0.016055 0.016055
0.699673 0.016055 0.016055
0.742158 0.016055 0.016055
0.783925 0.016055 0.016055
0.822381 0.016055 0.041480
0.855435 0.016055 0.092436
0.884234 0.016055 0.124921
0.908826 0.016055 0.148089
0.928882 0.016055 0.165706
0.944955 0.016055 0.179186
0.958260 0.016055 0.189568
0.968585 0.016055 0.197643
0.976375 0.016055 0.203970
0.982432 0.016055 0.208958
0.986393 0.016055 0.212908
0.988611 0.016055 0.216043
0.016055 0.134668 0.016055
0.016055 0.134668 0.016055
0.016055 0.134668 0.016055
0.016055 0.120635 0.016055
0.016055 0.116988 0.016055
0.016117 0.112403 0.016055
0.078911 0.106551 0.016055
0.145893 0.098967 0.016055
0.211961 0.088987 0.016055
0.277627 0.075414 0.016055
0.343031 0.057138 0.016055
0.402619 0.036182 0.016055
0.458486 0.016055 0.016055
0.510874 0.016055 0.016055
0.560690 0.016055 0.016055
0.608326 0.016055 0.016055
0.654262 0.016055 0.016055
0.698589 0.016055 0.016055
0.741301 0.016055 0.016055
0.783258 0.016055 0.016055
0.821908 0.016055 0.023986
0.855106 0.016055 0.076923
0.884005 0.016055 0.115051
0.908671 0.016055 0.140751
0.928783 0.016055 0.160102
0.944890 0.016055 0.174902
0.958217 0.016055 0.186254
0.968559 0.016055 0.195058
0.976359 0.016055 0.201939
0.982422 0.016055 0.207353
0.986389 0.016055 0.211638
0.988611 0.016055 0.215031
0.016055 0.186101 0.016055
0.016055 0.186101 0.016055
0.016055 0.186101 0.016055
0.016055 0.173970 0.016055
0.016055 0.170843 0.016055
0.016055 0.166920 0.016055
0.053055 0.161991 0.016055
0.128028 0.155789 0.016055
0.197428 0.147967 0.016055
0.265889 0.138042 0.016055
0.334047 0.125418 0.016055
0.396008 0.108895 0.016055
0.453488 0.085850 0.016055
0.507089 0.051898 0.016055
0.557780 0.016531 0.016055
0.606081 0.016055 0.016055
0.652509 0.016055 0.016055
0.697235 0.016055 0.016055
0.740233 0.016055 0.016055
0.782428 0.016055 0.016055
0.821319 0.016055 0.016055
0.854697 0.016055 0.055643
0.883720 0.016055 0.102071
0.908478 0.016055 0.131444
0.928658 0.016055 0.153025
0.944809 0.016055 0.169483
0.958164 0.016055 0.182083
0.968526 0.016055 0.191816
0.976339 0.016055 0.199400
0.982410 0.016055 0.205350
0.986383 0.016055 0.210050
0.988611 0.016055 0.213770
0.016055 0.239591 0.016055
0.016055 0.239591 0.016055
0.016055 0.239591 0.016055
0.016055 0.229613 0.016055
0.016055 0.227056 0.016055
0.016055 0.223849 0.016055
0.025017 0.219812 0.016055
0.104221 0.214722 0.016055
0.178321 0.208276 0.016055
0.250763 0.200077 0.016055
0.322308 0.189572 0.016055
0.387524 0.175994 0.016055
0.447111 0.158251 0.016055
0.502292 0.135024 0.016055
0.554107 0.103745 0.016055
0.603260 0.054624 0.016055
0.650312 0.016055 0.016055
0.695540 0.016055 0.016055
0.738901 0.016055 0.016055
0.781391 0.016055 0.016055
0.820583 0.016055 0.016055
0.854187 0.016055 0.031561
0.883365 0.016055 0.084079
0.908237 0.016055 0.119505
0.928504 0.016055 0.144042
0.944708 0.016055 0.162611
0.958097 0.016055 0.176820
0.968486 0.016055 0.187736
0.976313 0.016055 0.196215
0.982395 0.016055 0.202844
0.986375 0.016055 0.208068
0.988611 0.016055 0.212199
0.016055 0.295514 0.016055
0.016055 0.295514 0.016055
0.016055 0.295514 0.016055
0.016055 0.287009 0.016055
0.016055 0.284834 0.016055
0.016055 0.282117 0.016055
0.016055 0.278723 0.016055
0.068444 0.274475 0.016055
0.152820 0.269147 0.016055
0.231107 0.262423 0.016055
0.306761 0.253899 0.016055
0.376552 0.243047 0.016055
0.438903 0.229133 0.016055
0.496179 0.210841 0.016055
0.549451 0.186351 0.016055
0.599702 0.152866 0.016055
0.647552 0.106371 0.016055
0.693413 0.031773 0.016055
0.737234 0.016055 0.016055
0.780096 0.016055 0.016055
0.819662 0.016055 0.016055
0.853550 0.016055 0.016055
0.882922 0.016055 0.058084
0.907938 0.016055 0.103687
0.928312 0.016055 0.132568
0.944583 0.016055 0.153881
0.958015 0.016055 0.170136
0.968437 0.016055 0.182586
0.976282 0.016055 0.192205
0.982376 0.016055 0.199703
0.986366 0.016055 0.205590
0.988611 0.016055 0.210233
0.016055 0.351690 0.016055
0.016055 0.351690 0.016055
0.016055 0.351690 0.016055
0.016055 0.345140 0.016055
0.016055 0.343461 0.016055
0.016055 0.341359 0.016055
0.016055 0.338724 0.016055
0.023557 0.335408 0.016055
0.118609 0.331223 0.016055
0.204719 0.325901 0.016055
0.286066 0.319086 0.016055
0.362056 0.310330 0.016055
0.428223 0.299058 0.016055
0.488325 0.284322 0.016055
0.543514 0.265096 0.016055
0.595193 0.239740 0.016055
0.644072 0.205220 0.016055
0.690737 0.155599 0.016055
0.735148 0.079693 0.016055
0.778476 0.016055 0.016055
0.818508 0.016055 0.016055
0.852755 0.016055 0.016055
0.882370 0.016055 0.028512
0.907564 0.016055 0.081284
0.928072 0.016055 0.117739
0.944427 0.016055 0.142733
0.957912 0.016055 0.161611
0.968375 0.016055 0.176055
0.976243 0.016055 0.187144
0.982353 0.016055 0.195753
0.986355 0.016055 0.202482
0.988611 0.016055 0.207776
0.016055 0.404491 0.016055
0.016055 0.404491 0.016055
0.016055 0.404491 0.016055
0.016055 0.399487 0.016055
0.016055 0.398213 0.016055
0.016055 0.396623 0.016055
0.016055 0.394636 0.016055
0.016055 0.392147 0.016055
0.065948 0.389022 0.016055
0.168146 0.385089 0.016055
0.258339 0.380120 0.016055
0.342276 0.373793 0.016055
0.414165 0.365651 0.016055
0.478112 0.354998 0.016055
0.535888 0.340864 0.016055
0.589443 0.321807 0.016055
0.639665 0.295579 0.016055
0.687358 0.259241 0.016055
0.732527 0.208078 0.016055
0.776446 0.129313 0.016055
0.817058 0.016055 0.016055
0.851759 0.016055 0.016055
0.881679 0.016055 0.016055
0.907097 0.016055 0.048822
0.927773 0.016055 0.097658
0.944233 0.016055 0.128412
0.957784 0.016055 0.150725
0.968298 0.016055 0.167718
0.976195 0.016055 0.180729
0.982325 0.016055 0.190766
0.986341 0.016055 0.198577
0.988611 0.016055 0.204697
0.016055 0.455491 0.016055
0.016055 0.455491 0.016055
0.016055 0.455491 0.016055
0.016055 0.451613 0.016055
0.016055 0.450628 0.016055
0.016055 0.449401 0.016055
0.016055 0.447868 0.016055
0.016055 0.445951 0.016055
0.016055 0.443548 0.016055
0.116426 0.440525 0.016055
0.220645 0.436710 0.016055
0.314588 0.431876 0.016055
0.395292 0.425718 0.016055
0.464609 0.417821 0.016055
0.525993 0.407592 0.016055
0.582050 0.394168 0.016055
0.634049 0.376318 0.016055
0.683073 0.351681 0.016055
0.729227 0.315832 0.016055
0.773891 0.262217 0.016055
0.815229 0.180208 0.016055
0.850508 0.027289 0.016055
0.880813 0.016055 0.016055
0.906513 0.016055 0.016055
0.927399 0.016055 0.067691
0.943991 0.016055 0.109525
0.957624 0.016055 0.136712
0.968202 0.016055 0.157029
0.976135 0.016055 0.172548
0.982289 0.016055 0.184438
0.986324 0.016055 0.193648
0.988611 0.016055 0.200824
0.016055 0.504368 0.016055
0.016055 0.504368 0.016055
0.016055 0.504368 0.016055
0.016055 0.501375 0.016055
0.016055 0.500617 0.016055
0.016055 0.499674 0.016055
0.016055 0.498498 0.016055
0.016055 0.497031 0.016055
0.016055 0.495196 0.016055
0.032309 0.492896 0.016055
0.165798 0.490007 0.016055
0.274987 0.486362 0.016055
0.369382 0.481744 0.016055
0.446421 0.475852 0.016055
0.512973 0.468275 0.016055
0.572449 0.458434 0.016055
0.626839 0.445500 0.016055
0.677607 0.428174 0.016055
0.725052 0.404428 0.016055
0.770654 0.370774 0.016055
0.812915 0.318877 0.016055
0.848933 0.207644 0.016055
0.879725 0.054072 0.016055
0.905780 0.016055 0.016055
0.926930 0.016055 0.029796
0.943688 0.016055 0.082479
0.957424 0.016055 0.118490
0.968083 0.016055 0.143286
0.976060 0.016055 0.162032
0.982244 0.016055 0.176377
0.986302 0.016055 0.187393
0.988611 0.016055 0.195940
0.016055 0.551586 0.016055
0.016055 0.551586 0.016055
0.016055 0.551586 0.016055
0.016055 0.549248 0.016055
0.016055 0.548657 0.016055
0.016055 0.547922 0.016055
0.016055 0.547006 0.016055
0.016055 0.545864 0.016055
0.016055 0.544440 0.016055
0.016055 0.542658 0.016055
0.079703 0.540426 0.016055
0.218220 0.537622 0.016055
0.331439 0.534088 0.016055
0.421246 0.529614 0.016055
0.495518 0.523919 0.016055
0.559816 0.516615 0.016055
0.617496 0.507159 0.016055
0.670587 0.494763 0.016055
0.719747 0.478204 0.016055
0.766531 0.455388 0.016055
0.809973 0.422783 0.016055
0.846941 0.343107 0.016055
0.878353 0.223556 0.016055
0.904857 0.078199 0.016055
0.926341 0.016055 0.016055
0.943310 0.016055 0.042689
0.957175 0.016055 0.093275
0.967934 0.016055 0.125471
0.975967 0.016055 0.148496
0.982189 0.016055 0.166015
0.986275 0.016055 0.179423
0.988611 0.016055 0.189744
0.016055 0.597355 0.016055
0.016055 0.597355 0.016055
0.016055 0.597355 0.016055
0.016055 0.595532 0.016055
0.016055 0.595072 0.016055
0.016055 0.594500 0.016055
0.016055 0.593788 0.016055
0.016055 0.592901 0.016055
0.016055 0.591796 0.016055
0.016055 0.590416 0.016055
0.016055 0.588691 0.016055
0.128757 0.586528 0.016055
0.272442 0.583811 0.016055
0.385072 0.580385 0.016055
0.471421 0.576046 0.016055
0.542872 0.570522 0.016055
0.605234 0.563438 0.016055
0.661475 0.554268 0.016055
0.712967 0.542239 0.016055
0.761259 0.526191 0.016055
0.806214 0.504236 0.016055
0.844411 0.445298 0.016055
0.876617 0.352568 0.016055
0.903693 0.235631 0.016055
0.925600 0.095567 0.016055
0.942835 0.016055 0.016055
0.956863 0.016055 0.054573
0.967747 0.016055 0.101352
0.975851 0.016055 0.130938
0.982119 0.016055 0.152639
0.986241 0.016055 0.169186
0.988611 0.016055 0.181847
0.016055 0.641851 0.016055
0.016055 0.641851 0.016055
0.016055 0.641851 0.016055
0.016055 0.640416 0.016055
0.016055 0.640054 0.016055
0.016055 0.639605 0.016055
0.016055 0.639046 0.016055
0.016055 0.638351 0.016055
0.016055 0.637485 0.016055
0.016055 0.636406 0.016055
0.016055 0.635059 0.016055
0.016055 0.633375 0.016055
0.179107 0.631266 0.016055
0.328908 0.628618 0.016055
0.436521 0.625281 0.016055
0.519534 0.621059 0.016055
0.588821 0.615690 0.016055
0.649484 0.608816 0.016055
0.704192 0.599931 0.016055
0.754490 0.588284 0.016055
0.801378 0.572725 0.016055
0.841186 0.528179 0.016055
0.874408 0.450794 0.016055
0.902217 0.359807 0.016055
0.924665 0.244982 0.016055
0.942238 0.108067 0.016055
0.956470 0.016055 0.016055
0.967513 0.016055 0.064298
0.975705 0.016055 0.107541
0.982032 0.016055 0.135287
0.986199 0.016055 0.155943
0.988611 0.016055 0.171712
0.016055 0.685257 0.016055
0.016055 0.685257 0.016055
0.016055 0.685257 0.016055
0.016055 0.684133 0.016055
0.016055 0.683850 0.016055
0.016055 0.683498 0.016055
0.016055 0.683061 0.016055
0.016055 0.682517 0.016055
0.016055 0.681841 0.016055
0.016055 0.680999 0.016055
0.016055 0.679949 0.016055
0.016055 0.678638 0.016055
0.016055 0.677000 0.016055
0.231911 0.674947 0.016055
0.382700 0.672368 0.016055
0.486049 0.669119 0.016055
0.566181 0.665004 0.016055
0.633441 0.659763 0.016055
0.692609 0.653043 0.016055
0.745768 0.644353 0.016055
0.795077 0.632979 0.016055
0.837033 0.600268 0.016055
0.871580 0.531551 0.016055
0.900337 0.455086 0.016055
0.923477 0.365400 0.016055
0.941483 0.252328 0.016055
0.955975 0.117440 0.016055
0.967219 0.016055 0.019847
0.975523 0.016055 0.072495
0.981922 0.016055 0.112352
0.986146 0.016055 0.138764
0.988611 0.016055 0.158578
0.016055 0.727224 0.016055
0.016055 0.727224 0.016055
0.016055 0.727224 0.016055
0.016055 0.726341 0.016055
0.016055 0.726119 0.016055
0.016055 0.725844 0.016055
0.016055 0.725502 0.016055
0.016055 0.725076 0.016055
0.016055 0.724548 0.016055
0.016055 0.723890 0.016055
0.016055 0.723072 0.016055
0.016055 0.722053 0.016055
0.016055 0.720782 0.016055
0.037713 0.719196 0.016055
0.286924 0.717212 0.016055
0.434213 0.714723 0.016055
0.533680 0.711591 0.016055
0.611407 0.707629 0.016055
0.677016 0.702584 0.016055
0.734361 0.696099 0.016055
0.786749 0.687676 0.016055
0.831612 0.666078 0.016055
0.867927 0.602362 0.016055
0.897923 0.534207 0.016055
0.921959 0.458459 0.016055
0.940524 0.369761 0.016055
0.955348 0.258127 0.016055
0.966848 0.124725 0.016055
0.975294 0.016055 0.025820
0.981785 0.016055 0.078691
0.986079 0.016055 0.116135
0.988611 0.016055 0.141539
0.016055 0.768715 0.016055
0.016055 0.768715 0.016055
0.016055 0.768715 0.016055
0.016055 0.768013 0.016055
0.016055 0.767836 0.016055
0.016055 0.767616 0.016055
0.016055 0.767344 0.016055
0.016055 0.767005 0.016055
0.016055 0.766584 0.016055
0.016055 0.766060 0.016055
0.016055 0.765409 0.016055
0.016055 0.764597 0.016055
0.016055 0.763584 0.016055
0.016055 0.762320 0.016055
0.087127 0.760740 0.016055
0.343104 0.758760 0.016055
0.483842 0.756274 0.016055
0.579908 0.753148 0.016055
0.655524 0.749208 0.016055
0.719174 0.744210 0.016055
0.775680 0.737818 0.016055
0.824391 0.729573 0.016055
0.863161 0.667340 0.016055
0.894794 0.604020 0.016055
0.920002 0.536309 0.016055
0.939297 0.461125 0.016055
0.954549 0.373190 0.016055
0.966376 0.262720 0.016055
0.975006 0.130425 0.016055
0.981611 0.016055 0.030955
0.985995 0.016055 0.083520
0.988611 0.016055 0.119139
0.016055 0.808235 0.016055
0.016055 0.808235 0.016055
0.016055 0.808235 0.016055
0.016055 0.807718 0.016055
0.016055 0.807588 0.016055
0.016055 0.807427 0.016055
0.016055 0.807227 0.016055
0.016055 0.806978 0.016055
0.016055 0.806668 0.016055
0.016055 0.806284 0.016055
0.016055 0.805805 0.016055
0.016055 0.805209 0.016055
0.016055 0.804465 0.016055
0.016055 0.803537 0.016055
0.016055 0.802377 0.016055
0.135694 0.800922 0.016055
0.396078 0.799091 0.016055
0.531541 0.796775 0.016055
0.624753 0.793834 0.016055
0.698454 0.790082 0.016055
0.760688 0.785270 0.016055
0.814536 0.779070 0.016055
0.856851 0.771022 0.016055
0.890690 0.668343 0.016055
0.917450 0.605338 0.016055
0.937714 0.537980 0.016055
0.953525 0.463240 0.016055
0.965774 0.375903 0.016055
0.974641 0.266372 0.016055
0.981390 0.134950 0.016055
0.985888 0.016055 0.035238
0.988611 0.016055 0.087277
0.016055 0.842938 0.016055
0.016055 0.842938 0.016055
0.016055 0.842938 0.016055
0.016055 0.842581 0.016055
0.016055 0.842491 0.016055
0.016055 0.842379 0.016055
0.016055 0.842241 0.016055
0.016055 0.842069 0.016055
0.016055 0.841856 0.016055
0.016055 0.841590 0.016055
0.016055 0.841261 0.016055
0.016055 0.840850 0.016055
0.016055 0.840339 0.016055
0.016055 0.839701 0.016055
0.016055 0.838904 0.016055
0.016055 0.837907 0.016055
0.175079 0.836656 0.016055
0.431788 0.835081 0.016055
0.565183 0.833090 0.016055
0.659290 0.830558 0.016055
0.740100 0.827313 0.016055
0.800852 0.823111 0.016055
0.848336 0.817610 0.016055
0.885232 0.810329 0.016055
0.914070 0.669142 0.016055
0.935659 0.606389 0.016055
0.952205 0.539311 0.016055
0.964999 0.464923 0.016055
0.974180 0.378060 0.016055
0.981109 0.269282 0.016055
0.985752 0.138566 0.016055
0.988611 0.016055 0.038797
0.016055 0.873131 0.016055
0.016055 0.873131 0.016055
0.016055 0.873131 0.016055
0.016055 0.872878 0.016055
0.016055 0.872815 0.016055
0.016055 0.872736 0.016055
0.016055 0.872638 0.016055
0.016055 0.872517 0.016055
0.016055 0.872366 0.016055
0.016055 0.872179 0.016055
0.016055 0.871946 0.016055
0.016055 0.871656 0.016055
0.016055 0.871296 0.016055
0.016055 0.870846 0.016055
0.016055 0.870286 0.016055
0.016055 0.869585 0.016055
0.016055 0.868708 0.016055
0.194152 0.867607 0.016055
0.437970 0.866221 0.016055
0.567878 0.864471 0.016055
0.660587 0.862248 0.016055
0.781262 0.859408 0.016055
0.836580 0.855752 0.016055
0.877833 0.850997 0.016055
0.909511 0.844732 0.016055
0.932958 0.669781 0.016055
0.950488 0.607229 0.016055
0.963989 0.540375 0.016055
0.973591 0.466266 0.016055
0.980749 0.379779 0.016055
0.985577 0.271607 0.016055
0.988591 0.141453 0.016055
0.016055 0.899256 0.016055
0.016055 0.899256 0.016055
0.016055 0.899256 0.016055
0.016055 0.899083 0.016055
0.016055 0.899039 0.016055
0.016055 0.898985 0.016055
0.016055 0.898918 0.016055
0.016055 0.898834 0.016055
0.016055 0.898731 0.016055
0.016055 0.898602 0.016055
0.016055 0.898442 0.016055
0.016055 0.898243 0.016055
0.016055 0.897995 0.016055
0.016055 0.897687 0.016055
0.016055 0.897303 0.016055
0.016055 0.896823 0.016055
0.016055 0.896223 0.016055
0.016055 0.895471 0.016055
0.208541 0.894526 0.016055
0.442778 0.893335 0.016055
0.570005 0.891828 0.016055
0.661617 0.889910 0.016055
0.819547 0.887456 0.016055
0.867529 0.884289 0.016055
0.903251 0.880160 0.016055
0.929329 0.874698 0.016055
0.948237 0.670291 0.016055
0.962655 0.607901 0.016055
0.972833 0.541226 0.016055
0.980287 0.467340 0.016055
0.985351 0.381153 0.016055
0.988467 0.273463 0.016055
0.016055 0.921090 0.016055
0.016055 0.921090 0.016055
0.016055 0.921090 0.016055
0.016055 0.920976 0.016055
0.016055 0.920948 0.016055
0.016055 0.920912 0.016055
0.016055 0.920868 0.016055
0.016055 0.920814 0.016055
0.016055 0.920746 0.016055
0.016055 0.920662 0.016055
0.016055 0.920558 0.016055
0.016055 0.920428 0.016055
0.016055 0.920266 0.016055
0.016055 0.920065 0.016055
0.016055 0.919815 0.016055
0.016055 0.919502 0.016055
0.016055 0.919112 0.016055
0.016055 0.918623 0.016055
0.016055 0.918009 0.016055
0.219565 0.917236 0.016055
0.446543 0.916258 0.016055
0.571692 0.915016 0.016055
0.662438 0.913428 0.016055
0.852656 0.911382 0.016055
0.894451 0.908723 0.016055
0.924309 0.905233 0.016055
0.945253 0.900590 0.016055
0.960877 0.670701 0.016055
0.971841 0.608440 0.016055
0.979688 0.541909 0.016055
0.985061 0.468200 0.016055
0.988308 0.382251 0.016055
0.016055 0.938598 0.016055
0.016055 0.938598 0.016055
0.016055 0.938598 0.016055
0.016055 0.938524 0.016055
0.016055 0.938506 0.016055
0.016055 0.938482 0.016055
0.016055 0.938454 0.016055
0.016055 0.938418 0.016055
0.016055 0.938374 0.016055
0.016055 0.938319 0.016055
0.016055 0.938251 0.016055
0.016055 0.938167 0.016055
0.016055 0.938062 0.016055
0.016055 0.937931 0.016055
0.016055 0.937768 0.016055
0.016055 0.937566 0.016055
0.016055 0.937313 0.016055
0.016055 0.936998 0.016055
0.016055 0.936604 0.016055
0.016055 0.936111 0.016055
0.228086 0.935490 0.016055
0.449512 0.934708 0.016055
0.573034 0.933716 0.016055
0.663093 0.932451 0.016055
0.881592 0.930823 0.016055
0.917170 0.928704 0.016055
0.941197 0.925906 0.016055
0.958462 0.922169 0.016055
0.970518 0.671030 0.016055
0.978906 0.608872 0.016055
0.984683 0.542456 0.016055
0.988105 0.468889 0.016055
0.016055 0.952944 0.016055
0.016055 0.952944 0.016055
0.016055 0.952944 0.016055
0.016055 0.952895 0.016055
0.016055 0.952882 0.016055
0.016055 0.952867 0.016055
0.016055 0.952847 0.016055
0.016055 0.952823 0.016055
0.016055 0.952794 0.016055
0.016055 0.952757 0.016055
0.016055 0.952711 0.016055
0.016055 0.952655 0.016055
0.016055 0.952584 0.016055
0.016055 0.952497 0.016055
0.016055 0.952388 0.016055
0.016055 0.952252 0.016055
0.016055 0.952083 0.016055
0.016055 0.951873 0.016055
0.016055 0.951610 0.016055
0.016055 0.951281 0.016055
0.016055 0.950868 0.016055
0.234733 0.950350 0.016055
0.451865 0.949696 0.016055
0.574105 0.948870 0.016055
0.663618 0.947819 0.016055
0.906440 0.946477 0.016055
0.935434 0.944748 0.016055
0.955109 0.942487 0.016055
0.968709 0.939470 0.016055
0.977866 0.671294 0.016055
0.984179 0.609220 0.016055
0.987841 0.542895 0.016055
0.016055 0.964558 0.016055
0.016055 0.964558 0.016055
0.016055 0.964558 0.016055
0.016055 0.964527 0.016055
0.016055 0.964520 0.016055
0.016055 0.964510 0.016055
0.016055 0.964498 0.016055
0.016055 0.964483 0.016055
0.016055 0.964465 0.016055
0.016055 0.964442 0.016055
0.016055 0.964414 0.016055
0.016055 0.964379 0.016055
0.016055 0.964336 0.016055
0.016055 0.964282 0.016055
0.016055 0.964215 0.016055
0.016055 0.964131 0.016055
0.016055 0.964027 0.016055
0.016055 0.963896 0.016055
0.016055 0.963734 0.016055
0.016055 0.963530 0.016055
0.016055 0.963275 0.016055
0.016055 0.962953 0.016055
0.239975 0.962548 0.016055
