luts/Z-Log2/gain -4/zLog2_zRGB-ax2_32_gain-4_desatuation.cube
TITLE "Generated by ZCAM"
LUT_3D_SIZE 8
DOMAIN_MIN 0.000000 0.000000 0.000000
DOMAIN_MAX 0.903226 0.903226 0.903226
0.016055 0.016055 0.016055
0.017205 0.016318 0.016318
0.111749 0.026611 0.026611
0.261265 -0.013990 -0.013990
0.446281 -0.069990 -0.069990
0.621872 -0.105108 -0.105108
0.786133 -0.027412 0.036378
0.908073 0.146994 0.313553
0.016055 0.016055 0.016055
0.016055 0.016055 0.016055
0.101274 0.026572 0.026572
0.254926 -0.010185 -0.010185
0.443536 -0.069441 -0.069441
0.620790 -0.104892 -0.104892
0.785711 -0.027930 0.021121
0.907972 0.146828 0.306897
0.026606 0.103727 0.026606
0.026543 0.099760 0.026543
0.086219 0.093989 0.026382
0.245774 0.063929 -0.004976
0.439589 -0.038761 -0.068652
0.619251 -0.104584 -0.104584
0.785112 -0.028663 0.000351
0.907829 0.146594 0.297178
-0.007258 0.249856 -0.007258
-0.005917 0.247472 -0.005917
0.023281 0.244079 -0.004047
0.222245 0.235946 0.000247
0.429934 0.172941 -0.066721
0.615562 0.070515 -0.103846
0.783687 -0.030403 -0.030403
0.907488 0.146038 0.272606
-0.067637 0.434517 -0.067637
-0.067425 0.433454 -0.067425
-0.067122 0.431941 -0.067122
0.107686 0.428320 -0.066398
0.402261 0.419507 -0.064635
0.606553 0.355158 -0.102045
0.780264 0.301911 -0.034555
0.906675 0.158005 0.203694
-0.102919 0.610928 -0.102919
-0.102836 0.610509 -0.102836
-0.102717 0.609915 -0.102717
-0.102435 0.608504 -0.102435
0.276167 0.605129 -0.101760
0.580637 0.596901 -0.100114
0.771867 0.560117 -0.044577
0.904706 0.569140 0.141512
-0.039683 0.775992 -0.039683
-0.039880 0.775827 -0.039880
-0.040158 0.775594 -0.040158
-0.040817 0.775041 -0.040817
-0.042380 0.773725 -0.042380
0.492056 0.770561 -0.046115
0.748729 0.762793 -0.055143
0.899775 0.763804 0.133553
0.137493 0.902222 0.137493
0.137427 0.902181 0.137427
0.137333 0.902123 0.137333
0.137111 0.901986 0.137111
0.136586 0.901660 0.136586
0.135334 0.900883 0.135334
0.712913 0.899008 0.132322
0.887314 0.894336 0.124868
0.016055 0.016055 0.016055
0.016055 0.016055 0.016055
0.109045 0.026627 0.027067
0.259596 -0.012973 -0.007459
0.445557 -0.069845 -0.050055
0.621586 -0.105051 -0.045576
0.786021 -0.027549 0.097134
0.908047 0.146950 0.345236
0.016055 0.016055 0.016055
0.016055 0.016055 0.016055
0.098367 0.026512 0.026512
0.253227 -0.009193 -0.009193
0.442802 -0.069294 -0.062376
0.620503 -0.104834 -0.061828
0.785599 -0.028067 0.086482
0.907945 0.146784 0.339379
0.026492 0.097583 0.026492
0.026363 0.093450 0.026363
0.082537 0.087370 0.026095
0.244034 0.056615 -0.004023
0.438840 -0.046391 -0.068502
0.618961 -0.104526 -0.082717
0.785000 -0.028801 0.070702
0.907802 0.146550 0.330917
-0.005197 0.246176 -0.005197
-0.003880 0.243771 -0.003880
0.021753 0.240349 -0.002045
0.220593 0.232123 0.002174
0.429147 0.168150 -0.066563
0.615267 0.064622 -0.103787
0.783573 -0.030542 0.026581
0.907461 0.145994 0.309658
-0.067309 0.432876 -0.067309
-0.067095 0.431804 -0.067095
-0.066790 0.430278 -0.066790
0.105237 0.426628 -0.066060
0.401550 0.417742 -0.064282
0.606243 0.352860 -0.101983
0.780148 0.298907 -0.034696
0.906648 0.152806 0.250993
-0.102790 0.610282 -0.102790
-0.102706 0.609861 -0.102706
-0.102587 0.609265 -0.102587
-0.102304 0.607850 -0.102304
0.274755 0.604463 -0.101627
0.580354 0.596204 -0.099975
0.771744 0.559241 -0.044723
0.904677 0.568186 0.141465
-0.039987 0.775738 -0.039987
-0.040183 0.775573 -0.040183
-0.040462 0.775339 -0.040462
-0.041121 0.774785 -0.041121
-0.042686 0.773467 -0.042686
0.491412 0.770296 -0.046426
0.748596 0.762514 -0.055464
0.899744 0.763524 0.133504
0.137391 0.902159 0.137391
0.137325 0.902118 0.137325
0.137231 0.902060 0.137231
0.137009 0.901922 0.137009
0.136483 0.901596 0.136483
0.135230 0.900818 0.135230
0.712705 0.898941 0.132215
0.887271 0.894264 0.124754
0.026602 0.026602 0.103416
0.026617 0.026617 0.104924
0.105360 0.026627 0.107002
0.257225 -0.011547 0.095188
0.444531 -0.069640 0.058463
0.621181 -0.104970 0.052452
0.785863 -0.027743 0.165760
0.908009 0.146888 0.384853
0.026309 0.026309 0.092047
0.026371 0.026371 0.093675
0.094398 0.026445 0.095914
0.250813 -0.007802 0.085893
0.441760 -0.069086 0.046882
0.620095 -0.104753 0.041423
0.785440 -0.028261 0.156930
0.907907 0.146722 0.379716
0.026147 0.088405 0.076107
0.025904 0.083951 0.077115
0.077193 0.077574 0.078526
0.241563 0.045725 0.071379
0.437776 -0.056525 0.029333
0.618550 -0.104444 0.025413
0.784840 -0.028995 0.144014
0.907764 0.146488 0.372275
-0.002349 0.240921 0.013405
-0.001065 0.238484 0.016270
0.019751 0.235008 0.020297
0.218187 0.226635 0.029756
0.428030 0.161249 -0.020977
0.614848 0.056168 -0.017077
0.783413 -0.030738 0.111390
0.907423 0.145931 0.353993
-0.066841 0.430533 -0.066841
-0.066624 0.429448 -0.066624
-0.066315 0.427906 -0.066315
0.101755 0.424213 -0.065577
0.400543 0.415222 -0.063778
0.605804 0.349576 -0.101895
0.779984 0.294581 0.015885
0.906609 0.146045 0.305672
-0.102607 0.609365 -0.102607
-0.102522 0.608942 -0.102522
-0.102403 0.608343 -0.102403
-0.102118 0.606921 -0.102118
0.272743 0.603517 -0.101437
0.579954 0.595215 -0.099777
0.771570 0.557997 -0.044928
0.904637 0.566830 0.141400
-0.040415 0.775378 -0.040415
-0.040613 0.775213 -0.040613
-0.040892 0.774978 -0.040892
-0.041552 0.774423 -0.041552
-0.043120 0.773100 -0.043120
0.490498 0.769921 -0.046866
0.748409 0.762119 -0.055917
0.899701 0.763126 0.133433
0.137246 0.902070 0.137246
0.137180 0.902028 0.137180
0.137086 0.901970 0.137086
0.136864 0.901832 0.136864
0.136337 0.901506 0.136337
0.135083 0.900727 0.135083
0.712411 0.898847 0.132064
0.887210 0.894163 0.124593
-0.007491 -0.007491 0.250266
-0.008010 -0.008010 0.251176
0.078998 -0.008747 0.252457
0.251126 -0.010504 0.255467
0.442081 -0.069150 0.226559
0.620221 -0.104778 0.210165
0.785489 -0.028201 0.286281
0.907919 0.146741 0.456178
-0.003777 -0.003777 0.243581
-0.004280 -0.004280 0.244506
0.068798 -0.004995 0.245809
0.244673 -0.006702 0.248874
0.439275 -0.068589 0.219365
0.619129 -0.104560 0.202975
0.785065 -0.028721 0.280195
0.907817 0.146575 0.452757
0.001268 0.052224 0.233934
0.000788 0.046531 0.234883
0.052512 0.038659 0.236222
0.235367 0.020872 0.239361
0.435239 -0.067782 0.208966
0.617576 -0.104249 0.192598
0.784463 -0.029456 0.271385
0.907674 0.146341 0.447803
0.004102 0.228176 0.208698
0.005312 0.225630 0.210014
0.015698 0.221990 0.211811
0.212080 0.213097 0.215665
0.425368 0.144344 0.183241
0.613855 0.035566 0.166962
0.783032 -0.031201 0.249375
0.907332 0.145783 0.435443
-0.065712 0.424890 0.086508
-0.065489 0.423774 0.088274
-0.065172 0.422188 0.090758
0.093422 0.418394 0.096604
0.398151 0.409138 0.110256
0.604762 0.341647 0.097758
0.779594 0.284003 0.191664
0.906517 0.144455 0.401985
-0.102170 0.607181 -0.102170
-0.102085 0.606753 -0.102085
-0.101963 0.606147 -0.101963
-0.101676 0.604708 -0.101676
0.267900 0.601263 -0.100987
0.579005 0.592856 -0.099305
0.771158 0.555027 -0.009197
0.904542 0.563581 0.296013
-0.041432 0.774524 -0.041432
-0.041630 0.774357 -0.041630
-0.041910 0.774121 -0.041910
-0.042573 0.773562 -0.042573
-0.044149 0.772231 -0.044149
0.488326 0.769031 -0.047909
0.747968 0.761182 -0.056990
0.899597 0.762183 0.133268
0.136904 0.901858 0.136904
0.136838 0.901816 0.136838
0.136744 0.901758 0.136744
0.136521 0.901620 0.136521
0.135992 0.901292 0.135992
0.134734 0.900510 0.134734
0.711713 0.898623 0.131706
0.887066 0.893922 0.124211
-0.067800 -0.067800 0.435331
-0.067881 -0.067881 0.435736
-0.003945 -0.067995 0.436307
0.197856 -0.068264 0.437649
0.435244 -0.068891 0.440785
0.617932 -0.104320 0.414009
0.784601 -0.029288 0.445142
0.907706 0.146394 0.557304
-0.067206 -0.067206 0.432358
-0.067288 -0.067288 0.432770
-0.019645 -0.067404 0.433349
0.190331 -0.067676 0.434711
0.432350 -0.068313 0.437894
0.616827 -0.104099 0.410891
0.784174 -0.029809 0.442223
0.907604 0.146228 0.555388
-0.066350 -0.066350 0.428082
-0.066434 -0.066434 0.428502
-0.040279 -0.066553 0.429094
0.179357 -0.066831 0.430485
0.428190 -0.067481 0.433735
0.615255 -0.103785 0.406401
0.783569 -0.030548 0.438029
0.907460 0.145992 0.552644
-0.064257 0.151017 0.417614
-0.064345 0.147485 0.418055
-0.064469 0.142437 0.418677
0.151650 0.130217 0.420138
0.418016 0.099709 0.423554
0.611488 -0.019697 0.395393
0.782128 -0.032299 0.427788
0.907117 0.145433 0.545982
-0.062917 0.410913 0.386485
-0.062678 0.409719 0.387326
-0.062338 0.408021 0.388514
0.073092 0.403952 0.391321
0.391788 0.393358 0.397303
0.602277 0.321866 0.366979
0.778671 0.257202 0.401500
0.906299 0.144100 0.529096
-0.101117 0.601916 0.248146
-0.101029 0.601476 0.249146
-0.100905 0.600853 0.250552
-0.100608 0.599372 0.253860
0.256009 0.595825 0.261569
0.576751 0.587157 0.279113
0.770178 0.547829 0.324260
0.904316 0.555652 0.481126
-0.043851 0.772482 -0.043851
-0.044052 0.772313 -0.044052
-0.044334 0.772073 -0.044334
-0.045004 0.771505 -0.045004
-0.046595 0.770153 -0.046595
0.483109 0.766905 -0.050389
0.746927 0.758948 -0.053675
0.899352 0.759934 0.271779
0.136092 0.901354 0.136092
0.136025 0.901312 0.136025
0.135930 0.901253 0.135930
0.135706 0.901114 0.135706
0.135174 0.900783 0.135174
0.133907 0.899995 0.133907
0.710053 0.898092 0.130855
0.886724 0.893349 0.123304
-0.103101 -0.103101 0.611836
-0.103133 -0.103133 0.611996
-0.103178 -0.103178 0.612222
0.120606 -0.103285 0.612754
0.382949 -0.103535 0.614005
0.611507 -0.104120 0.616929
0.782480 -0.031872 0.613734
0.907201 0.145569 0.677704
-0.102868 -0.102868 0.610669
-0.102900 -0.102900 0.610830
-0.102945 -0.102945 0.611057
0.111596 -0.103052 0.611592
0.379450 -0.103304 0.612851
0.610369 -0.103892 0.615793
0.782047 -0.032398 0.612481
0.907098 0.145401 0.676779
-0.102536 -0.102536 0.609008
-0.102568 -0.102568 0.609170
-0.102614 -0.102614 0.609399
0.098424 -0.102722 0.609939
0.374412 -0.102976 0.611208
0.608750 -0.103569 0.614175
0.781433 -0.033142 0.610697
0.906952 0.145164 0.675463
-0.101739 -0.000422 0.605023
-0.101772 -0.005316 0.605189
-0.101818 -0.012467 0.605422
0.065130 -0.030842 0.605974
0.362029 -0.076501 0.607270
0.604869 -0.102794 0.610299
0.779972 -0.034908 0.606415
0.906606 0.144600 0.672311
-0.099785 0.329383 0.595254
-0.099820 0.327647 0.595429
-0.099869 0.325171 0.595675
-0.030102 0.319214 0.596256
0.329906 0.304446 0.597622
0.595362 0.265369 0.600810
0.776469 0.183996 0.595918
0.905780 0.143256 0.664616
-0.098503 0.588844 0.566051
-0.098408 0.588371 0.566386
-0.098274 0.587701 0.566860
-0.097956 0.586109 0.567979
0.225620 0.582289 0.570624
0.570706 0.572279 0.576220
0.767837 0.529727 0.568640
0.903779 0.535311 0.644920
-0.049661 0.767530 0.467112
-0.049866 0.767355 0.467375
-0.050155 0.767106 0.467747
-0.050839 0.766518 0.468621
-0.052462 0.765118 0.470675
0.470291 0.761760 0.475461
0.744480 0.753559 0.486457
0.898770 0.754490 0.586545
0.134149 0.900146 0.134149
0.134081 0.900104 0.134081
0.133985 0.900044 0.133985
0.133757 0.899902 0.133757
0.133216 0.899565 0.133216
0.131926 0.898761 0.131926
0.706059 0.896819 0.128820
0.885913 0.891977 0.215453
-0.038603 -0.038603 0.776897
-0.038528 -0.038528 0.776960
-0.038422 -0.038422 0.777048
0.049739 -0.038170 0.777258
0.354076 -0.037578 0.777753
0.586346 -0.036181 0.778916
0.777075 -0.032902 0.781631
0.905987 0.143593 0.804789
-0.039151 -0.039151 0.776438
-0.039076 -0.039076 0.776501
-0.038969 -0.038969 0.776590
0.036865 -0.038718 0.776801
0.349803 -0.038125 0.777296
0.584933 -0.036726 0.778463
0.776626 -0.033441 0.781186
0.905882 0.143422 0.804387
-0.039927 -0.039927 0.775788
-0.039851 -0.039851 0.775851
-0.039745 -0.039745 0.775941
0.016517 -0.039493 0.776152
0.343631 -0.038898 0.776650
0.582918 -0.037497 0.777820
0.775987 -0.034205 0.780554
0.905733 0.143180 0.803818
-0.041768 -0.041768 0.774241
-0.041692 -0.041692 0.774305
-0.041585 -0.041585 0.774395
-0.029741 -0.041331 0.774609
0.328286 -0.040733 0.775112
0.578072 -0.039325 0.776293
0.774469 -0.036017 0.779052
0.905379 0.142605 0.802462
-0.046177 0.201698 0.770508
-0.046099 0.199140 0.770574
-0.045990 0.195497 0.770667
-0.045732 0.186744 0.770887
0.286850 0.164930 0.771404
0.566119 0.106079 0.772620
0.770809 -0.040334 0.775447
0.904535 0.141235 0.799200
-0.056875 0.533340 0.761282
-0.056795 0.532730 0.761352
-0.056682 0.531866 0.761451
-0.056415 0.529809 0.761684
0.155337 0.524867 0.762234
0.534652 0.512711 0.763527
0.761764 0.480877 0.766541
0.902491 0.474503 0.791170
-0.063817 0.755161 0.735485
-0.064029 0.754972 0.735587
-0.064328 0.754705 0.735733
-0.065037 0.754073 0.736078
-0.066716 0.752571 0.736900
0.436819 0.748980 0.738879
0.738400 0.739815 0.743365
0.897372 0.740872 0.770045
0.129423 0.897196 0.694168
0.129352 0.897152 0.694249
0.129251 0.897089 0.694365
0.129013 0.896940 0.694637
0.128449 0.896586 0.695278
0.127104 0.895742 0.696777
0.696217 0.893703 0.700236
0.883968 0.888618 0.707989
0.138374 0.138374 0.902768
0.138400 0.138400 0.902784
0.138435 0.138435 0.902806
0.138519 0.138519 0.902858
0.333018 0.138718 0.902981
0.608926 0.139185 0.903270
0.783983 0.140283 0.903948
0.903371 0.142832 0.905519
0.138191 0.138191 0.902654
0.138216 0.138216 0.902670
0.138251 0.138251 0.902692
0.138336 0.138336 0.902744
0.327116 0.138535 0.902867
0.607555 0.139003 0.903157
0.783520 0.140102 0.903836
0.903260 0.142656 0.905411
0.137930 0.137930 0.902493
0.137956 0.137956 0.902509
0.137992 0.137992 0.902531
0.138076 0.138076 0.902583
0.318550 0.138275 0.902707
0.605599 0.138745 0.902997
0.782864 0.139846 0.903678
0.903102 0.142406 0.905257
0.137314 0.137314 0.902111
0.137339 0.137339 0.902127
0.137375 0.137375 0.902149
0.137460 0.137460 0.902202
0.296972 0.137660 0.902326
0.600885 0.138132 0.902618
0.781302 0.139240 0.903304
0.902730 0.141814 0.904892
0.135843 0.135843 0.901199
0.135868 0.135868 0.901215
0.135905 0.135905 0.901237
0.135991 0.135991 0.901291
0.237689 0.136194 0.901417
0.589206 0.136672 0.901713
0.777546 0.137794 0.902409
0.901841 0.140402 0.904021
0.132290 0.491151 0.898988
0.132316 0.490218 0.899004
0.132354 0.488892 0.899028
0.132443 0.485718 0.899083
0.132652 0.477986 0.899214
0.558065 0.458244 0.899521
0.768326 0.400085 0.900241
0.899687 0.136990 0.901911
0.123427 0.743195 0.893427
0.123455 0.743005 0.893445
0.123496 0.742737 0.893471
0.123592 0.742102 0.893531
0.123818 0.740592 0.893674
0.450989 0.736970 0.894009
0.744272 0.728059 0.894796
0.894279 0.704413 0.896616
0.117428 0.889626 0.879458
0.117349 0.889576 0.879471
0.117238 0.889506 0.879489
0.116975 0.889338 0.879533
0.116351 0.888941 0.879637
0.114865 0.887993 0.879882
0.670364 0.885702 0.880465
0.879440 0.880195 0.882075
