luts/Z-Log2/gain -4/zLog2_zRGB-ax2_32_gain-4.cube
TITLE "Generated by ZCAM"
LUT_3D_SIZE 5
DOMAIN_MIN 0.000000 0.000000 0.000000
DOMAIN_MAX 0.903226 0.903226 0.903226
0.016055 0.016055 0.016055
0.107940 0.016055 0.016055
0.392087 0.016055 0.016055
0.697431 0.016055 0.084597
0.822913 0.016055 0.212029
0.016055 0.094315 0.016055
0.060636 0.077019 0.016055
0.377901 0.016244 0.016055
0.694672 0.016055 0.033562
0.822913 0.016055 0.199400
0.016055 0.371816 0.016055
0.016055 0.366198 0.016055
0.316563 0.344545 0.016055
0.684428 0.210713 0.016055
0.822913 0.016055 0.148496
0.016055 0.679234 0.016055
0.016055 0.678113 0.016055
0.016055 0.674054 0.016055
0.629042 0.654516 0.016055
0.822912 0.378060 0.016055
0.016055 0.822913 0.016055
0.016055 0.822913 0.016055
0.016055 0.822913 0.016055
0.016055 0.822913 0.016055
0.801062 0.822912 0.016055
0.016055 0.016055 0.093354
0.096873 0.016055 0.099456
0.388411 0.016055 0.119522
0.696705 0.016055 0.196162
0.822913 0.016055 0.248320
0.016055 0.066629 0.042055
0.047012 0.047541 0.048884
0.373984 0.016055 0.075186
0.693933 0.016055 0.163541
0.822913 0.016055 0.237331
0.016055 0.363084 0.016055
0.016055 0.357172 0.016055
0.311147 0.334380 0.016055
0.683642 0.194066 0.016055
0.822912 0.016055 0.193653
0.016055 0.677504 0.016055
0.016055 0.676372 0.016055
0.016055 0.672273 0.016055
0.627972 0.652525 0.016055
0.822913 0.374321 0.016055
0.016055 0.822912 0.016055
0.016055 0.822912 0.016055
0.016055 0.822912 0.016055
0.016055 0.822913 0.016055
0.801243 0.822913 0.016055
0.016055 0.016055 0.372975
0.049738 0.016055 0.375074
0.374790 0.016055 0.382393
0.694084 0.016055 0.412671
0.822913 0.016055 0.351275
0.016055 0.016055 0.356922
0.016055 0.016055 0.359217
0.359281 0.016055 0.367171
0.691267 0.016055 0.399484
0.822913 0.016055 0.344108
0.016055 0.327983 0.285712
0.016055 0.320855 0.288900
0.290837 0.293453 0.299969
0.680807 0.126102 0.344160
0.822913 0.016055 0.315727
0.016055 0.671188 0.016055
0.016055 0.670015 0.016055
0.016055 0.665764 0.016055
0.624101 0.645237 0.016055
0.822912 0.360267 0.115357
0.016055 0.822913 0.016055
0.016055 0.822912 0.016055
0.016055 0.822913 0.016055
0.016055 0.822913 0.016055
0.801896 0.822913 0.016055
0.016055 0.016055 0.680817
0.016055 0.016055 0.681241
0.297677 0.016055 0.682746
0.681741 0.016055 0.689368
0.822913 0.016055 0.562609
0.016055 0.016055 0.677698
0.016055 0.016055 0.678130
0.274993 0.016055 0.679662
0.678709 0.016055 0.686402
0.822913 0.016055 0.560598
0.016055 0.058583 0.666094
0.016055 0.040333 0.666555
0.178374 0.016055 0.668191
0.667442 0.016055 0.675376
0.822913 0.016055 0.553124
0.016055 0.639577 0.602012
0.016055 0.638179 0.602664
0.016055 0.633097 0.604973
0.605613 0.608324 0.615036
0.822913 0.278705 0.512367
0.016055 0.822913 0.016055
0.016055 0.822912 0.016055
0.016055 0.822912 0.016055
0.016055 0.822912 0.016055
0.804928 0.822912 0.016055
0.016055 0.016055 0.822912
0.016055 0.016055 0.822912
0.016055 0.016055 0.822912
0.466885 0.016055 0.822912
0.816306 0.016055 0.822912
0.016055 0.016055 0.822912
0.016055 0.016055 0.822912
0.016055 0.016055 0.822912
0.463030 0.016055 0.822912
0.816296 0.016055 0.822912
0.016055 0.016055 0.822912
0.016055 0.016055 0.822912
0.016055 0.016055 0.822912
0.448358 0.016055 0.822912
0.816259 0.016055 0.822912
0.016055 0.204040 0.822912
0.016055 0.198372 0.822912
0.016055 0.177228 0.822912
0.356873 0.056147 0.822912
0.816080 0.016055 0.822912
0.016055 0.822913 0.790557
0.016055 0.822913 0.790971
0.016055 0.822913 0.792450
0.016055 0.822913 0.799084
0.814908 0.817239 0.822912
