luts/Z-Log2/gain -4/zLog2_zRGB-ax2_32_gain-4.cube
TITLE "Generated by ZCAM"
LUT_3D_SIZE 32
0.016055 0.016055 0.016055
0.016055 0.016055 0.016055
0.016055 0.016055 0.016055
0.016889 0.016055 0.016055
0.030467 0.016055 0.016055
0.050345 0.016055 0.016055
0.078313 0.016055 0.016055
0.107940 0.016055 0.016055
0.138857 0.016055 0.016055
0.173823 0.016055 0.016055
0.212352 0.016055 0.016055
0.253845 0.016055 0.016055
0.299173 0.016055 0.016055
0.346176 0.016055 0.016055
0.392087 0.016055 0.016055
0.437774 0.016055 0.016055
0.482855 0.016055 0.016055
0.527081 0.016055 0.016055
0.570716 0.016055 0.019173
0.613597 0.016055 0.033908
0.655901 0.016055 0.055693
0.697431 0.016055 0.084597
0.737984 0.016055 0.114300
0.778330 0.016055 0.146027
0.816289 0.016055 0.181916
0.822913 0.016055 0.195855
0.822913 0.016055 0.202562
0.822913 0.016055 0.207846
0.822913 0.016055 0.212029
0.822913 0.016055 0.215348
0.822913 0.016055 0.217993
0.822913 0.016055 0.220099
0.016055 0.016055 0.016055
0.016055 0.016055 0.016055
0.016055 0.016055 0.016055
0.016889 0.016055 0.016055
0.030467 0.016055 0.016055
0.050345 0.016055 0.016055
0.078313 0.016055 0.016055
0.107940 0.016055 0.016055
0.138857 0.016055 0.016055
0.173823 0.016055 0.016055
0.212352 0.016055 0.016055
0.253845 0.016055 0.016055
0.299173 0.016055 0.016055
0.346176 0.016055 0.016055
0.392087 0.016055 0.016055
0.437774 0.016055 0.016055
0.482855 0.016055 0.016055
0.527081 0.016055 0.016055
0.570716 0.016055 0.019173
0.613597 0.016055 0.033908
0.655901 0.016055 0.055693
0.697431 0.016055 0.084597
0.737984 0.016055 0.114300
0.778330 0.016055 0.146027
0.816289 0.016055 0.181916
0.822913 0.016055 0.195855
0.822913 0.016055 0.202562
0.822913 0.016055 0.207846
0.822913 0.016055 0.212029
0.822913 0.016055 0.215348
0.822913 0.016055 0.217993
0.822913 0.016055 0.220099
0.016055 0.016055 0.016055
0.016055 0.016055 0.016055
0.016055 0.016055 0.016055
0.016889 0.016055 0.016055
0.030467 0.016055 0.016055
0.050345 0.016055 0.016055
0.078313 0.016055 0.016055
0.107940 0.016055 0.016055
0.138857 0.016055 0.016055
0.173823 0.016055 0.016055
0.212352 0.016055 0.016055
0.253845 0.016055 0.016055
0.299173 0.016055 0.016055
0.346176 0.016055 0.016055
0.392087 0.016055 0.016055
0.437774 0.016055 0.016055
0.482855 0.016055 0.016055
0.527081 0.016055 0.016055
0.570716 0.016055 0.019173
0.613597 0.016055 0.033908
0.655901 0.016055 0.055693
0.697431 0.016055 0.084597
0.737984 0.016055 0.114300
0.778330 0.016055 0.146027
0.816289 0.016055 0.181916
0.822913 0.016055 0.195855
0.822913 0.016055 0.202562
0.822913 0.016055 0.207846
0.822913 0.016055 0.212029
0.822913 0.016055 0.215348
0.822913 0.016055 0.217993
0.822913 0.016055 0.220099
0.016055 0.016055 0.016055
0.016055 0.016055 0.016055
0.016055 0.016055 0.016055
0.016055 0.016055 0.016055
0.016055 0.016055 0.016055
0.031299 0.016055 0.016055
0.056743 0.016055 0.016055
0.090345 0.016055 0.016055
0.123821 0.016055 0.016055
0.160087 0.016055 0.016055
0.200358 0.016055 0.016055
0.243442 0.016055 0.016055
0.290082 0.016055 0.016055
0.338864 0.016055 0.016055
0.386343 0.016055 0.016055
0.433166 0.016055 0.016055
0.479224 0.016055 0.016055
0.524199 0.016055 0.016055
0.568430 0.016055 0.016055
0.611787 0.016055 0.017158
0.654460 0.016055 0.035277
0.696299 0.016055 0.062873
0.737082 0.016055 0.097067
0.777619 0.016055 0.130906
0.815771 0.016055 0.168241
0.822912 0.016055 0.185309
0.822912 0.016055 0.194323
0.822913 0.016055 0.201362
0.822913 0.016055 0.206900
0.822913 0.016055 0.211276
0.822912 0.016055 0.214751
0.822913 0.016055 0.217511
0.016055 0.023304 0.016055
0.016055 0.023304 0.016055
0.016055 0.023304 0.016055
0.016055 0.017642 0.016055
0.016055 0.016285 0.016055
0.026998 0.016055 0.016055
0.051400 0.016055 0.016055
0.085545 0.016055 0.016055
0.119921 0.016055 0.016055
0.156558 0.016055 0.016055
0.197270 0.016055 0.016055
0.240791 0.016055 0.016055
0.287750 0.016055 0.016055
0.336986 0.016055 0.016055
0.384880 0.016055 0.016055
0.431994 0.016055 0.016055
0.478302 0.016055 0.016055
0.523469 0.016055 0.016055
0.567852 0.016055 0.016055
0.611330 0.016055 0.016055
0.654097 0.016055 0.030744
0.696014 0.016055 0.057405
0.736855 0.016055 0.092409
0.777440 0.016055 0.127030
0.815640 0.016055 0.164706
0.822912 0.016055 0.182594
0.822913 0.016055 0.192211
0.822913 0.016055 0.199708
0.822912 0.016055 0.205594
0.822912 0.016055 0.210243
0.822913 0.016055 0.213930
0.822913 0.016055 0.216859
0.016055 0.039924 0.016055
0.016055 0.039924 0.016055
0.016055 0.039924 0.016055
0.016055 0.033243 0.016055
0.016055 0.031640 0.016055
0.021921 0.029652 0.016055
0.044878 0.027255 0.016055
0.079307 0.024354 0.016055
0.115002 0.020889 0.016055
0.152138 0.016822 0.016055
0.193395 0.016055 0.016055
0.237476 0.016055 0.016055
0.284834 0.016055 0.016055
0.334635 0.016055 0.016055
0.383053 0.016055 0.016055
0.430530 0.016055 0.016055
0.477153 0.016055 0.016055
0.522560 0.016055 0.016055
0.567133 0.016055 0.016055
0.610762 0.016055 0.016055
0.653645 0.016055 0.025344
0.695660 0.016055 0.050629
0.736573 0.016055 0.086401
0.777218 0.016055 0.122152
0.815478 0.016055 0.160277
0.822913 0.016055 0.179186
0.822912 0.016055 0.189568
0.822913 0.016055 0.197643
0.822913 0.016055 0.203970
0.822913 0.016055 0.208958
0.822913 0.016055 0.212908
0.822913 0.016055 0.216043
0.016055 0.064470 0.016055
0.016055 0.064470 0.016055
0.016055 0.064470 0.016055
0.016055 0.056623 0.016055
0.016055 0.054733 0.016055
0.016080 0.052260 0.016055
0.037567 0.049187 0.016055
0.071207 0.045552 0.016055
0.108760 0.041346 0.016055
0.146589 0.036348 0.016055
0.188513 0.030438 0.016055
0.233322 0.023500 0.016055
0.281182 0.016055 0.016055
0.331684 0.016055 0.016055
0.380768 0.016055 0.016055
0.428700 0.016055 0.016055
0.475718 0.016055 0.016055
0.521427 0.016055 0.016055
0.566237 0.016055 0.016055
0.610056 0.016055 0.016055
0.653084 0.016055 0.019078
0.695219 0.016055 0.042594
0.736223 0.016055 0.078503
0.776943 0.016055 0.115943
0.815277 0.016055 0.154714
0.822913 0.016055 0.174902
0.822913 0.016055 0.186254
0.822913 0.016055 0.195058
0.822913 0.016055 0.201939
0.822913 0.016055 0.207353
0.822913 0.016055 0.211638
0.822913 0.016055 0.215031
0.016055 0.094315 0.016055
0.016055 0.094315 0.016055
0.016055 0.094315 0.016055
0.016055 0.087463 0.016055
0.016055 0.085698 0.016055
0.016055 0.083438 0.016055
0.029105 0.080606 0.016055
0.060636 0.077019 0.016055
0.100646 0.072455 0.016055
0.139596 0.066499 0.016055
0.182341 0.059167 0.016055
0.228086 0.050385 0.016055
0.276604 0.040127 0.016055
0.327961 0.028750 0.016055
0.377901 0.016244 0.016055
0.426409 0.016055 0.016055
0.473922 0.016055 0.016055
0.520014 0.016055 0.016055
0.565121 0.016055 0.016055
0.609176 0.016055 0.016055
0.652386 0.016055 0.016055
0.694672 0.016055 0.033562
0.735788 0.016055 0.068068
0.776600 0.016055 0.108020
0.815027 0.016055 0.147713
0.822912 0.016055 0.169483
0.822913 0.016055 0.182083
0.822913 0.016055 0.191816
0.822913 0.016055 0.199400
0.822913 0.016055 0.205350
0.822912 0.016055 0.210050
0.822913 0.016055 0.213771
0.016055 0.124357 0.016055
0.016055 0.124357 0.016055
0.016055 0.124357 0.016055
0.016055 0.118656 0.016055
0.016055 0.117200 0.016055
0.016055 0.115394 0.016055
0.019463 0.113129 0.016055
0.048049 0.110289 0.016055
0.089946 0.106701 0.016055
0.130770 0.102127 0.016055
0.174512 0.096252 0.016055
0.221445 0.088615 0.016055
0.270863 0.078440 0.016055
0.323234 0.064684 0.016055
0.374291 0.047820 0.016055
0.423534 0.029592 0.016055
0.471671 0.016055 0.016055
0.518246 0.016055 0.016055
0.563728 0.016055 0.016055
0.608080 0.016055 0.016055
0.651517 0.016055 0.016055
0.693990 0.016055 0.023276
0.735247 0.016055 0.054970
0.776175 0.016055 0.097613
0.814716 0.016055 0.138845
0.822912 0.016055 0.162611
0.822913 0.016055 0.176820
0.822913 0.016055 0.187736
0.822913 0.016055 0.196215
0.822913 0.016055 0.202844
0.822913 0.016055 0.208068
0.822913 0.016055 0.212199
0.016055 0.157434 0.016055
0.016055 0.157434 0.016055
0.016055 0.157434 0.016055
0.016055 0.152235 0.016055
0.016055 0.150923 0.016055
0.016055 0.149284 0.016055
0.016055 0.147247 0.016055
0.034045 0.144705 0.016055
0.075282 0.141529 0.016055
0.119504 0.137553 0.016055
0.164492 0.132581 0.016055
0.212966 0.126338 0.016055
0.263608 0.118381 0.016055
0.317215 0.108134 0.016055
0.369721 0.094454 0.016055
0.419913 0.075309 0.016055
0.468841 0.049098 0.016055
0.516032 0.021924 0.016055
0.561986 0.016055 0.016055
0.606712 0.016055 0.016055
0.650434 0.016055 0.016055
0.693142 0.016055 0.016055
0.734574 0.016055 0.039609
0.775646 0.016055 0.083510
0.814329 0.016055 0.127601
0.822913 0.016055 0.153881
0.822913 0.016055 0.170137
0.822913 0.016055 0.182586
0.822913 0.016055 0.192205
0.822913 0.016055 0.199703
0.822913 0.016055 0.205589
0.822913 0.016055 0.210234
0.016055 0.194596 0.016055
0.016055 0.194596 0.016055
0.016055 0.194596 0.016055
0.016055 0.189979 0.016055
0.016055 0.188810 0.016055
0.016055 0.187351 0.016055
0.016055 0.185537 0.016055
0.018923 0.183267 0.016055
0.055568 0.180431 0.016055
0.104725 0.176877 0.016055
0.151666 0.172406 0.016055
0.202084 0.166765 0.016055
0.254397 0.159636 0.016055
0.309521 0.150615 0.016055
0.363889 0.139128 0.016055
0.415336 0.124443 0.016055
0.465273 0.105009 0.016055
0.513252 0.076908 0.016055
0.559804 0.037850 0.016055
0.605002 0.016055 0.016055
0.649081 0.016055 0.016055
0.692083 0.016055 0.016055
0.733737 0.016055 0.023370
0.774987 0.016055 0.063667
0.813847 0.016055 0.113031
0.822913 0.016055 0.142733
0.822913 0.016055 0.161611
0.822913 0.016055 0.176055
0.822913 0.016055 0.187144
0.822913 0.016055 0.195753
0.822912 0.016055 0.202482
0.822912 0.016055 0.207777
0.016055 0.234814 0.016055
0.016055 0.234814 0.016055
0.016055 0.234814 0.016055
0.016055 0.230834 0.016055
0.016055 0.229825 0.016055
0.016055 0.228572 0.016055
0.016055 0.227008 0.016055
0.016055 0.225054 0.016055
0.033255 0.222612 0.016055
0.084141 0.219552 0.016055
0.135162 0.215705 0.016055
0.187988 0.210861 0.016055
0.242645 0.204739 0.016055
0.299670 0.196961 0.016055
0.356372 0.187009 0.016055
0.409513 0.174184 0.016055
0.460753 0.157474 0.016055
0.509748 0.135688 0.016055
0.557064 0.106591 0.016055
0.602860 0.061363 0.016055
0.647391 0.016055 0.016055
0.690761 0.016055 0.016055
0.732694 0.016055 0.016055
0.774166 0.016055 0.039743
0.813246 0.016055 0.093238
0.822913 0.016055 0.128412
0.822913 0.016055 0.150725
0.822913 0.016055 0.167718
0.822913 0.016055 0.180729
0.822912 0.016055 0.190766
0.822912 0.016055 0.198577
0.822913 0.016055 0.204697
0.016055 0.278430 0.016055
0.016055 0.278430 0.016055
0.016055 0.278430 0.016055
0.016055 0.274906 0.016055
0.016055 0.274016 0.016055
0.016055 0.272914 0.016055
0.016055 0.271538 0.016055
0.016055 0.269827 0.016055
0.016055 0.267693 0.016055
0.054443 0.265029 0.016055
0.113594 0.261697 0.016055
0.169496 0.257520 0.016055
0.227523 0.252272 0.016055
0.286873 0.245658 0.016055
0.346596 0.237304 0.016055
0.402057 0.226641 0.016055
0.454998 0.212786 0.016055
0.505315 0.194590 0.016055
0.553608 0.170297 0.016055
0.600169 0.137431 0.016055
0.645274 0.090998 0.016055
0.689107 0.021204 0.016055
0.731392 0.016055 0.016055
0.773141 0.016055 0.016055
0.812497 0.016055 0.063868
0.822913 0.016055 0.109525
0.822912 0.016055 0.136712
0.822912 0.016055 0.157029
0.822912 0.016055 0.172548
0.822913 0.016055 0.184438
0.822913 0.016055 0.193648
0.822913 0.016055 0.200824
0.016055 0.325279 0.016055
0.016055 0.325279 0.016055
0.016055 0.325279 0.016055
0.016055 0.322332 0.016055
0.016055 0.321584 0.016055
0.016055 0.320656 0.016055
0.016055 0.319496 0.016055
0.016055 0.318051 0.016055
0.016055 0.316246 0.016055
0.022114 0.313989 0.016055
0.082795 0.311161 0.016055
0.145010 0.307612 0.016055
0.207526 0.303151 0.016055
0.270246 0.297511 0.016055
0.333749 0.290318 0.016055
0.392435 0.281134 0.016055
0.447621 0.269425 0.016055
0.499676 0.254356 0.016055
0.549234 0.234764 0.016055
0.596778 0.208575 0.016055
0.642615 0.172270 0.016055
0.687034 0.120840 0.016055
0.729765 0.036796 0.016055
0.771858 0.016055 0.016055
0.811560 0.016055 0.028812
0.822912 0.016055 0.082479
0.822912 0.016055 0.118490
0.822913 0.016055 0.143286
0.822913 0.016055 0.162032
0.822913 0.016055 0.176377
0.822912 0.016055 0.187393
0.822912 0.016055 0.195940
0.016055 0.371816 0.016055
0.016055 0.371816 0.016055
0.016055 0.371816 0.016055
0.016055 0.369521 0.016055
0.016055 0.368940 0.016055
0.016055 0.368219 0.016055
0.016055 0.367319 0.016055
0.016055 0.366198 0.016055
0.016055 0.364798 0.016055
0.016055 0.363046 0.016055
0.037854 0.360848 0.016055
0.112246 0.358083 0.016055
0.180576 0.354594 0.016055
0.248511 0.350174 0.016055
0.316563 0.344545 0.016055
0.379908 0.337337 0.016055
0.438070 0.328029 0.016055
0.492454 0.315822 0.016055
0.543666 0.299758 0.016055
0.592484 0.278336 0.016055
0.639265 0.249799 0.016055
0.684428 0.210713 0.016055
0.727729 0.153390 0.016055
0.770250 0.059834 0.016055
0.810388 0.016055 0.016055
0.822913 0.016055 0.042689
0.822913 0.016055 0.093276
0.822913 0.016055 0.125471
0.822913 0.016055 0.148496
0.822912 0.016055 0.166015
0.822913 0.016055 0.179423
0.822913 0.016055 0.189744
0.016055 0.417529 0.016055
0.016055 0.417529 0.016055
0.016055 0.417529 0.016055
0.016055 0.415679 0.016055
0.016055 0.415212 0.016055
0.016055 0.414632 0.016055
0.016055 0.413910 0.016055
0.016055 0.413013 0.016055
0.016055 0.411893 0.016055
0.016055 0.410497 0.016055
0.016055 0.408753 0.016055
0.061046 0.406569 0.016055
0.143488 0.403829 0.016055
0.219539 0.400383 0.016055
0.293295 0.396032 0.016055
0.363257 0.390512 0.016055
0.425546 0.383482 0.016055
0.483105 0.374449 0.016055
0.536529 0.362634 0.016055
0.587014 0.346791 0.016055
0.635024 0.325150 0.016055
0.681140 0.294833 0.016055
0.725172 0.252111 0.016055
0.768230 0.190085 0.016055
0.808916 0.089350 0.016055
0.822913 0.016055 0.016055
0.822913 0.016055 0.054574
0.822912 0.016055 0.101352
0.822913 0.016055 0.130938
0.822913 0.016055 0.152639
0.822912 0.016055 0.169187
0.822913 0.016055 0.181847
0.016055 0.462995 0.016055
0.016055 0.462995 0.016055
0.016055 0.462995 0.016055
0.016055 0.461524 0.016055
0.016055 0.461152 0.016055
0.016055 0.460692 0.016055
0.016055 0.460119 0.016055
0.016055 0.459406 0.016055
0.016055 0.458518 0.016055
0.016055 0.457413 0.016055
0.016055 0.456033 0.016055
0.016055 0.454309 0.016055
0.090384 0.452150 0.016055
0.178875 0.449440 0.016055
0.261532 0.446028 0.016055
0.340215 0.441713 0.016055
0.408884 0.436224 0.016055
0.470822 0.429200 0.016055
0.527296 0.420145 0.016055
0.579995 0.408342 0.016055
0.629626 0.392710 0.016055
0.676976 0.371666 0.016055
0.721955 0.341865 0.016055
0.765687 0.297338 0.016055
0.807065 0.229938 0.016055
0.822913 0.108068 0.016055
0.822913 0.016055 0.016055
0.822913 0.016055 0.064298
0.822913 0.016055 0.107541
0.822912 0.016055 0.135287
0.822912 0.016055 0.155943
0.822913 0.016055 0.171713
0.016055 0.507573 0.016055
0.016055 0.507573 0.016055
0.016055 0.507573 0.016055
0.016055 0.506411 0.016055
0.016055 0.506118 0.016055
0.016055 0.505754 0.016055
0.016055 0.505302 0.016055
0.016055 0.504741 0.016055
0.016055 0.504042 0.016055
0.016055 0.503173 0.016055
0.016055 0.502089 0.016055
0.016055 0.500738 0.016055
0.016055 0.499050 0.016055
0.119962 0.496937 0.016055
0.217698 0.494284 0.016055
0.307308 0.490945 0.016055
0.386197 0.486722 0.016055
0.454376 0.481352 0.016055
0.515197 0.474469 0.016055
0.570904 0.465561 0.016055
0.622708 0.453903 0.016055
0.671673 0.438412 0.016055
0.717893 0.417358 0.016055
0.762474 0.387892 0.016055
0.804726 0.344372 0.016055
0.822913 0.252328 0.016055
0.822913 0.117441 0.016055
0.822913 0.016055 0.019847
0.822913 0.016055 0.072495
0.822913 0.016055 0.112352
0.822913 0.016055 0.138764
0.822913 0.016055 0.158578
0.016055 0.551510 0.016055
0.016055 0.551510 0.016055
0.016055 0.551510 0.016055
0.016055 0.550586 0.016055
0.016055 0.550353 0.016055
0.016055 0.550064 0.016055
0.016055 0.549705 0.016055
0.016055 0.549260 0.016055
0.016055 0.548705 0.016055
0.016055 0.548016 0.016055
0.016055 0.547158 0.016055
0.016055 0.546089 0.016055
0.016055 0.544754 0.016055
0.024044 0.543087 0.016055
0.152184 0.540999 0.016055
0.259532 0.538379 0.016055
0.354193 0.535079 0.016055
0.431847 0.530909 0.016055
0.499066 0.525610 0.016055
0.558982 0.518829 0.016055
0.613761 0.510078 0.016055
0.664869 0.498653 0.016055
0.712737 0.483494 0.016055
0.758402 0.462811 0.016055
0.801762 0.433612 0.016055
0.822913 0.369761 0.016055
0.822912 0.258128 0.016055
0.822913 0.124726 0.016055
0.822912 0.016055 0.025820
0.822912 0.016055 0.078691
0.822913 0.016055 0.116135
0.822912 0.016055 0.141539
0.016055 0.594756 0.016055
0.016055 0.594756 0.016055
0.016055 0.594756 0.016055
0.016055 0.594025 0.016055
0.016055 0.593841 0.016055
0.016055 0.593612 0.016055
0.016055 0.593329 0.016055
0.016055 0.592977 0.016055
0.016055 0.592539 0.016055
0.016055 0.591995 0.016055
0.016055 0.591318 0.016055
0.016055 0.590476 0.016055
0.016055 0.589425 0.016055
0.016055 0.588115 0.016055
0.040621 0.586476 0.016055
0.188564 0.584424 0.016055
0.305172 0.581847 0.016055
0.399904 0.578601 0.016055
0.477010 0.574495 0.016055
0.543064 0.569276 0.016055
0.602052 0.562596 0.016055
0.656047 0.553971 0.016055
0.706133 0.542694 0.016055
0.753227 0.527722 0.016055
0.797978 0.507380 0.016055
0.822913 0.461125 0.016055
0.822913 0.373190 0.016055
0.822912 0.262720 0.016055
0.822912 0.130425 0.016055
0.822912 0.016055 0.030955
0.822912 0.016055 0.083520
0.822913 0.016055 0.119139
0.016055 0.637299 0.016055
0.016055 0.637299 0.016055
0.016055 0.637299 0.016055
0.016055 0.636716 0.016055
0.016055 0.636570 0.016055
0.016055 0.636388 0.016055
0.016055 0.636162 0.016055
0.016055 0.635882 0.016055
0.016055 0.635535 0.016055
0.016055 0.635103 0.016055
0.016055 0.634566 0.016055
0.016055 0.633898 0.016055
0.016055 0.633066 0.016055
0.016055 0.632029 0.016055
0.016055 0.630736 0.016055
0.065087 0.629120 0.016055
0.228141 0.627097 0.016055
0.352077 0.624558 0.016055
0.445489 0.621361 0.016055
0.521286 0.617321 0.016055
0.586422 0.612189 0.016055
0.644475 0.605629 0.016055
0.697561 0.597163 0.016055
0.746625 0.586090 0.016055
0.793091 0.571357 0.016055
0.822912 0.537980 0.016055
0.822913 0.463240 0.016055
0.822912 0.375904 0.016055
0.822912 0.266372 0.016055
0.822912 0.134951 0.016055
0.822912 0.016055 0.035238
0.822912 0.016055 0.087277
0.016055 0.679234 0.016055
0.016055 0.679234 0.016055
0.016055 0.679234 0.016055
0.016055 0.678773 0.016055
0.016055 0.678657 0.016055
0.016055 0.678513 0.016055
0.016055 0.678335 0.016055
0.016055 0.678113 0.016055
0.016055 0.677838 0.016055
0.016055 0.677497 0.016055
0.016055 0.677072 0.016055
0.016055 0.676545 0.016055
0.016055 0.675889 0.016055
0.016055 0.675072 0.016055
0.016055 0.674054 0.016055
0.016055 0.672783 0.016055
0.094584 0.671196 0.016055
0.270923 0.669207 0.016055
0.397820 0.666710 0.016055
0.490365 0.663563 0.016055
0.564982 0.659580 0.016055
0.629042 0.654516 0.016055
0.686252 0.648033 0.016055
0.738103 0.639669 0.016055
0.786740 0.628740 0.016055
0.822912 0.606389 0.016055
0.822913 0.539311 0.016055
0.822913 0.464923 0.016055
0.822912 0.378060 0.016055
0.822912 0.269283 0.016055
0.822913 0.138567 0.016055
0.822913 0.016055 0.038797
0.016055 0.720112 0.016055
0.016055 0.720112 0.016055
0.016055 0.720112 0.016055
0.016055 0.719749 0.016055
0.016055 0.719658 0.016055
0.016055 0.719545 0.016055
0.016055 0.719405 0.016055
0.016055 0.719231 0.016055
0.016055 0.719015 0.016055
0.016055 0.718747 0.016055
0.016055 0.718415 0.016055
0.016055 0.718002 0.016055
0.016055 0.717488 0.016055
0.016055 0.716850 0.016055
0.016055 0.716055 0.016055
0.016055 0.715065 0.016055
0.016055 0.713831 0.016055
0.124350 0.712289 0.016055
0.317277 0.710358 0.016055
0.443423 0.707935 0.016055
0.534465 0.704882 0.016055
0.607943 0.701016 0.016055
0.671099 0.696085 0.016055
0.726961 0.689754 0.016055
0.778439 0.681555 0.016055
0.822912 0.669781 0.016055
0.822912 0.607229 0.016055
0.822913 0.540375 0.016055
0.822912 0.466266 0.016055
0.822913 0.379780 0.016055
0.822912 0.271608 0.016055
0.822912 0.141453 0.016055
0.016055 0.760643 0.016055
0.016055 0.760643 0.016055
0.016055 0.760643 0.016055
0.016055 0.760350 0.016055
0.016055 0.760277 0.016055
0.016055 0.760185 0.016055
0.016055 0.760072 0.016055
0.016055 0.759932 0.016055
0.016055 0.759757 0.016055
0.016055 0.759541 0.016055
0.016055 0.759272 0.016055
0.016055 0.758938 0.016055
0.016055 0.758524 0.016055
0.016055 0.758008 0.016055
0.016055 0.757367 0.016055
0.016055 0.756569 0.016055
0.016055 0.755576 0.016055
0.016055 0.754337 0.016055
0.157159 0.752790 0.016055
0.363951 0.750856 0.016055
0.488343 0.748435 0.016055
0.577964 0.745390 0.016055
0.650299 0.741542 0.016055
0.712180 0.736657 0.016055
0.767467 0.730415 0.016055
0.816382 0.722375 0.016055
0.822913 0.670291 0.016055
0.822912 0.607901 0.016055
0.822912 0.541226 0.016055
0.822913 0.467341 0.016055
0.822913 0.381154 0.016055
0.822913 0.273465 0.016055
0.016055 0.800078 0.016055
0.016055 0.800078 0.016055
0.016055 0.800078 0.016055
0.016055 0.799859 0.016055
0.016055 0.799804 0.016055
0.016055 0.799735 0.016055
0.016055 0.799650 0.016055
0.016055 0.799545 0.016055
0.016055 0.799414 0.016055
0.016055 0.799252 0.016055
0.016055 0.799050 0.016055
0.016055 0.798799 0.016055
0.016055 0.798488 0.016055
0.016055 0.798100 0.016055
0.016055 0.797618 0.016055
0.016055 0.797016 0.016055
0.016055 0.796266 0.016055
0.016055 0.795328 0.016055
0.016055 0.794155 0.016055
0.194057 0.792684 0.016055
0.409574 0.790835 0.016055
0.532468 0.788503 0.016055
0.620708 0.785553 0.016055
0.691951 0.781808 0.016055
0.752668 0.777035 0.016055
0.806364 0.770904 0.016055
0.822913 0.730101 0.016055
0.822912 0.670701 0.016055
0.822913 0.608440 0.016055
0.822912 0.541909 0.016055
0.822913 0.468201 0.016055
0.822912 0.382252 0.016055
0.016055 0.822913 0.016055
0.016055 0.822913 0.016055
0.016055 0.822913 0.016055
0.016055 0.822912 0.016055
0.016055 0.822913 0.016055
0.016055 0.822912 0.016055
0.016055 0.822913 0.016055
0.016055 0.822913 0.016055
0.016055 0.822912 0.016055
0.016055 0.822912 0.016055
0.016055 0.822913 0.016055
0.016055 0.822913 0.016055
0.016055 0.822912 0.016055
0.016055 0.822913 0.016055
0.016055 0.822913 0.016055
0.016055 0.822912 0.016055
0.016055 0.822913 0.016055
0.016055 0.822912 0.016055
0.016055 0.822912 0.016055
0.016055 0.822912 0.016055
0.228087 0.822913 0.016055
0.449512 0.822913 0.016055
0.573035 0.822912 0.016055
0.662899 0.822749 0.016055
0.732564 0.819418 0.016055
0.792559 0.815119 0.016055
0.822912 0.789147 0.016055
0.822912 0.730321 0.016055
0.822912 0.671030 0.016055
0.822913 0.608872 0.016055
0.822913 0.542456 0.016055
0.822912 0.468889 0.016055
0.016055 0.822912 0.016055
0.016055 0.822912 0.016055
0.016055 0.822912 0.016055
0.016055 0.822912 0.016055
0.016055 0.822913 0.016055
0.016055 0.822912 0.016055
0.016055 0.822913 0.016055
0.016055 0.822913 0.016055
0.016055 0.822913 0.016055
0.016055 0.822912 0.016055
0.016055 0.822913 0.016055
0.016055 0.822913 0.016055
0.016055 0.822913 0.016055
0.016055 0.822913 0.016055
0.016055 0.822912 0.016055
0.016055 0.822913 0.016055
0.016055 0.822912 0.016055
0.016055 0.822913 0.016055
0.016055 0.822913 0.016055
0.016055 0.822912 0.016055
0.016055 0.822912 0.016055
0.234734 0.822913 0.016055
0.451865 0.822913 0.016055
0.574105 0.822912 0.016055
0.663618 0.822913 0.016055
0.736809 0.822913 0.016055
0.800998 0.822913 0.016055
0.822913 0.789223 0.016055
0.822913 0.730498 0.016055
0.822913 0.671294 0.016055
0.822912 0.609220 0.016055
0.822913 0.542895 0.016055
0.016055 0.822913 0.016055
0.016055 0.822913 0.016055
0.016055 0.822913 0.016055
0.016055 0.822912 0.016055
0.016055 0.822912 0.016055
0.016055 0.822912 0.016055
0.016055 0.822913 0.016055
0.016055 0.822913 0.016055
0.016055 0.822913 0.016055
0.016055 0.822913 0.016055
0.016055 0.822913 0.016055
0.016055 0.822913 0.016055
0.016055 0.822913 0.016055
0.016055 0.822913 0.016055
0.016055 0.822912 0.016055
0.016055 0.822913 0.016055
0.016055 0.822913 0.016055
0.016055 0.822913 0.016055
0.016055 0.822912 0.016055
0.016055 0.822913 0.016055
0.016055 0.822913 0.016055
0.016055 0.822913 0.016055
0.239974 0.822912 0.016055
