luts/Z-Log2/gain -4/zLog2_zRGB-ax2_32_gain-4.cube
TITLE "Generated by ZCAM"
LUT_3D_SIZE 8
DOMAIN_MIN 0.000000 0.000000 0.000000
DOMAIN_MAX 0.903226 0.903226 0.903226
0.016055 0.016055 0.016055
0.030467 0.016055 0.016055
0.138857 0.016055 0.016055
0.299173 0.016055 0.016055
0.482855 0.016055 0.016055
0.655901 0.016055 0.055693
0.816289 0.016055 0.181916
0.822913 0.016055 0.212029
0.016055 0.023304 0.016055
0.016055 0.016285 0.016055
0.119921 0.016055 0.016055
0.287750 0.016055 0.016055
0.478302 0.016055 0.016055
0.654097 0.016055 0.030744
0.815640 0.016055 0.164706
0.822912 0.016055 0.205594
0.016055 0.124357 0.016055
0.016055 0.117200 0.016055
0.089946 0.106701 0.016055
0.270863 0.078440 0.016055
0.471671 0.016055 0.016055
0.651517 0.016055 0.016055
0.814716 0.016055 0.138845
0.822913 0.016055 0.196215
0.016055 0.278430 0.016055
0.016055 0.274016 0.016055
0.016055 0.267693 0.016055
0.227523 0.252272 0.016055
0.454998 0.212786 0.016055
0.645274 0.090998 0.016055
0.812497 0.016055 0.063868
0.822912 0.016055 0.172548
0.016055 0.462995 0.016055
0.016055 0.461152 0.016055
0.016055 0.458518 0.016055
0.090384 0.452150 0.016055
0.408884 0.436224 0.016055
0.629626 0.392710 0.016055
0.807065 0.229938 0.016055
0.822913 0.016055 0.107541
0.016055 0.637299 0.016055
0.016055 0.636570 0.016055
0.016055 0.635535 0.016055
0.016055 0.633066 0.016055
0.228141 0.627097 0.016055
0.586422 0.612189 0.016055
0.793091 0.571357 0.016055
0.822912 0.266372 0.016055
0.016055 0.800078 0.016055
0.016055 0.799804 0.016055
0.016055 0.799414 0.016055
0.016055 0.798488 0.016055
0.016055 0.796266 0.016055
0.409574 0.790835 0.016055
0.752668 0.777035 0.016055
0.822913 0.608440 0.016055
0.016055 0.822913 0.016055
0.016055 0.822912 0.016055
0.016055 0.822912 0.016055
0.016055 0.822912 0.016055
0.016055 0.822912 0.016055
0.016055 0.822912 0.016055
0.455227 0.822912 0.016055
0.801062 0.822912 0.016055
0.016055 0.016055 0.021944
0.024870 0.016055 0.024781
0.133931 0.016055 0.028942
0.296198 0.016055 0.039420
0.481660 0.016055 0.068482
0.655424 0.016055 0.127026
0.816118 0.016055 0.228415
0.822912 0.016055 0.231306
0.016055 0.016055 0.016055
0.016055 0.016055 0.016055
0.114674 0.016055 0.016055
0.284641 0.016055 0.017831
0.477077 0.016055 0.041434
0.653616 0.016055 0.106714
0.815467 0.016055 0.213876
0.822913 0.016055 0.225355
0.016055 0.113247 0.016055
0.016055 0.105722 0.016055
0.083520 0.094398 0.016055
0.267609 0.063117 0.016055
0.470400 0.016055 0.016055
0.651029 0.016055 0.072654
0.814541 0.016055 0.191931
0.822913 0.016055 0.216671
0.016055 0.271610 0.016055
0.016055 0.267115 0.016055
0.016055 0.260661 0.016055
0.223824 0.244926 0.016055
0.453611 0.204385 0.016055
0.644769 0.077074 0.016055
0.812319 0.016055 0.132823
0.822913 0.016055 0.194810
0.016055 0.460148 0.016055
0.016055 0.458279 0.016055
0.016055 0.455605 0.016055
0.083988 0.449140 0.016055
0.407138 0.432956 0.016055
0.629077 0.388680 0.016055
0.806877 0.222066 0.016055
0.822913 0.016055 0.134635
0.016055 0.636174 0.016055
0.016055 0.635441 0.016055
0.016055 0.634399 0.016055
0.016055 0.631915 0.016055
0.224451 0.625909 0.016055
0.585729 0.610903 0.016055
0.792879 0.569750 0.016055
0.822913 0.263201 0.016055
0.016055 0.799655 0.016055
0.016055 0.799379 0.016055
0.016055 0.798988 0.016055
0.016055 0.798057 0.016055
0.016055 0.795827 0.016055
0.407834 0.790374 0.016055
0.752392 0.776530 0.016055
0.822913 0.607879 0.016055
0.016055 0.822912 0.016055
0.016055 0.822913 0.016055
0.016055 0.822913 0.016055
0.016055 0.822913 0.016055
0.016055 0.822912 0.016055
0.016055 0.822913 0.016055
0.454737 0.822912 0.016055
0.801155 0.822912 0.016055
0.016055 0.016055 0.123799
0.017557 0.016055 0.126492
0.126885 0.016055 0.130250
0.291929 0.016055 0.139002
0.479957 0.016055 0.158981
0.654749 0.016055 0.201943
0.815875 0.016055 0.284011
0.822912 0.016055 0.256629
0.016055 0.016055 0.103141
0.016055 0.016055 0.106128
0.107040 0.016055 0.110238
0.280197 0.016055 0.119624
0.475331 0.016055 0.140586
0.652934 0.016055 0.185913
0.815223 0.016055 0.271736
0.822912 0.016055 0.251145
0.016055 0.096341 0.068018
0.016055 0.087860 0.071883
0.073923 0.074829 0.077129
0.262960 0.042263 0.088803
0.468590 0.016055 0.112932
0.650338 0.016055 0.161641
0.814294 0.016055 0.253656
0.822913 0.016055 0.243223
0.016055 0.261746 0.016055
0.016055 0.257119 0.016055
0.016055 0.250476 0.016055
0.218499 0.234302 0.016055
0.451635 0.192073 0.030298
0.644054 0.055547 0.096039
0.812067 0.016055 0.206593
0.822912 0.016055 0.223598
0.016055 0.456054 0.016055
0.016055 0.454144 0.016055
0.016055 0.451413 0.016055
0.074418 0.444808 0.016055
0.404646 0.428245 0.016055
0.628298 0.382865 0.016055
0.806613 0.210517 0.047597
0.822913 0.016055 0.169712
0.016055 0.634574 0.016055
0.016055 0.633834 0.016055
0.016055 0.632783 0.016055
0.016055 0.630277 0.016055
0.219141 0.624216 0.016055
0.584745 0.609071 0.016055
0.792579 0.567457 0.016055
0.822912 0.258667 0.016055
0.016055 0.799053 0.016055
0.016055 0.798775 0.016055
0.016055 0.798382 0.016055
0.016055 0.797446 0.016055
0.016055 0.795203 0.016055
0.405351 0.789721 0.016055
0.752001 0.775813 0.016055
0.822913 0.607084 0.016055
0.016055 0.822913 0.016055
0.016055 0.822913 0.016055
0.016055 0.822913 0.016055
0.016055 0.822913 0.016055
0.016055 0.822913 0.016055
0.016055 0.822913 0.016055
0.454040 0.822912 0.016055
0.801288 0.822912 0.016055
0.016055 0.016055 0.279189
0.016055 0.016055 0.280868
0.109430 0.016055 0.283227
0.281571 0.016055 0.288737
0.475871 0.016055 0.301320
0.653144 0.016055 0.328710
0.815298 0.016055 0.381421
0.822912 0.016055 0.310072
0.016055 0.016055 0.266760
0.016055 0.016055 0.268493
0.087285 0.016055 0.270927
0.269501 0.016055 0.276613
0.471139 0.016055 0.289734
0.651313 0.016055 0.318402
0.814642 0.016055 0.373681
0.822912 0.016055 0.305534
0.016055 0.047806 0.248411
0.016055 0.038868 0.250237
0.049939 0.027415 0.252801
0.251722 0.016055 0.258790
0.464241 0.016055 0.272543
0.648693 0.016055 0.302990
0.813709 0.016055 0.362179
0.822912 0.016055 0.298972
0.016055 0.237297 0.200447
0.016055 0.232348 0.202591
0.016055 0.225207 0.205594
0.205490 0.207509 0.212568
0.446885 0.160716 0.228368
0.642353 0.016055 0.262735
0.811468 0.016055 0.331701
0.822913 0.016055 0.282579
0.016055 0.446025 0.037766
0.016055 0.444015 0.041046
0.016055 0.441139 0.045874
0.050457 0.434166 0.058275
0.398638 0.416671 0.087507
0.626444 0.368467 0.140805
0.805984 0.181193 0.238425
0.822913 0.016055 0.239602
0.016055 0.630735 0.016055
0.016055 0.629980 0.016055
0.016055 0.628907 0.016055
0.016055 0.626347 0.016055
0.206161 0.620156 0.016055
0.582399 0.604670 0.016055
0.791868 0.561924 0.016055
0.822912 0.247692 0.097633
0.016055 0.797617 0.016055
0.016055 0.797336 0.016055
0.016055 0.796937 0.016055
0.016055 0.795989 0.016055
0.016055 0.793715 0.016055
0.399363 0.788165 0.016055
0.751074 0.774104 0.016055
0.822912 0.605186 0.016055
0.016055 0.822913 0.016055
0.016055 0.822912 0.016055
0.016055 0.822912 0.016055
0.016055 0.822912 0.016055
0.016055 0.822913 0.016055
0.016055 0.822913 0.016055
0.452376 0.822913 0.016055
0.801602 0.822912 0.016055
0.016055 0.016055 0.464399
0.016055 0.016055 0.465096
0.058508 0.016055 0.466076
0.255859 0.016055 0.468373
0.465837 0.016055 0.473691
0.649294 0.016055 0.485678
0.813922 0.016055 0.511328
0.822912 0.016055 0.401374
0.016055 0.016055 0.459247
0.016055 0.016055 0.459963
0.033643 0.016055 0.460970
0.242874 0.016055 0.463330
0.460841 0.016055 0.468790
0.647424 0.016055 0.481091
0.813258 0.016055 0.507315
0.822913 0.016055 0.398609
0.016055 0.016055 0.451727
0.016055 0.016055 0.452471
0.016055 0.016055 0.453517
0.223671 0.016055 0.455968
0.453554 0.016055 0.461640
0.644749 0.016055 0.474407
0.812312 0.016055 0.501500
0.822913 0.016055 0.394624
0.016055 0.170107 0.432718
0.016055 0.163809 0.433538
0.016055 0.154720 0.434691
0.172169 0.132385 0.437388
0.435176 0.068870 0.443617
0.638270 0.016055 0.457589
0.810041 0.016055 0.487036
0.822913 0.016055 0.384837
0.016055 0.420076 0.379261
0.016055 0.417789 0.380313
0.016055 0.414512 0.381791
0.016055 0.406553 0.385245
0.383753 0.386465 0.393211
0.621989 0.329185 0.410961
0.804486 0.098649 0.447669
0.822913 0.016055 0.359225
0.016055 0.621337 0.154997
0.016055 0.620542 0.157483
0.016055 0.619414 0.160971
0.016055 0.616721 0.169087
0.172921 0.610202 0.187428
0.576733 0.593837 0.226597
0.790169 0.548163 0.303296
0.822913 0.220153 0.276468
0.016055 0.794147 0.016055
0.016055 0.793856 0.016055
0.016055 0.793445 0.016055
0.016055 0.792467 0.016055
0.016055 0.790124 0.016055
0.384526 0.784414 0.016055
0.748868 0.769975 0.016055
0.822913 0.600597 0.016055
0.016055 0.822912 0.016055
0.016055 0.822913 0.016055
0.016055 0.822912 0.016055
0.016055 0.822913 0.016055
0.016055 0.822913 0.016055
0.016055 0.822913 0.016055
0.448338 0.822912 0.016055
0.802351 0.822912 0.016055
0.016055 0.016055 0.638874
0.016055 0.016055 0.639151
0.016055 0.016055 0.639541
0.185568 0.016055 0.640459
0.439807 0.016055 0.642610
0.639867 0.016055 0.647597
0.810598 0.016055 0.658873
0.822913 0.016055 0.527206
0.016055 0.016055 0.636849
0.016055 0.016055 0.637129
0.016055 0.016055 0.637523
0.168970 0.016055 0.638451
0.434086 0.016055 0.640626
0.637898 0.016055 0.645666
0.809912 0.016055 0.657057
0.822913 0.016055 0.525899
0.016055 0.016055 0.633949
0.016055 0.016055 0.634233
0.016055 0.016055 0.634633
0.143997 0.016055 0.635577
0.425714 0.016055 0.637786
0.635080 0.016055 0.642903
0.808936 0.016055 0.654461
0.822913 0.016055 0.524031
0.016055 0.016055 0.626909
0.016055 0.016055 0.627204
0.016055 0.016055 0.627620
0.073745 0.016055 0.628599
0.404474 0.016055 0.630893
0.628244 0.016055 0.636204
0.806594 0.016055 0.648174
0.822913 0.016055 0.519506
0.016055 0.341532 0.609143
0.016055 0.338135 0.609467
0.016055 0.333238 0.609924
0.016055 0.321149 0.610999
0.343508 0.289704 0.613516
0.611024 0.199618 0.619335
0.800869 0.016055 0.632411
0.822913 0.016055 0.508150
0.016055 0.597074 0.558870
0.016055 0.596170 0.559295
0.016055 0.594885 0.559894
0.016055 0.591811 0.561301
0.074914 0.584334 0.564587
0.562614 0.565353 0.572130
0.786065 0.511052 0.588823
0.822913 0.141057 0.476831
0.016055 0.785522 0.322818
0.016055 0.785212 0.324236
0.016055 0.784771 0.326220
0.016055 0.783726 0.330827
0.016055 0.781226 0.341295
0.344463 0.775160 0.364003
0.743550 0.759725 0.408989
0.822912 0.589116 0.356435
0.016055 0.822912 0.016055
0.016055 0.822912 0.016055
0.016055 0.822912 0.016055
0.016055 0.822912 0.016055
0.016055 0.822913 0.016055
0.016055 0.822912 0.016055
0.438148 0.822912 0.016055
0.804160 0.822912 0.016055
0.016055 0.016055 0.801577
0.016055 0.016055 0.801681
0.016055 0.016055 0.801827
0.016055 0.016055 0.802172
0.360627 0.016055 0.802985
0.615468 0.016055 0.804884
0.802323 0.016055 0.809252
0.822913 0.016055 0.674785
0.016055 0.016055 0.800819
0.016055 0.016055 0.800923
0.016055 0.016055 0.801071
0.016055 0.016055 0.801418
0.352125 0.016055 0.802236
0.613223 0.016055 0.804146
0.801586 0.016055 0.808542
0.822913 0.016055 0.674360
0.016055 0.016055 0.799738
0.016055 0.016055 0.799844
0.016055 0.016055 0.799993
0.016055 0.016055 0.800344
0.339414 0.016055 0.801169
0.610006 0.016055 0.803096
0.800538 0.016055 0.807530
0.822912 0.016055 0.673754
0.016055 0.016055 0.797139
0.016055 0.016055 0.797247
0.016055 0.016055 0.797400
0.016055 0.016055 0.797760
0.305743 0.016055 0.798606
0.602177 0.016055 0.800578
0.798018 0.016055 0.805105
0.822913 0.016055 0.672302
0.016055 0.016055 0.790743
0.016055 0.016055 0.790857
0.016055 0.016055 0.791018
0.016055 0.016055 0.791399
0.205248 0.016055 0.792294
0.582237 0.016055 0.794382
0.791819 0.016055 0.799167
0.822913 0.016055 0.668755
0.016055 0.522739 0.774287
0.016055 0.521393 0.774415
0.016055 0.519476 0.774596
0.016055 0.514867 0.775022
0.016055 0.503522 0.776023
0.524339 0.473745 0.778365
0.775878 0.377338 0.783768
0.822912 0.016055 0.659647
0.016055 0.762812 0.727056
0.016055 0.762450 0.727223
0.016055 0.761937 0.727460
0.016055 0.760718 0.728018
0.016055 0.757806 0.729331
0.206834 0.750742 0.732397
0.730336 0.732956 0.739446
0.822913 0.557652 0.632975
0.016055 0.822912 0.379247
0.016055 0.822912 0.379937
0.016055 0.822913 0.380907
0.016055 0.822912 0.383192
0.016055 0.822913 0.388548
0.016055 0.822913 0.400959
0.409696 0.822912 0.428869
0.808655 0.822912 0.488149
0.016055 0.016055 0.822912
0.016055 0.016055 0.822912
0.016055 0.016055 0.822912
0.016055 0.016055 0.822912
0.016055 0.016055 0.822912
0.394975 0.016055 0.822912
0.638452 0.016055 0.822912
0.816306 0.016055 0.822912
0.016055 0.016055 0.822912
0.016055 0.016055 0.822912
0.016055 0.016055 0.822912
0.016055 0.016055 0.822912
0.016055 0.016055 0.822912
0.391985 0.016055 0.822912
0.637871 0.016055 0.822912
0.816301 0.016055 0.822912
0.016055 0.016055 0.822912
0.016055 0.016055 0.822912
0.016055 0.016055 0.822912
0.016055 0.016055 0.822912
0.016055 0.016055 0.822912
0.387672 0.016055 0.822912
0.637043 0.016055 0.822912
0.816293 0.016055 0.822912
0.016055 0.016055 0.822912
0.016055 0.016055 0.822912
0.016055 0.016055 0.822912
0.016055 0.016055 0.822912
0.016055 0.016055 0.822912
0.377059 0.016055 0.822912
0.635055 0.016055 0.822913
0.816275 0.016055 0.822912
0.016055 0.016055 0.822912
0.016055 0.016055 0.822912
0.016055 0.016055 0.822912
0.016055 0.016055 0.822912
0.016055 0.016055 0.822912
0.348741 0.016055 0.822912
0.630170 0.016055 0.822912
0.816232 0.016055 0.822912
0.016055 0.016055 0.822912
0.016055 0.016055 0.822912
0.016055 0.016055 0.822912
0.016055 0.016055 0.822912
0.016055 0.016055 0.822912
0.255603 0.016055 0.822913
0.617453 0.016055 0.822912
0.816126 0.016055 0.822912
0.016055 0.581344 0.822912
0.016055 0.580740 0.822912
0.016055 0.579883 0.822912
0.016055 0.577846 0.822912
0.016055 0.572958 0.822912
0.016055 0.560969 0.822912
0.578485 0.529808 0.822912
0.815842 0.432011 0.822912
0.016055 0.822913 0.790557
0.016055 0.822913 0.790770
0.016055 0.822912 0.791072
0.016055 0.822912 0.791785
0.016055 0.822912 0.793470
0.016055 0.822913 0.797440
0.297276 0.822913 0.806750
0.814908 0.817239 0.822912
