luts/Z-Log2/gain -4/zLog2_zRGB-ax2_32_gain-4_desatuation.cube
TITLE "Generated by ZCAM"
LUT_3D_SIZE 32
0.016055 0.016055 0.016055
0.016055 0.016055 0.016055
0.016055 0.016055 0.016055
0.016055 0.016055 0.016055
0.017205 0.016318 0.016318
0.031489 0.019306 0.019306
0.052639 0.022794 0.022794
0.081618 0.025757 0.025757
0.111749 0.026611 0.026611
0.143562 0.025050 0.025050
0.179525 0.020239 0.020239
0.218895 0.008390 0.008390
0.261265 -0.013990 -0.013990
0.307394 -0.042213 -0.042213
0.354572 -0.051648 -0.051648
0.400514 -0.060837 -0.060837
0.446281 -0.069990 -0.069990
0.491288 -0.078992 -0.078992
0.535495 -0.087833 -0.087833
0.579071 -0.096548 -0.096548
0.621872 -0.105108 -0.105108
0.664105 -0.113555 -0.113555
0.705438 -0.115573 -0.100266
0.745969 -0.074006 -0.037641
0.786133 -0.027412 0.036378
0.823275 0.020461 0.110333
0.855476 0.065687 0.179956
0.883756 0.108257 0.248159
0.908073 0.146994 0.313553
0.928055 0.180298 0.374485
0.944136 0.208069 0.431953
0.957454 0.231720 0.485587
0.016055 0.016055 0.016055
0.016055 0.016055 0.016055
0.016055 0.016055 0.016055
0.016055 0.016055 0.016055
0.017205 0.016318 0.016318
0.031489 0.019306 0.019306
0.052639 0.022794 0.022794
0.081618 0.025757 0.025757
0.111749 0.026611 0.026611
0.143562 0.025050 0.025050
0.179525 0.020239 0.020239
0.218895 0.008390 0.008390
0.261265 -0.013990 -0.013990
0.307394 -0.042213 -0.042213
0.354572 -0.051648 -0.051648
0.400514 -0.060837 -0.060837
0.446281 -0.069990 -0.069990
0.491288 -0.078992 -0.078992
0.535495 -0.087833 -0.087833
0.579071 -0.096548 -0.096548
0.621872 -0.105108 -0.105108
0.664105 -0.113555 -0.113555
0.705438 -0.115573 -0.100266
0.745969 -0.074006 -0.037641
0.786133 -0.027412 0.036378
0.823275 0.020461 0.110333
0.855476 0.065687 0.179956
0.883756 0.108257 0.248159
0.908073 0.146994 0.313553
0.928055 0.180298 0.374485
0.944136 0.208069 0.431953
0.957454 0.231720 0.485587
0.016055 0.016055 0.016055
0.016055 0.016055 0.016055
0.016055 0.016055 0.016055
0.016055 0.016055 0.016055
0.017205 0.016318 0.016318
0.031489 0.019306 0.019306
0.052639 0.022794 0.022794
0.081618 0.025757 0.025757
0.111749 0.026611 0.026611
0.143562 0.025050 0.025050
0.179525 0.020239 0.020239
0.218895 0.008390 0.008390
0.261265 -0.013990 -0.013990
0.307394 -0.042213 -0.042213
0.354572 -0.051648 -0.051648
0.400514 -0.060837 -0.060837
0.446281 -0.069990 -0.069990
0.491288 -0.078992 -0.078992
0.535495 -0.087833 -0.087833
0.579071 -0.096548 -0.096548
0.621872 -0.105108 -0.105108
0.664105 -0.113555 -0.113555
0.705438 -0.115573 -0.100266
0.745969 -0.074006 -0.037641
0.786133 -0.027412 0.036378
0.823275 0.020461 0.110333
0.855476 0.065687 0.179956
0.883756 0.108257 0.248159
0.908073 0.146994 0.313553
0.928055 0.180298 0.374485
0.944136 0.208069 0.431953
0.957454 0.231720 0.485587
0.016055 0.016055 0.016055
0.016055 0.016055 0.016055
0.016055 0.016055 0.016055
0.016055 0.016055 0.016055
0.016055 0.016055 0.016055
0.023079 0.017608 0.017608
0.042326 0.021233 0.021233
0.071177 0.024931 0.024931
0.103428 0.026602 0.026602
0.136189 0.025637 0.025637
0.172867 0.021374 0.021374
0.213100 0.010893 0.010893
0.256207 -0.010941 -0.010941
0.303045 -0.041343 -0.041343
0.351107 -0.050955 -0.050955
0.397767 -0.060287 -0.060287
0.444089 -0.069552 -0.069552
0.489562 -0.078646 -0.078646
0.534121 -0.087558 -0.087558
0.577982 -0.096330 -0.096330
0.621008 -0.104936 -0.104936
0.663419 -0.113418 -0.113418
0.704901 -0.116087 -0.110731
0.745537 -0.074477 -0.049324
0.785796 -0.027826 0.024234
0.823035 0.020137 0.101264
0.855307 0.065441 0.172554
0.883637 0.108073 0.241766
0.907992 0.146861 0.308245
0.928002 0.180209 0.370071
0.944102 0.208009 0.428241
0.957431 0.231679 0.482690
0.016055 0.016055 0.016055
0.016055 0.016055 0.016055
0.016055 0.016055 0.016055
0.016055 0.016055 0.016055
0.016055 0.016055 0.016055
0.021099 0.017183 0.017183
0.039949 0.020835 0.020835
0.068421 0.024668 0.024668
0.101274 0.026572 0.026572
0.134322 0.025764 0.025764
0.171173 0.021644 0.021644
0.211629 0.011506 0.011506
0.254926 -0.010185 -0.010185
0.301944 -0.041123 -0.041123
0.350227 -0.050779 -0.050779
0.397073 -0.060149 -0.060149
0.443536 -0.069441 -0.069441
0.489126 -0.078559 -0.078559
0.533775 -0.087489 -0.087489
0.577707 -0.096275 -0.096275
0.620790 -0.104892 -0.104892
0.663246 -0.113383 -0.113383
0.704766 -0.116216 -0.113204
0.745429 -0.074595 -0.052082
0.785711 -0.027930 0.021121
0.822974 0.020055 0.098895
0.855265 0.065379 0.170677
0.883608 0.108027 0.240137
0.907972 0.146828 0.306897
0.927989 0.180187 0.368954
0.944093 0.207994 0.427299
0.957425 0.231669 0.481955
0.018424 0.027009 0.018424
0.018424 0.027009 0.018424
0.018424 0.027009 0.018424
0.017800 0.023986 0.017800
0.017642 0.023238 0.017642
0.019504 0.022320 0.017446
0.037052 0.024442 0.020332
0.064926 0.027461 0.024306
0.098546 0.028399 0.026516
0.132000 0.026064 0.025910
0.169057 0.021973 0.021973
0.209791 0.012261 0.012261
0.253333 -0.009254 -0.009254
0.300573 -0.040849 -0.040849
0.349130 -0.050560 -0.050560
0.396209 -0.059976 -0.059976
0.442847 -0.069303 -0.069303
0.488585 -0.078451 -0.078451
0.533345 -0.087403 -0.087403
0.577367 -0.096207 -0.096207
0.620520 -0.104838 -0.104838
0.663032 -0.113340 -0.113340
0.704599 -0.116376 -0.116165
0.745294 -0.074742 -0.055434
0.785606 -0.028059 0.017376
0.822899 0.019954 0.095913
0.855212 0.065303 0.168335
0.883571 0.107969 0.238109
0.907947 0.146787 0.305215
0.927973 0.180159 0.367565
0.944083 0.207975 0.426126
0.957418 0.231656 0.481038
0.021795 0.045842 0.021795
0.021795 0.045842 0.021795
0.021795 0.045842 0.021795
0.021224 0.042270 0.021224
0.021077 0.041385 0.021077
0.020897 0.040314 0.020897
0.034677 0.038997 0.020672
0.060700 0.041426 0.023829
0.095100 0.043232 0.026420
0.129102 0.041514 0.026074
0.166412 0.035809 0.022368
0.207497 0.023850 0.013185
0.251347 -0.001144 -0.008108
0.298859 -0.038128 -0.039860
0.347762 -0.050286 -0.050286
0.395133 -0.059760 -0.059760
0.441990 -0.069132 -0.069132
0.487911 -0.078316 -0.078316
0.532810 -0.087296 -0.087296
0.576943 -0.096123 -0.096123
0.620185 -0.104771 -0.104771
0.662766 -0.113287 -0.113287
0.704391 -0.116575 -0.116575
0.745128 -0.074924 -0.059481
0.785475 -0.028218 0.012919
0.822806 0.019828 0.092124
0.855147 0.065207 0.165394
0.883525 0.107898 0.235579
0.907916 0.146736 0.303113
0.927953 0.180125 0.365835
0.944070 0.207952 0.424660
0.957410 0.231640 0.479895
0.025139 0.073505 0.025139
0.025139 0.073505 0.025139
0.025139 0.073505 0.025139
0.024775 0.069515 0.024775
0.024676 0.068506 0.024676
0.024548 0.067233 0.024548
0.035501 0.065641 0.024383
0.057051 0.063668 0.024169
0.090709 0.065328 0.026254
0.125475 0.064671 0.026248
0.163105 0.059977 0.022837
0.204627 0.049068 0.014310
0.248869 0.025219 -0.006700
0.296714 -0.010764 -0.038232
0.346052 -0.030862 -0.049944
0.393791 -0.050324 -0.059492
0.440922 -0.068918 -0.068918
0.487073 -0.078149 -0.078149
0.532146 -0.087163 -0.087163
0.576417 -0.096017 -0.096017
0.619769 -0.104688 -0.104688
0.662436 -0.113221 -0.113221
0.704133 -0.116821 -0.116821
0.744921 -0.075150 -0.064357
0.785313 -0.028417 0.007100
0.822691 0.019673 0.087254
0.855066 0.065089 0.161687
0.883468 0.107810 0.232418
0.907877 0.146673 0.300483
0.927928 0.180082 0.363676
0.944053 0.207923 0.422831
0.957399 0.231620 0.478466
0.026606 0.103727 0.026606
0.026606 0.103727 0.026606
0.026606 0.103727 0.026606
0.026559 0.100566 0.026559
0.026543 0.099760 0.026543
0.026521 0.098761 0.026521
0.033815 0.097517 0.026491
0.055367 0.095942 0.026446
0.086219 0.093989 0.026382
0.120890 0.094406 0.026422
0.158961 0.091979 0.023386
0.201028 0.084102 0.015675
0.245774 0.063929 -0.004976
0.294026 0.030904 -0.036218
0.343912 0.007754 -0.049516
0.392116 -0.014327 -0.059157
0.439589 -0.038761 -0.068652
0.486028 -0.064142 -0.077940
0.531318 -0.086998 -0.086998
0.575763 -0.095887 -0.095887
0.619251 -0.104584 -0.104584
0.662025 -0.113139 -0.113139
0.703812 -0.117126 -0.117126
0.744664 -0.075430 -0.070105
0.785112 -0.028663 0.000351
0.822547 0.019479 0.080975
0.854965 0.064943 0.157016
0.883398 0.107701 0.228465
0.907829 0.146594 0.297178
0.927896 0.180029 0.360978
0.944033 0.207888 0.420542
0.957385 0.231596 0.476678
0.025734 0.134786 0.025734
0.025734 0.134786 0.025734
0.025734 0.134786 0.025734
0.025907 0.132051 0.025907
0.025948 0.131361 0.025948
0.025997 0.130504 0.025997
0.028441 0.129442 0.026055
0.049675 0.128119 0.026124
0.082114 0.126470 0.026204
0.115970 0.124411 0.026293
0.153769 0.123681 0.024013
0.196505 0.118933 0.016843
0.241907 0.103840 -0.002874
0.290654 0.076500 -0.033732
0.341224 0.055040 -0.048979
0.390022 0.034916 -0.058738
0.437924 0.011445 -0.068319
0.484725 -0.017008 -0.077679
0.530287 -0.050106 -0.086791
0.574948 -0.084243 -0.095724
0.618607 -0.104455 -0.104455
0.661515 -0.113037 -0.113037
0.703414 -0.117506 -0.117506
0.744344 -0.075777 -0.075777
0.784862 -0.028968 -0.007414
0.822369 0.019239 0.072786
0.854840 0.064761 0.151085
0.883310 0.107565 0.223496
0.907769 0.146496 0.293023
0.927858 0.179963 0.357595
0.944007 0.207843 0.417679
0.957368 0.231566 0.474432
0.021873 0.169711 0.021873
0.021873 0.169711 0.021873
0.021873 0.169711 0.021873
0.022251 0.167204 0.022251
0.022344 0.166573 0.022344
0.022458 0.165790 0.022458
0.022598 0.164812 0.022598
0.039463 0.163598 0.022769
0.072321 0.162088 0.022976
0.110298 0.160207 0.023225
0.147791 0.157861 0.023524
0.190791 0.155349 0.018066
0.237056 0.144924 -0.000324
0.286413 0.122552 -0.030670
0.337842 0.101560 -0.048302
0.387399 0.082945 -0.058214
0.435839 0.062267 -0.067902
0.483096 0.038615 -0.077353
0.529001 0.010486 -0.086534
0.573933 -0.025454 -0.095521
0.617806 -0.071018 -0.104295
0.660880 -0.112910 -0.112910
0.702919 -0.117976 -0.117976
0.743948 -0.076208 -0.076208
0.784552 -0.029348 -0.016446
0.822148 0.018941 0.062259
0.854685 0.064536 0.143383
0.883201 0.107396 0.217239
0.907695 0.146375 0.287773
0.927810 0.179882 0.353334
0.943976 0.207788 0.414093
0.957347 0.231528 0.471599
0.012856 0.208320 0.012856
0.012856 0.208320 0.012856
0.012856 0.208320 0.012856
0.013725 0.206130 0.013725
0.013941 0.205577 0.013941
0.014208 0.204892 0.014208
0.014536 0.204040 0.014536
0.022871 0.202977 0.014942
0.055146 0.201659 0.015439
0.097989 0.200011 0.016051
0.139120 0.197957 0.016519
0.183611 0.195390 0.017088
0.230941 0.189774 0.002757
0.281076 0.173066 -0.026918
0.333571 0.152944 -0.047448
0.384107 0.135119 -0.057555
0.433224 0.115483 -0.067379
0.481057 0.093382 -0.076945
0.527395 0.068106 -0.086213
0.572667 0.038440 -0.095267
0.616807 0.002213 -0.104095
0.660091 -0.047239 -0.112752
0.702303 -0.105772 -0.118560
0.743455 -0.076743 -0.076743
0.784167 -0.029818 -0.026790
0.821873 0.018571 0.049709
0.854493 0.064255 0.133236
0.883066 0.107187 0.209345
0.907603 0.146225 0.281116
0.927750 0.179780 0.347931
0.943937 0.207720 0.409595
0.957321 0.231482 0.468004
-0.007258 0.249856 -0.007258
-0.007258 0.249856 -0.007258
-0.007258 0.249856 -0.007258
-0.006184 0.247951 -0.006184
-0.005917 0.247472 -0.005917
-0.005586 0.246878 -0.005586
-0.005176 0.246138 -0.005176
-0.004671 0.245221 -0.004671
0.023281 0.244079 -0.004047
0.071503 0.242662 -0.003280
0.119318 0.240895 -0.002335
0.169325 0.238694 -0.001174
0.222245 0.235946 0.000247
0.274353 0.226280 -0.022355
0.328146 0.208186 -0.046363
0.379959 0.191266 -0.056726
0.429934 0.172941 -0.066721
0.478497 0.152602 -0.076433
0.525384 0.129568 -0.085811
0.571086 0.102702 -0.094951
0.615562 0.070515 -0.103846
0.659106 0.031072 -0.112555
0.701536 -0.017710 -0.119286
0.742842 -0.044286 -0.077407
0.783687 -0.030403 -0.030403
0.821531 0.018110 0.035730
0.854254 0.063907 0.119391
0.882898 0.106927 0.199270
0.907488 0.146038 0.272606
0.927676 0.179655 0.341040
0.943889 0.207636 0.403914
0.957289 0.231424 0.463431
-0.037083 0.295185 -0.037083
-0.037083 0.295185 -0.037083
-0.037083 0.295185 -0.037083
-0.035840 0.293517 -0.035840
-0.035529 0.293098 -0.035529
-0.035143 0.292575 -0.035143
-0.034664 0.291926 -0.034664
-0.034074 0.291121 -0.034074
-0.021873 0.290116 -0.033340
0.027273 0.288869 -0.032434
0.084927 0.287312 -0.031313
0.141438 0.285372 -0.029929
0.201610 0.282950 -0.028223
0.263606 0.279922 -0.026123
0.321190 0.267129 -0.044972
0.374702 0.250743 -0.055674
0.425779 0.233371 -0.065890
0.475272 0.214425 -0.075789
0.522861 0.193411 -0.085306
0.569106 0.169502 -0.094555
0.614008 0.141506 -0.103536
0.657878 0.107484 -0.112310
0.700580 0.065320 -0.120189
0.742079 0.052428 -0.078232
0.783090 0.029225 -0.031130
0.821105 0.017537 0.020471
0.853956 0.063475 0.100840
0.882690 0.106604 0.186075
0.907346 0.145806 0.261722
0.927584 0.179498 0.332205
0.943829 0.207530 0.396706
0.957249 0.231352 0.457594
-0.049225 0.342453 -0.049225
-0.049225 0.342453 -0.049225
-0.049225 0.342453 -0.049225
-0.048956 0.341108 -0.048956
-0.048888 0.340769 -0.048888
-0.048804 0.340349 -0.048804
-0.048699 0.339825 -0.048699
-0.048569 0.339176 -0.048569
-0.048407 0.338366 -0.048407
-0.014841 0.337360 -0.048206
0.049067 0.336103 -0.047955
0.109671 0.334535 -0.047641
0.173834 0.332576 -0.047249
0.239997 0.330118 -0.046758
0.309271 0.327024 -0.046139
0.367982 0.314140 -0.054330
0.420510 0.297685 -0.064836
0.471194 0.279985 -0.074973
0.519687 0.260645 -0.084671
0.566621 0.238873 -0.094058
0.612062 0.213702 -0.103146
0.656344 0.184050 -0.112003
0.699386 0.148172 -0.120611
0.741129 0.139555 -0.079257
0.782347 0.127503 -0.032033
0.820574 0.103777 0.016824
0.853586 0.062937 0.079729
0.882430 0.106202 0.167783
0.907169 0.145518 0.247729
0.927470 0.179304 0.320775
0.943754 0.207400 0.387515
0.957200 0.231263 0.450126
-0.058464 0.388652 -0.058464
-0.058464 0.388652 -0.058464
-0.058464 0.388652 -0.058464
-0.058253 0.387595 -0.058253
-0.058200 0.387328 -0.058200
-0.058134 0.386998 -0.058134
-0.058052 0.386588 -0.058052
-0.057950 0.386079 -0.057950
-0.057823 0.385446 -0.057823
-0.052289 0.384659 -0.057666
0.007971 0.383680 -0.057470
0.076348 0.382461 -0.057226
0.143953 0.380938 -0.056922
0.213532 0.379037 -0.056541
0.285474 0.376655 -0.056065
0.356404 0.373663 -0.055467
0.413789 0.361107 -0.063492
0.466010 0.344912 -0.073936
0.515678 0.327619 -0.083870
0.563495 0.308560 -0.093433
0.609622 0.286976 -0.102658
0.654423 0.261758 -0.111619
0.697893 0.231232 -0.120312
0.739944 0.223654 -0.080531
0.781421 0.216946 -0.033157
0.819911 0.204364 0.015936
0.853124 0.173766 0.062267
0.882108 0.106774 0.141366
0.906949 0.145159 0.229487
0.927328 0.179063 0.305804
0.943662 0.207238 0.375704
0.957138 0.231152 0.440438
-0.067637 0.434517 -0.067637
-0.067637 0.434517 -0.067637
-0.067637 0.434517 -0.067637
-0.067467 0.433668 -0.067467
-0.067425 0.433454 -0.067425
-0.067372 0.433188 -0.067372
-0.067306 0.432859 -0.067306
-0.067224 0.432449 -0.067224
-0.067122 0.431941 -0.067122
-0.066996 0.431308 -0.066996
-0.042605 0.430522 -0.066838
0.034922 0.429542 -0.066642
0.107686 0.428320 -0.066398
0.182318 0.426797 -0.066093
0.257675 0.424891 -0.065712
0.332931 0.422504 -0.065235
0.402261 0.419507 -0.064635
0.459378 0.407001 -0.072610
0.510588 0.391021 -0.082852
0.559545 0.373922 -0.092643
0.606553 0.355158 -0.102045
0.652013 0.333973 -0.111137
0.696021 0.309397 -0.119938
0.738465 0.304225 -0.082115
0.780264 0.301911 -0.034555
0.819083 0.295659 0.014828
0.852549 0.278589 0.061433
0.881705 0.242182 0.112126
0.906675 0.158005 0.203694
0.927150 0.178762 0.286004
0.943547 0.207036 0.360122
0.957061 0.231015 0.427858
-0.076694 0.479798 -0.076694
-0.076694 0.479798 -0.076694
-0.076694 0.479798 -0.076694
-0.076560 0.479128 -0.076560
-0.076526 0.478959 -0.076526
-0.076484 0.478750 -0.076484
-0.076432 0.478490 -0.076432
-0.076368 0.478167 -0.076368
-0.076287 0.477766 -0.076287
-0.076188 0.477269 -0.076188
-0.076064 0.476649 -0.076064
-0.023768 0.475878 -0.075910
0.062675 0.474917 -0.075717
0.143902 0.473719 -0.075478
0.224451 0.472222 -0.075178
0.305161 0.470350 -0.074804
0.379063 0.468002 -0.074334
0.447984 0.465050 -0.073744
0.504088 0.452772 -0.081552
0.554530 0.437018 -0.091640
0.602677 0.420169 -0.101269
0.648980 0.401642 -0.110530
0.693669 0.380675 -0.119468
0.736613 0.375632 -0.084086
0.778819 0.376250 -0.036297
0.818046 0.376681 0.013443
0.851830 0.370667 0.060393
0.881203 0.350849 0.104305
0.906334 0.307957 0.165454
0.926930 0.208619 0.259603
0.943404 0.206785 0.339172
0.956966 0.230843 0.411444
-0.085568 0.524171 -0.085568
-0.085568 0.524171 -0.085568
-0.085568 0.524171 -0.085568
-0.085462 0.523638 -0.085462
-0.085435 0.523504 -0.085435
-0.085402 0.523338 -0.085402
-0.085360 0.523132 -0.085360
-0.085309 0.522876 -0.085309
-0.085246 0.522559 -0.085246
-0.085167 0.522164 -0.085167
-0.085069 0.521673 -0.085069
-0.084947 0.521063 -0.084947
0.003244 0.520305 -0.084795
0.094982 0.519360 -0.084606
0.183874 0.518182 -0.084370
0.271196 0.516711 -0.084076
0.351953 0.514871 -0.083708
0.425107 0.512567 -0.083247
0.492928 0.509671 -0.082668
0.548119 0.497599 -0.090358
0.597756 0.482123 -0.100285
0.645150 0.465580 -0.109764
0.690706 0.447404 -0.118875
0.734292 0.441560 -0.086543
0.777009 0.442879 -0.038468
0.816744 0.445862 0.011710
0.850931 0.445977 0.059094
0.880576 0.439410 0.103337
0.905907 0.419183 0.143463
0.926655 0.369317 0.219119
0.943225 0.258784 0.310404
0.956848 0.230631 0.389632
-0.094321 0.567933 -0.094321
-0.094321 0.567933 -0.094321
-0.094321 0.567933 -0.094321
-0.094236 0.567510 -0.094236
-0.094215 0.567404 -0.094215
-0.094188 0.567272 -0.094188
-0.094156 0.567108 -0.094156
-0.094115 0.566905 -0.094115
-0.094065 0.566653 -0.094065
-0.094002 0.566340 -0.094002
-0.093924 0.565952 -0.093924
-0.093828 0.565468 -0.093828
-0.081446 0.564868 -0.093708
0.030645 0.564120 -0.093558
0.131998 0.563190 -0.093372
0.228234 0.562029 -0.093140
0.318886 0.560581 -0.092850
0.398155 0.558769 -0.092488
0.470482 0.556498 -0.092034
0.537099 0.553644 -0.091463
0.591465 0.541758 -0.099027
0.640290 0.526519 -0.108792
0.686958 0.510210 -0.118126
0.731373 0.502790 -0.089606
0.774738 0.503516 -0.041177
0.815107 0.507347 0.009538
0.849804 0.510576 0.057470
0.879791 0.510333 0.102128
0.905374 0.502548 0.142596
0.926311 0.480219 0.177339
0.943003 0.427087 0.269744
0.956700 0.304423 0.359173
-0.102919 0.610928 -0.102919
-0.102919 0.610928 -0.102919
-0.102919 0.610928 -0.102919
-0.102853 0.610593 -0.102853
-0.102836 0.610509 -0.102836
-0.102815 0.610404 -0.102815
-0.102789 0.610275 -0.102789
-0.102757 0.610114 -0.102757
-0.102717 0.609915 -0.102717
-0.102667 0.609667 -0.102667
-0.102606 0.609360 -0.102606
-0.102530 0.608979 -0.102530
-0.102435 0.608504 -0.102435
-0.068087 0.607915 -0.102317
0.061278 0.607181 -0.102170
0.172691 0.606268 -0.101987
0.276167 0.605129 -0.101760
0.365288 0.603707 -0.101475
0.444039 0.601929 -0.101120
0.514971 0.599701 -0.100674
0.580637 0.596901 -0.100114
0.634079 0.585226 -0.107550
0.682193 0.570230 -0.117172
0.727690 0.560946 -0.093430
0.771867 0.560117 -0.044577
0.813039 0.563460 0.006808
0.848386 0.567744 0.055433
0.878806 0.570534 0.100613
0.904706 0.569140 0.141512
0.925882 0.559482 0.176612
0.942725 0.534889 0.207643
0.956516 0.481172 0.315197
-0.111397 0.653316 -0.111397
-0.111397 0.653316 -0.111397
-0.111397 0.653316 -0.111397
-0.111344 0.653050 -0.111344
-0.111330 0.652983 -0.111330
-0.111314 0.652900 -0.111314
-0.111293 0.652796 -0.111293
-0.111268 0.652669 -0.111268
-0.111236 0.652510 -0.111236
-0.111197 0.652313 -0.111197
-0.111148 0.652068 -0.111148
-0.111087 0.651765 -0.111087
-0.111012 0.651388 -0.111012
-0.110918 0.650919 -0.110918
-0.044138 0.650337 -0.110801
0.097029 0.649612 -0.110656
0.217964 0.648710 -0.110476
0.323433 0.647584 -0.110251
0.411626 0.646180 -0.109970
0.488938 0.644423 -0.109619
0.558864 0.642223 -0.109179
0.623398 0.639457 -0.108625
0.676096 0.627944 -0.115953
0.723020 0.616766 -0.098214
0.768220 0.613641 -0.048857
0.810417 0.615636 0.003368
0.846598 0.619860 0.052873
0.877566 0.623974 0.098711
0.903867 0.625779 0.140152
0.925344 0.622405 0.175702
0.942378 0.610383 0.204991
0.956285 0.584515 0.242900
-0.119724 0.694952 -0.119724
-0.119724 0.694952 -0.119724
-0.119724 0.694952 -0.119724
-0.119682 0.694742 -0.119682
-0.119672 0.694690 -0.119672
-0.119659 0.694624 -0.119659
-0.119643 0.694543 -0.119643
-0.119622 0.694443 -0.119622
-0.119598 0.694318 -0.119598
-0.119567 0.694163 -0.119567
-0.119528 0.693971 -0.119528
-0.119480 0.693732 -0.119480
-0.119421 0.693436 -0.119421
-0.119348 0.693068 -0.119348
-0.119256 0.692610 -0.119256
-0.016375 0.692041 -0.119142
0.136725 0.691333 -0.119001
0.266236 0.690450 -0.118824
0.370056 0.689350 -0.118604
0.457138 0.687975 -0.118329
0.533228 0.686255 -0.117985
0.601962 0.684098 -0.117554
0.665602 0.681385 -0.117011
0.717073 0.671252 -0.104201
0.763568 0.665163 -0.054251
0.807076 0.665098 -0.000983
0.844333 0.668416 0.049645
0.876000 0.672678 0.096317
0.902810 0.675941 0.138442
0.924668 0.675933 0.174559
0.941943 0.670346 0.204231
0.955997 0.656662 0.229103
-0.085196 0.735567 -0.085196
-0.085196 0.735567 -0.085196
-0.085196 0.735567 -0.085196
-0.085373 0.735400 -0.085373
-0.085417 0.735358 -0.085417
-0.085472 0.735306 -0.085472
-0.085541 0.735241 -0.085541
-0.085625 0.735161 -0.085625
-0.085730 0.735062 -0.085730
-0.085860 0.734939 -0.085860
-0.086022 0.734786 -0.086022
-0.086222 0.734596 -0.086222
-0.086470 0.734361 -0.086470
-0.086778 0.734069 -0.086778
-0.087160 0.733706 -0.087160
-0.087634 0.733255 -0.087634
0.045108 0.732694 -0.088223
0.204992 0.731997 -0.088954
0.331697 0.731128 -0.089861
0.429551 0.730046 -0.090989
0.510997 0.728695 -0.092391
0.582485 0.727007 -0.094134
0.647357 0.724892 -0.096305
0.707350 0.722238 -0.099008
0.757610 0.714872 -0.061054
0.802796 0.712150 -0.006504
0.841453 0.714032 0.045567
0.874013 0.717857 0.093290
0.901473 0.721671 0.136285
0.923815 0.723460 0.173120
0.941396 0.721389 0.203277
0.955634 0.714018 0.228454
-0.039683 0.775992 -0.039683
-0.039683 0.775992 -0.039683
-0.039683 0.775992 -0.039683
-0.039841 0.775861 -0.039841
-0.039880 0.775827 -0.039880
-0.039929 0.775786 -0.039929
-0.039990 0.775735 -0.039990
-0.040065 0.775672 -0.040065
-0.040158 0.775594 -0.040158
-0.040274 0.775497 -0.040274
-0.040418 0.775377 -0.040418
-0.040596 0.775227 -0.040596
-0.040817 0.775041 -0.040817
-0.041091 0.774811 -0.041091
-0.041432 0.774524 -0.041432
-0.041855 0.774168 -0.041855
-0.042380 0.773725 -0.042380
0.119612 0.773174 -0.043033
0.283246 0.772487 -0.043845
0.401437 0.771631 -0.044856
0.492056 0.770561 -0.046115
0.567505 0.769224 -0.047684
0.633593 0.767547 -0.049641
0.693472 0.765443 -0.052086
0.748729 0.762793 -0.055143
0.797258 0.758014 -0.013555
0.837761 0.757654 0.040379
0.871478 0.760267 0.089447
0.899775 0.763804 0.133553
0.922734 0.766359 0.171300
0.940706 0.766310 0.202073
0.955178 0.762724 0.227636
0.008323 0.814187 0.008323
0.008323 0.814187 0.008323
0.008323 0.814187 0.008323
0.008195 0.814090 0.008195
0.008163 0.814066 0.008163
0.008123 0.814036 0.008123
0.008074 0.813999 0.008074
0.008013 0.813952 0.008013
0.007937 0.813895 0.007937
0.007843 0.813823 0.007843
0.007726 0.813735 0.007726
0.007581 0.813625 0.007581
0.007401 0.813489 0.007401
0.007178 0.813319 0.007178
0.006901 0.813109 0.006901
0.006557 0.812848 0.006557
0.006129 0.812523 0.006129
0.005598 0.812119 0.005598
0.196710 0.811615 0.004937
0.359320 0.810988 0.004115
0.468928 0.810205 0.003090
0.552634 0.809226 0.001813
0.622332 0.808001 0.000217
0.683472 0.806463 -0.001778
0.738365 0.804527 -0.004278
0.789620 0.802083 -0.007417
0.832972 0.799715 0.033716
0.868217 0.800886 0.084537
0.897603 0.803802 0.130072
0.921357 0.806542 0.168986
0.939831 0.807526 0.200550
0.954601 0.805847 0.226604
0.054298 0.847595 0.054298
0.054298 0.847595 0.054298
0.054298 0.847595 0.054298
0.054202 0.847527 0.054202
0.054178 0.847510 0.054178
0.054147 0.847489 0.054147
0.054110 0.847463 0.054110
0.054064 0.847431 0.054064
0.054007 0.847391 0.054007
0.053935 0.847341 0.053935
0.053847 0.847279 0.053847
0.053737 0.847203 0.053737
0.053602 0.847108 0.053602
0.053433 0.846990 0.053433
0.053224 0.846843 0.053224
0.052964 0.846662 0.052964
0.052641 0.846436 0.052641
0.052240 0.846155 0.052240
0.051741 0.845805 0.051741
0.271704 0.845370 0.051121
0.429734 0.844828 0.050350
0.531934 0.844153 0.049390
0.609775 0.843309 0.048192
0.674589 0.842252 0.046696
0.730908 0.840927 0.044825
0.782238 0.839258 0.042478
