luts/Z-Log2/gain -4/zLog2_zRGB-ax2_32_gain-4_desatuation.cube
TITLE "Generated by ZCAM"
LUT_3D_SIZE 5
DOMAIN_MIN 0.000000 0.000000 0.000000
DOMAIN_MAX 0.903226 0.903226 0.903226
0.016055 0.016055 0.016055
0.081618 0.025757 0.025757
0.354572 -0.051648 -0.051648
0.664105 -0.113555 -0.113555
0.908073 0.146994 0.313553
0.025139 0.073505 0.025139
0.057051 0.063668 0.024169
0.346052 -0.030862 -0.049944
0.662436 -0.113221 -0.113221
0.907877 0.146673 0.300483
-0.049225 0.342453 -0.049225
-0.048569 0.339176 -0.048569
0.309271 0.327024 -0.046139
0.656344 0.184050 -0.112003
0.907169 0.145518 0.247729
-0.111397 0.653316 -0.111397
-0.111268 0.652669 -0.111268
-0.044138 0.650337 -0.110801
0.623398 0.639457 -0.108625
0.903867 0.625779 0.140152
0.137493 0.902222 0.137493
0.137364 0.902143 0.137364
0.136905 0.901858 0.136905
0.413964 0.900557 0.134810
0.887314 0.894336 0.124868
0.025091 0.025091 0.072953
0.075230 0.025388 0.076524
0.352352 -0.051204 0.035925
0.663664 -0.113467 0.027744
0.908021 0.146909 0.372131
0.023561 0.058484 0.048357
0.048958 0.049173 0.049722
0.343731 -0.044034 0.006505
0.661991 -0.113132 0.005148
0.907825 0.146587 0.361636
-0.048210 0.337381 -0.048210
-0.047538 0.334021 -0.047538
0.307082 0.321527 -0.045039
0.655883 0.175845 -0.095883
0.907116 0.145432 0.320954
-0.111197 0.652317 -0.111197
-0.111067 0.651666 -0.111067
-0.052516 0.649321 -0.110598
0.622962 0.638380 -0.108410
0.903811 0.624467 0.140061
0.137295 0.902100 0.137295
0.137166 0.902020 0.137166
0.136705 0.901734 0.136705
0.411742 0.900431 0.134607
0.887230 0.894197 0.124647
-0.049361 -0.049361 0.343135
-0.008670 -0.049609 0.344374
0.343300 -0.050481 0.348734
0.662081 -0.113150 0.308199
0.907835 0.146605 0.503431
-0.047510 -0.047510 0.333881
-0.034024 -0.047769 0.335176
0.334307 -0.048682 0.339739
0.660393 -0.112813 0.298802
0.907638 0.146282 0.498259
-0.044360 0.318132 0.292799
-0.043619 0.314426 0.295375
0.298593 0.300112 0.303922
0.654229 0.145205 0.261330
0.906927 0.145123 0.478510
-0.110475 0.648705 -0.096565
-0.110342 0.648041 -0.092931
-0.080463 0.645650 -0.079221
0.621401 0.634482 -0.009781
0.903610 0.619694 0.347835
0.136585 0.901659 0.136585
0.136455 0.901579 0.136455
0.135992 0.901291 0.135992
0.403585 0.899979 0.133880
0.886931 0.893697 0.123854
-0.111581 -0.111581 0.654235
-0.111630 -0.111630 0.654481
0.232288 -0.111806 0.655359
0.653875 -0.112586 0.659261
0.906989 0.145224 0.709346
-0.111220 -0.111220 0.652429
-0.111270 -0.111270 0.652678
0.219573 -0.111447 0.653565
0.652115 -0.112235 0.657505
0.906789 0.144898 0.707874
-0.109901 0.121751 0.645834
-0.109952 0.115306 0.646092
0.170091 0.091272 0.647011
0.645689 -0.043718 0.651094
0.906067 0.143722 0.702504
-0.107035 0.631503 0.609092
-0.106889 0.630773 0.609607
-0.106363 0.628146 0.611448
0.613625 0.615183 0.619090
0.902699 0.596315 0.675809
0.133332 0.899637 0.338781
0.133199 0.899554 0.340197
0.132722 0.899257 0.345196
0.362194 0.897900 0.366681
0.885573 0.891398 0.441009
0.138374 0.138374 0.902768
0.138423 0.138423 0.902798
0.138597 0.138597 0.902906
0.657395 0.139379 0.903390
0.903371 0.142832 0.905519
0.138018 0.138018 0.902547
0.138067 0.138067 0.902578
0.138242 0.138242 0.902686
0.655408 0.139026 0.903171
0.903155 0.142490 0.905309
0.136736 0.136736 0.901753
0.136786 0.136786 0.901784
0.136963 0.136963 0.901894
0.648123 0.137756 0.902385
0.902381 0.141260 0.904550
0.130779 0.573430 0.898044
0.130831 0.572332 0.898077
0.131018 0.568353 0.898194
0.610765 0.549131 0.898715
0.898769 0.415490 0.901011
0.117428 0.889626 0.879458
0.117275 0.889529 0.879483
0.116729 0.889182 0.879574
0.114242 0.887595 0.879984
0.879440 0.880195 0.882075
