luts/Z-Log2/gain +4/zLog2_zRGB-ax2_32_gain4_desatuation.cube
TITLE "Generated by ZCAM"
LUT_3D_SIZE 32
0.016055 0.016055 0.016055
0.016055 0.016055 0.016055
0.016055 0.016055 0.016055
0.016055 0.016055 0.016055
0.023639 0.017727 0.017727
0.127493 0.026155 0.026155
0.219764 0.008003 0.008003
0.305555 -0.041845 -0.041845
0.382228 -0.057180 -0.057180
0.449015 -0.070537 -0.070537
0.509035 -0.082541 -0.082541
0.564208 -0.093576 -0.093576
0.615679 -0.103870 -0.103870
0.664434 -0.113621 -0.113621
0.710627 -0.110557 -0.110557
0.754991 -0.064008 -0.064008
0.797662 -0.013044 -0.013044
0.835277 0.036913 0.036913
0.867390 0.083296 0.083296
0.895022 0.125959 0.125959
0.918088 0.163519 0.163519
0.936461 0.194708 0.194708
0.951353 0.220812 0.296288
0.963450 0.242562 0.386498
0.972504 0.259159 0.464383
0.979474 0.272122 0.531776
0.984570 0.281703 0.587516
0.987783 0.287788 0.635229
0.988611 0.289361 0.676238
0.988611 0.289361 0.713610
0.988611 0.289361 0.748925
0.988611 0.289361 0.782371
0.016055 0.016055 0.016055
0.016055 0.016055 0.016055
0.016055 0.016055 0.016055
0.016055 0.016055 0.016055
0.023639 0.017727 0.017727
0.127493 0.026155 0.026155
0.219764 0.008003 0.008003
0.305555 -0.041845 -0.041845
0.382228 -0.057180 -0.057180
0.449015 -0.070537 -0.070537
0.509035 -0.082541 -0.082541
0.564208 -0.093576 -0.093576
0.615679 -0.103870 -0.103870
0.664434 -0.113621 -0.113621
0.710627 -0.110557 -0.110557
0.754991 -0.064008 -0.064008
0.797662 -0.013044 -0.013044
0.835277 0.036913 0.036913
0.867390 0.083296 0.083296
0.895022 0.125959 0.125959
0.918088 0.163519 0.163519
0.936461 0.194708 0.194708
0.951353 0.220812 0.296288
0.963450 0.242562 0.386498
0.972504 0.259159 0.464383
0.979474 0.272122 0.531776
0.984570 0.281703 0.587516
0.987783 0.287788 0.635229
0.988611 0.289361 0.676238
0.988611 0.289361 0.713610
0.988611 0.289361 0.748925
0.988611 0.289361 0.782371
0.016055 0.016055 0.016055
0.016055 0.016055 0.016055
0.016055 0.016055 0.016055
0.016055 0.016055 0.016055
0.023639 0.017727 0.017727
0.127493 0.026155 0.026155
0.219764 0.008003 0.008003
0.305555 -0.041845 -0.041845
0.382228 -0.057180 -0.057180
0.449015 -0.070537 -0.070537
0.509035 -0.082541 -0.082541
0.564208 -0.093576 -0.093576
0.615679 -0.103870 -0.103870
0.664434 -0.113621 -0.113621
0.710627 -0.110557 -0.110557
0.754991 -0.064008 -0.064008
0.797662 -0.013044 -0.013044
0.835277 0.036913 0.036913
0.867390 0.083296 0.083296
0.895022 0.125959 0.125959
0.918088 0.163519 0.163519
0.936461 0.194708 0.194708
0.951353 0.220812 0.296288
0.963450 0.242562 0.386498
0.972504 0.259159 0.464383
0.979474 0.272122 0.531776
0.984570 0.281703 0.587516
0.987783 0.287788 0.635229
0.988611 0.289361 0.676238
0.988611 0.289361 0.713610
0.988611 0.289361 0.748925
0.988611 0.289361 0.782371
0.016055 0.016055 0.016055
0.016055 0.016055 0.016055
0.016055 0.016055 0.016055
0.016055 0.016055 0.016055
0.016055 0.016055 0.016055
0.071419 0.024953 0.024953
0.180909 0.019989 0.019989
0.276381 -0.023713 -0.023713
0.362503 -0.053235 -0.053235
0.434868 -0.067708 -0.067708
0.498801 -0.080494 -0.080494
0.556586 -0.092051 -0.092051
0.609935 -0.102721 -0.102721
0.660038 -0.112741 -0.112741
0.707295 -0.113789 -0.113789
0.752358 -0.066954 -0.066954
0.795698 -0.015523 -0.015523
0.833938 0.035055 0.035055
0.866453 0.081895 0.081895
0.894381 0.124939 0.124939
0.917669 0.162821 0.162821
0.936192 0.194242 0.194242
0.951173 0.220491 0.246475
0.963338 0.242357 0.354334
0.972437 0.259035 0.440913
0.979431 0.272042 0.515755
0.984548 0.281662 0.576321
0.987771 0.287765 0.627236
0.988611 0.289361 0.670313
0.988611 0.289361 0.709160
0.988611 0.289361 0.745518
0.988611 0.289361 0.779783
0.016055 0.016055 0.016055
0.016055 0.016055 0.016055
0.016055 0.016055 0.016055
0.016055 0.016055 0.016055
0.016055 0.016055 0.016055
0.054190 0.023006 0.023006
0.170282 0.021784 0.021784
0.268641 -0.018620 -0.018620
0.357196 -0.052173 -0.052173
0.431153 -0.066965 -0.066965
0.496149 -0.079964 -0.079964
0.554624 -0.091659 -0.091659
0.608467 -0.102427 -0.102427
0.658918 -0.112517 -0.112517
0.706448 -0.114604 -0.114604
0.751692 -0.067695 -0.067695
0.795200 -0.016149 -0.016149
0.833600 0.034586 0.034586
0.866217 0.081541 0.081541
0.894219 0.124682 0.124682
0.917563 0.162645 0.162645
0.936124 0.194125 0.194125
0.951127 0.220411 0.234202
0.963310 0.242306 0.345545
0.972420 0.259004 0.434688
0.979421 0.272022 0.511421
0.984543 0.281652 0.573378
0.987768 0.287759 0.625156
0.988611 0.289361 0.668784
0.988611 0.289361 0.708021
0.988611 0.289361 0.744649
0.988611 0.289361 0.779124
0.026563 0.100785 0.026563
0.026563 0.100785 0.026563
0.026563 0.100785 0.026563
0.025565 0.078855 0.025565
0.025076 0.072783 0.025076
0.039709 0.064752 0.024288
0.156579 0.060694 0.023682
0.258793 0.018225 -0.012488
0.350387 -0.032980 -0.050811
0.426450 -0.064742 -0.066024
0.492810 -0.079296 -0.079296
0.552163 -0.091167 -0.091167
0.606630 -0.102060 -0.102060
0.657519 -0.112238 -0.112238
0.705393 -0.115616 -0.115616
0.750864 -0.068614 -0.068614
0.794580 -0.016929 -0.016929
0.833178 0.034002 0.034002
0.865923 0.081102 0.081102
0.894017 0.124362 0.124362
0.917432 0.162426 0.162426
0.936040 0.193979 0.193979
0.951071 0.220310 0.221190
0.963274 0.242242 0.334279
0.972399 0.258965 0.426771
0.979407 0.271998 0.505863
0.984536 0.281639 0.569647
0.987764 0.287752 0.622531
0.988611 0.289361 0.666867
0.988611 0.289361 0.706594
0.988611 0.289361 0.743565
0.988611 0.289361 0.778301
0.017056 0.195538 0.017056
0.017056 0.195538 0.017056
0.017056 0.195538 0.017056
0.020033 0.180667 0.020033
0.020714 0.176817 0.020714
0.021518 0.171970 0.021518
0.140039 0.165845 0.022450
0.246191 0.149950 -0.005205
0.341590 0.109602 -0.049052
0.420468 0.078783 -0.064828
0.488588 0.045819 -0.078452
0.549066 0.007616 -0.090547
0.604328 -0.042606 -0.101600
0.655770 -0.100298 -0.111888
0.704076 -0.116876 -0.116876
0.749833 -0.069757 -0.069757
0.793805 -0.017900 -0.017900
0.832652 0.033274 0.033274
0.865556 0.080555 0.080555
0.893767 0.123965 0.123965
0.917268 0.162154 0.162154
0.935935 0.193799 0.193799
0.951001 0.220186 0.220186
0.963231 0.242163 0.319686
0.972373 0.258917 0.416619
0.979391 0.271967 0.498669
0.984528 0.281623 0.564887
0.987759 0.287743 0.619205
0.988611 0.289361 0.664451
0.988611 0.289361 0.704802
0.988611 0.289361 0.742207
0.988611 0.289361 0.777273
-0.028193 0.282908 -0.028193
-0.028193 0.282908 -0.028193
-0.028193 0.282908 -0.028193
-0.020626 0.271734 -0.020626
-0.018775 0.268881 -0.018775
-0.016501 0.265308 -0.016501
0.098089 0.260827 -0.013722
0.227166 0.255190 -0.010340
0.330123 0.231664 -0.046759
0.412806 0.204321 -0.063295
0.483220 0.176434 -0.077378
0.545154 0.146059 -0.089765
0.601434 0.111058 -0.101021
0.653577 0.068720 -0.111449
0.702427 0.017913 -0.118443
0.748548 -0.003511 -0.071175
0.792838 -0.019110 -0.019110
0.831996 0.032368 0.032368
0.865100 0.079875 0.079875
0.893455 0.123470 0.123470
0.917065 0.161815 0.161815
0.935805 0.193574 0.193574
0.950914 0.220031 0.220031
0.963177 0.242064 0.299528
0.972341 0.258858 0.403280
0.979371 0.271929 0.489225
0.984517 0.281603 0.558769
0.987754 0.287732 0.614960
0.988611 0.289361 0.661396
0.988611 0.289361 0.702547
0.988611 0.289361 0.740505
0.988611 0.289361 0.775986
-0.053379 0.363227 -0.053379
-0.053379 0.363227 -0.053379
-0.053379 0.363227 -0.053379
-0.051825 0.355454 -0.051825
-0.051424 0.353448 -0.051424
-0.050920 0.350933 -0.050920
0.029533 0.347765 -0.050287
0.181352 0.343765 -0.049487
0.310135 0.338689 -0.048472
0.402889 0.318084 -0.061312
0.476341 0.293391 -0.076002
0.540190 0.267601 -0.088772
0.597781 0.239120 -0.100290
0.650821 0.206069 -0.110898
0.700359 0.166810 -0.120397
0.746942 0.158430 -0.072940
0.791628 0.145782 -0.020619
0.831175 0.117834 0.031237
0.864530 0.079027 0.079027
0.893066 0.122855 0.122855
0.916811 0.161394 0.161394
0.935643 0.193294 0.193294
0.950806 0.219839 0.219839
0.963109 0.241942 0.268858
0.972301 0.258783 0.385465
0.979345 0.271881 0.476800
0.984504 0.281578 0.550841
0.987746 0.287718 0.609504
0.988611 0.289361 0.657512
0.988611 0.289361 0.699695
0.988611 0.289361 0.738364
0.988611 0.289361 0.774371
-0.067150 0.432080 -0.067150
-0.067150 0.432080 -0.067150
-0.067150 0.432080 -0.067150
-0.066045 0.426554 -0.066045
-0.065763 0.425144 -0.065763
-0.065411 0.423383 -0.065411
-0.042967 0.421179 -0.064970
0.131349 0.418415 -0.064417
0.270463 0.414935 -0.063721
0.385788 0.410536 -0.062841
0.467439 0.392449 -0.074222
0.533851 0.370596 -0.087504
0.593149 0.347703 -0.099364
0.647346 0.322542 -0.110203
0.697756 0.293428 -0.120285
0.744931 0.288192 -0.075138
0.790111 0.284053 -0.022504
0.830147 0.273155 0.029823
0.863819 0.247099 0.077969
0.892581 0.188274 0.122086
0.916495 0.160868 0.160868
0.935441 0.192946 0.192946
0.950671 0.219600 0.219600
0.963025 0.241790 0.241790
0.972251 0.258691 0.361181
0.979314 0.271822 0.460229
0.984488 0.281547 0.540453
0.987737 0.287700 0.602426
0.988611 0.289361 0.652540
0.988611 0.289361 0.696071
0.988611 0.289361 0.735660
0.988611 0.289361 0.772338
-0.079503 0.493847 -0.079503
-0.079503 0.493847 -0.079503
-0.079503 0.493847 -0.079503
-0.078706 0.489860 -0.078706
-0.078503 0.488847 -0.078503
-0.078251 0.487583 -0.078251
-0.077935 0.486004 -0.077935
0.069588 0.484028 -0.077540
0.224144 0.481549 -0.077044
0.351568 0.478428 -0.076420
0.452042 0.474483 -0.075631
0.525692 0.458226 -0.085872
0.587237 0.438229 -0.098181
0.642946 0.417184 -0.109323
0.694466 0.393993 -0.119627
0.742407 0.389463 -0.077878
0.788205 0.390790 -0.024863
0.828856 0.390979 0.028051
0.862929 0.383188 0.076647
0.891974 0.358333 0.121127
0.916099 0.303900 0.160211
0.935189 0.192513 0.192513
0.950503 0.219303 0.219303
0.962921 0.241600 0.241600
0.972189 0.258577 0.327643
0.979275 0.271749 0.438128
0.984468 0.281509 0.526382
0.987726 0.287679 0.593130
0.988611 0.289361 0.646117
0.988611 0.289361 0.691434
0.988611 0.289361 0.732229
0.988611 0.289361 0.769768
-0.090770 0.550180 -0.090770
-0.090770 0.550180 -0.090770
-0.090770 0.550180 -0.090770
-0.090176 0.547208 -0.090176
-0.090025 0.546455 -0.090025
-0.089837 0.545517 -0.089837
-0.089604 0.544348 -0.089604
-0.014421 0.542888 -0.089312
0.167478 0.541063 -0.088947
0.311011 0.538775 -0.088489
0.421172 0.535901 -0.087914
0.511628 0.532276 -0.087189
0.579628 0.517298 -0.096660
0.637341 0.498737 -0.108202
0.690294 0.479138 -0.118793
0.739228 0.473015 -0.081298
0.785802 0.475073 -0.027818
0.827227 0.478956 0.025825
0.861811 0.479667 0.074992
0.891214 0.473345 0.119927
0.915604 0.453099 0.159389
0.934875 0.401268 0.191972
0.950294 0.283913 0.218932
0.962790 0.241363 0.241363
0.972112 0.258434 0.273513
0.979226 0.271658 0.407526
0.984442 0.281462 0.506628
0.987712 0.287652 0.580689
0.988611 0.289361 0.637720
0.988611 0.289361 0.685451
0.988611 0.289361 0.727848
0.988611 0.289361 0.766506
-0.101252 0.602590 -0.101252
-0.101252 0.602590 -0.101252
-0.101252 0.602590 -0.101252
-0.100805 0.600355 -0.100805
-0.100692 0.599790 -0.100692
-0.100552 0.599088 -0.100552
-0.100377 0.598213 -0.100377
-0.100158 0.597122 -0.100158
0.091891 0.595761 -0.099886
0.258823 0.594059 -0.099546
0.384692 0.591926 -0.099119
0.483393 0.589246 -0.098583
0.566509 0.585867 -0.097907
0.630144 0.571877 -0.106763
0.684972 0.554375 -0.117728
0.735209 0.545691 -0.085575
0.782765 0.546304 -0.031526
0.825163 0.550660 0.023018
0.860405 0.554567 0.072915
0.890260 0.555333 0.118424
0.914982 0.549147 0.158358
0.934483 0.529485 0.191295
0.950033 0.484923 0.218469
0.962628 0.376605 0.241068
0.972015 0.258256 0.258256
0.979165 0.271545 0.362296
0.984411 0.281402 0.478020
0.987695 0.287619 0.563666
0.988611 0.289361 0.626564
0.988611 0.289361 0.677646
0.988611 0.289361 0.722210
0.988611 0.289361 0.762340
-0.111136 0.652010 -0.111136
-0.111136 0.652010 -0.111136
-0.111136 0.652010 -0.111136
-0.110793 0.650297 -0.110793
-0.110707 0.649865 -0.110707
-0.110599 0.649328 -0.110599
-0.110466 0.648659 -0.110466
-0.110299 0.647827 -0.110299
-0.018454 0.646791 -0.110092
0.187651 0.645497 -0.109833
0.338917 0.643881 -0.109510
0.450160 0.641858 -0.109106
0.540173 0.639318 -0.108598
0.617755 0.636119 -0.107958
0.678134 0.622862 -0.116361
0.730102 0.611474 -0.090931
0.778913 0.609496 -0.036184
0.822534 0.612756 0.019461
0.858629 0.617389 0.070302
0.889057 0.620934 0.116534
0.914199 0.620650 0.157063
0.933990 0.612958 0.190448
0.949707 0.593703 0.217891
0.962424 0.553205 0.240699
0.971895 0.456058 0.258034
0.979090 0.271403 0.286709
0.984372 0.281328 0.436553
0.987673 0.287578 0.539584
0.988611 0.289361 0.611313
0.988611 0.289361 0.667297
0.988611 0.289361 0.714881
0.988611 0.289361 0.756979
-0.120523 0.698947 -0.120523
-0.120523 0.698947 -0.120523
-0.120523 0.698947 -0.120523
-0.120263 0.697643 -0.120263
-0.120197 0.697314 -0.120197
-0.120115 0.696905 -0.120115
-0.120013 0.696397 -0.120013
-0.119887 0.695764 -0.119887
-0.119729 0.694976 -0.119729
0.086151 0.693995 -0.119533
0.276914 0.692769 -0.119288
0.408510 0.691237 -0.118981
0.509134 0.689318 -0.118598
0.592904 0.686907 -0.118115
0.666350 0.683869 -0.117508
0.723570 0.673029 -0.097654
0.774006 0.667564 -0.042047
0.819163 0.668684 0.014934
0.856375 0.672679 0.067000
0.887537 0.676984 0.114151
0.913210 0.679320 0.155428
0.933371 0.677076 0.189384
0.949299 0.668125 0.217168
0.962169 0.648957 0.240236
0.971745 0.610491 0.257756
0.978995 0.525265 0.271227
0.984323 0.281236 0.371392
0.987646 0.287527 0.502392
0.988611 0.289361 0.589698
0.988611 0.289361 0.653279
0.988611 0.289361 0.705205
0.988611 0.289361 0.749997
-0.076571 0.743614 -0.076571
-0.076571 0.743614 -0.076571
-0.076571 0.743614 -0.076571
-0.077674 0.742596 -0.077674
-0.077951 0.742339 -0.077951
-0.078295 0.742021 -0.078295
-0.078722 0.741626 -0.078722
-0.079251 0.741134 -0.079251
-0.079909 0.740523 -0.079909
-0.043153 0.739763 -0.080725
0.211950 0.738816 -0.081740
0.372796 0.737634 -0.083000
0.484019 0.736159 -0.084568
0.571897 0.734314 -0.086519
0.646709 0.732000 -0.088950
0.713046 0.729092 -0.091980
0.767670 0.721736 -0.049498
0.814810 0.719957 0.009145
0.853498 0.722591 0.062809
0.885606 0.726742 0.111134
0.911954 0.730193 0.153358
0.932590 0.730683 0.188043
0.948787 0.726741 0.216261
0.961849 0.716758 0.239655
0.971556 0.696828 0.257409
0.978877 0.659828 0.271006
0.984262 0.582210 0.281121
0.987612 0.293160 0.441960
0.988611 0.289361 0.557479
0.988611 0.289361 0.633674
0.988611 0.289361 0.692123
0.988611 0.289361 0.740783
-0.026357 0.786992 -0.026357
-0.026357 0.786992 -0.026357
-0.026357 0.786992 -0.026357
-0.027317 0.786211 -0.027317
-0.027558 0.786014 -0.027558
-0.027858 0.785770 -0.027858
-0.028230 0.785466 -0.028230
-0.028691 0.785089 -0.028691
-0.029265 0.784620 -0.029265
-0.029977 0.784036 -0.029977
0.113977 0.783309 -0.030863
0.329031 0.782403 -0.031965
0.460509 0.781272 -0.033337
0.555542 0.779858 -0.035046
0.632535 0.778088 -0.037176
0.698896 0.775867 -0.039833
0.758351 0.773066 -0.043161
0.809142 0.768791 0.001703
0.849795 0.769182 0.057458
0.883137 0.772201 0.107296
0.910352 0.775571 0.150723
0.931599 0.777268 0.186345
0.948141 0.776005 0.215120
0.961445 0.770934 0.238924
0.971319 0.759740 0.256972
0.978730 0.739403 0.270730
0.984185 0.703424 0.280976
0.987570 0.630777 0.332200
0.988611 0.369892 0.504150
0.988611 0.289361 0.604706
0.988611 0.289361 0.673888
0.988611 0.289361 0.728393
0.024447 0.826215 0.024447
0.024447 0.826215 0.024447
0.024447 0.826215 0.024447
0.023711 0.825674 0.023711
0.023526 0.825537 0.023526
0.023296 0.825368 0.023296
0.023010 0.825158 0.023010
0.022655 0.824896 0.022655
0.022214 0.824571 0.022214
0.021665 0.824165 0.021665
0.020982 0.823660 0.020982
0.245425 0.823030 0.020130
0.426672 0.822242 0.019067
0.537775 0.821255 0.017740
0.620701 0.820017 0.016078
0.689101 0.818459 0.013994
0.748243 0.816491 0.011374
0.801568 0.813996 0.008071
0.844985 0.812239 0.050574
0.879953 0.814056 0.102378
0.908293 0.817198 0.147352
0.930334 0.819556 0.184182
0.947327 0.819801 0.213681
0.960934 0.817318 0.237998
0.971020 0.810507 0.256420
0.978544 0.798190 0.270383
0.984088 0.777812 0.280793
0.987517 0.742283 0.287282
0.988611 0.672478 0.403492
0.988611 0.436308 0.557821
0.988611 0.289361 0.647259
0.988611 0.289361 0.711255
0.071660 0.859553 0.071660
0.071660 0.859553 0.071660
0.071660 0.859553 0.071660
0.071108 0.859178 0.071108
0.070969 0.859083 0.070969
0.070796 0.858966 0.070796
0.070583 0.858820 0.070583
0.070317 0.858640 0.070317
0.069987 0.858415 0.069987
0.069577 0.858136 0.069577
0.069067 0.857788 0.069067
0.068433 0.857355 0.068433
0.359225 0.856815 0.067643
0.509664 0.856142 0.066658
0.605929 0.855299 0.065429
0.679719 0.854242 0.063891
0.740884 0.852915 0.061964
0.794814 0.851241 0.059542
0.839184 0.849122 0.056489
0.875807 0.849157 0.096022
0.905626 0.851912 0.143005
0.928706 0.854856 0.181406
0.946293 0.856599 0.211860
0.960285 0.856540 0.236823
0.970641 0.853433 0.255722
0.978310 0.846364 0.269946
0.983966 0.833725 0.280563
0.987451 0.812509 0.287157
0.988611 0.777131 0.289361
0.988611 0.710203 0.466401
0.988611 0.498040 0.605014
0.988611 0.289361 0.686402
0.115411 0.888341 0.115411
0.115411 0.888341 0.115411
0.115411 0.888341 0.115411
0.115005 0.888083 0.115005
0.114903 0.888017 0.114903
0.114776 0.887937 0.114776
0.114619 0.887836 0.114619
0.114424 0.887712 0.114424
0.114182 0.887557 0.114182
0.113880 0.887364 0.113880
0.113506 0.887125 0.113506
0.113041 0.886827 0.113041
0.183470 0.886456 0.112461
0.453410 0.885994 0.111739
0.581318 0.885416 0.110839
0.666636 0.884693 0.109714
0.732988 0.883787 0.108305
0.789033 0.882647 0.106538
0.835422 0.881209 0.104314
0.871231 0.879385 0.101504
0.902137 0.880494 0.137356
0.926586 0.883404 0.177805
0.944974 0.885782 0.209539
0.959454 0.887063 0.235322
0.970158 0.886371 0.254832
0.978014 0.883156 0.269393
0.983811 0.876701 0.280270
0.987369 0.865028 0.287001
0.988611 0.844444 0.289361
0.988611 0.809344 0.289361
0.988611 0.745762 0.525326
0.988611 0.552987 0.647418
0.154468 0.912628 0.154468
0.154468 0.912628 0.154468
0.154468 0.912628 0.154468
0.154184 0.912456 0.154184
0.154112 0.912412 0.154112
0.154024 0.912358 0.154024
0.153914 0.912292 0.153914
0.153777 0.912209 0.153777
0.153607 0.912106 0.153607
0.153396 0.911977 0.153396
0.153134 0.911818 0.153134
0.152808 0.911620 0.152808
0.152402 0.911373 0.152402
0.299854 0.911066 0.151896
0.532188 0.910681 0.151265
0.643918 0.910201 0.150477
0.720893 0.909599 0.149490
0.781454 0.908844 0.148253
0.831562 0.907891 0.146696
0.869305 0.906687 0.144732
0.898600 0.905157 0.142243
0.923805 0.906766 0.173103
0.943271 0.909435 0.206553
0.958382 0.911479 0.233390
0.969537 0.912160 0.253690
0.977637 0.911074 0.268691
0.983612 0.907883 0.279894
0.987266 0.901563 0.286806
0.988611 0.890583 0.289361
0.988611 0.872528 0.289361
0.988611 0.840669 0.302289
0.988611 0.779449 0.575890
0.187265 0.932136 0.187265
0.187265 0.932136 0.187265
0.187265 0.932136 0.187265
0.187077 0.932027 0.187077
0.187030 0.931999 0.187030
0.186971 0.931965 0.186971
0.186898 0.931922 0.186898
0.186808 0.931870 0.186808
0.186696 0.931804 0.186696
0.186557 0.931723 0.186557
0.186384 0.931622 0.186384
0.186169 0.931496 0.186169
0.185901 0.931340 0.185901
0.185568 0.931145 0.185568
0.398339 0.930902 0.185153
0.598364 0.930599 0.184635
0.698551 0.930220 0.183987
0.768807 0.929745 0.183176
0.824798 0.929147 0.182157
0.866539 0.928393 0.180873
0.897744 0.927436 0.179247
0.921181 0.926218 0.177181
0.941043 0.927965 0.202660
0.956988 0.930490 0.230883
0.968739 0.932101 0.252224
0.977156 0.932416 0.267793
0.983355 0.931288 0.279410
0.987136 0.928057 0.286560
0.988611 0.921963 0.289361
0.988611 0.912025 0.289361
0.988611 0.896400 0.289361
0.988611 0.869192 0.376339
0.214467 0.947772 0.214467
0.214467 0.947772 0.214467
0.214467 0.947772 0.214467
0.214338 0.947699 0.214338
0.214306 0.947681 0.214306
0.214266 0.947658 0.214266
0.214217 0.947630 0.214217
0.214155 0.947595 0.214155
0.214079 0.947552 0.214079
0.213984 0.947498 0.213984
0.213866 0.947431 0.213866
0.213720 0.947349 0.213720
0.213538 0.947246 0.213538
0.213312 0.947118 0.213312
0.213031 0.946958 0.213031
0.482572 0.946760 0.212682
0.655214 0.946513 0.212246
0.746721 0.946204 0.211702
0.812070 0.945818 0.211023
0.860891 0.945333 0.210171
0.895533 0.944724 0.209101
0.921003 0.943955 0.207752
0.939074 0.942979 0.206043
0.955150 0.944754 0.227586
0.967702 0.946910 0.250322
0.976536 0.948063 0.266638
0.983019 0.948214 0.278777
0.986973 0.946930 0.286249
0.988611 0.943802 0.289361
0.988611 0.938426 0.289361
0.988611 0.930241 0.289361
0.988611 0.916956 0.289361
0.237471 0.960643 0.237471
0.237471 0.960643 0.237471
0.237471 0.960643 0.237471
0.237386 0.960596 0.237386
0.237365 0.960584 0.237365
0.237339 0.960570 0.237339
0.237306 0.960552 0.237306
0.237265 0.960529 0.237265
0.237215 0.960501 0.237215
0.237152 0.960467 0.237152
0.237075 0.960424 0.237075
0.236978 0.960370 0.236978
0.236858 0.960304 0.236858
0.236709 0.960222 0.236709
0.236524 0.960119 0.236524
0.236293 0.959991 0.236293
0.551462 0.959832 0.236005
0.705195 0.959632 0.235645
0.789719 0.959383 0.235195
0.850008 0.959070 0.234631
0.890699 0.958677 0.233922
0.919452 0.958181 0.233028
0.939419 0.957552 0.231896
0.953610 0.956751 0.230456
0.966330 0.958309 0.247811
0.975729 0.959927 0.265137
0.982573 0.960751 0.277938
0.986763 0.960456 0.285852
0.988611 0.958866 0.289361
0.988611 0.955843 0.289361
0.988611 0.951532 0.289361
0.988611 0.945011 0.289361
0.255326 0.970426 0.255326
0.255326 0.970426 0.255326
0.255326 0.970426 0.255326
0.255274 0.970398 0.255274
0.255261 0.970391 0.255261
0.255245 0.970382 0.255245
0.255225 0.970371 0.255225
0.255200 0.970358 0.255200
0.255169 0.970341 0.255169
0.255131 0.970321 0.255131
0.255084 0.970295 0.255084
0.255025 0.970263 0.255025
0.254952 0.970223 0.254952
0.254861 0.970174 0.254861
0.254748 0.970112 0.254748
0.254607 0.970036 0.254607
0.254431 0.969940 0.254431
0.609373 0.969821 0.254212
0.749346 0.969672 0.253938
0.828674 0.969486 0.253596
0.880975 0.969253 0.253167
0.915207 0.968960 0.252629
0.938328 0.968591 0.251952
0.953968 0.968123 0.251093
0.965221 0.967526 0.250000
0.974669 0.968798 0.263167
0.981976 0.970138 0.276816
0.986491 0.970558 0.285336
0.988611 0.969951 0.289361
0.988611 0.968196 0.289361
0.988611 0.965737 0.289361
0.988611 0.962140 0.289361
0.269081 0.977847 0.269081
0.269081 0.977847 0.269081
0.269081 0.977847 0.269081
0.269048 0.977829 0.269048
0.269040 0.977825 0.269040
0.269030 0.977819 0.269030
0.269017 0.977813 0.269017
0.269002 0.977804 0.269002
0.268982 0.977794 0.268982
0.268958 0.977781 0.268958
0.268928 0.977764 0.268928
0.268890 0.977744 0.268890
0.268844 0.977720 0.268844
0.268786 0.977689 0.268786
0.268715 0.977650 0.268715
0.268626 0.977603 0.268626
0.268515 0.977543 0.268515
0.268377 0.977469 0.268377
0.659088 0.977377 0.268204
0.788647 0.977261 0.267989
0.862490 0.977117 0.267720
0.906558 0.976936 0.267383
0.934847 0.976708 0.266959
0.952970 0.976421 0.266424
0.965562 0.976057 0.265747
0.973866 0.975594 0.264886
0.981169 0.976657 0.275300
0.986129 0.977528 0.284652
0.988611 0.977559 0.289361
0.988611 0.976609 0.289361
0.988611 0.975308 0.289361
0.988611 0.973457 0.289361
0.279682 0.983499 0.279682
0.279682 0.983499 0.279682
0.279682 0.983499 0.279682
0.279663 0.983489 0.279663
0.279659 0.983487 0.279659
0.279653 0.983484 0.279653
0.279646 0.983480 0.279646
0.279637 0.983475 0.279637
0.279626 0.983470 0.279626
0.279613 0.983462 0.279613
0.279596 0.983454 0.279596
0.279575 0.983443 0.279575
0.279550 0.983429 0.279550
0.279517 0.983412 0.279517
0.279477 0.983391 0.279477
0.279428 0.983364 0.279428
0.279366 0.983331 0.279366
0.279288 0.983290 0.279288
0.279191 0.983239 0.279191
0.703112 0.983174 0.279070
0.824862 0.983093 0.278918
0.890330 0.982992 0.278726
0.927615 0.982863 0.278483
0.950141 0.982699 0.278175
0.964748 0.982490 0.277781
0.974279 0.982221 0.277277
0.980556 0.981875 0.276625
0.985634 0.982586 0.283714
0.988611 0.983019 0.289361
0.988611 0.982457 0.289361
0.988611 0.981711 0.289361
0.988611 0.980680 0.289361
0.286423 0.987064 0.286423
0.286423 0.987064 0.286423
0.286423 0.987064 0.286423
0.286414 0.987059 0.286414
0.286411 0.987058 0.286411
0.286409 0.987056 0.286409
0.286405 0.987055 0.286405
0.286400 0.987052 0.286400
0.286395 0.987049 0.286395
