luts/Z-Log2/gain +4/zLog2_zRGB-ax2_32_gain4.cube
TITLE "Generated by ZCAM"
LUT_3D_SIZE 32
0.016055 0.016055 0.016055
0.016055 0.016055 0.016055
0.016055 0.016055 0.016055
0.021470 0.016055 0.016055
0.121790 0.016055 0.016055
0.212068 0.016055 0.016055
0.296479 0.016055 0.016055
0.373310 0.016055 0.016055
0.440076 0.016055 0.016055
0.500288 0.016055 0.016055
0.555590 0.016055 0.016055
0.607221 0.016055 0.016055
0.656091 0.016055 0.016055
0.702546 0.016055 0.016055
0.746915 0.016055 0.016055
0.789975 0.016055 0.016055
0.822913 0.016055 0.016055
0.822913 0.016055 0.016055
0.822913 0.016055 0.029102
0.822913 0.016055 0.081859
0.822913 0.016055 0.118107
0.822913 0.016055 0.143009
0.822913 0.016055 0.161825
0.822913 0.016055 0.176221
0.822913 0.016055 0.187274
0.822913 0.016055 0.195855
0.822913 0.016055 0.202562
0.822913 0.016055 0.207846
0.822913 0.016055 0.212029
0.822913 0.016055 0.215348
0.822913 0.016055 0.217993
0.822913 0.016055 0.220099
0.016055 0.016055 0.016055
0.016055 0.016055 0.016055
0.016055 0.016055 0.016055
0.021470 0.016055 0.016055
0.121790 0.016055 0.016055
0.212068 0.016055 0.016055
0.296479 0.016055 0.016055
0.373310 0.016055 0.016055
0.440076 0.016055 0.016055
0.500288 0.016055 0.016055
0.555590 0.016055 0.016055
0.607221 0.016055 0.016055
0.656091 0.016055 0.016055
0.702546 0.016055 0.016055
0.746915 0.016055 0.016055
0.789975 0.016055 0.016055
0.822913 0.016055 0.016055
0.822913 0.016055 0.016055
0.822913 0.016055 0.029102
0.822913 0.016055 0.081859
0.822913 0.016055 0.118107
0.822913 0.016055 0.143009
0.822913 0.016055 0.161825
0.822913 0.016055 0.176221
0.822913 0.016055 0.187274
0.822913 0.016055 0.195855
0.822913 0.016055 0.202562
0.822913 0.016055 0.207846
0.822913 0.016055 0.212029
0.822913 0.016055 0.215348
0.822913 0.016055 0.217993
0.822913 0.016055 0.220099
0.016055 0.016055 0.016055
0.016055 0.016055 0.016055
0.016055 0.016055 0.016055
0.021470 0.016055 0.016055
0.121790 0.016055 0.016055
0.212068 0.016055 0.016055
0.296479 0.016055 0.016055
0.373310 0.016055 0.016055
0.440076 0.016055 0.016055
0.500288 0.016055 0.016055
0.555590 0.016055 0.016055
0.607221 0.016055 0.016055
0.656091 0.016055 0.016055
0.702546 0.016055 0.016055
0.746915 0.016055 0.016055
0.789975 0.016055 0.016055
0.822913 0.016055 0.016055
0.822913 0.016055 0.016055
0.822913 0.016055 0.029102
0.822913 0.016055 0.081859
0.822913 0.016055 0.118107
0.822913 0.016055 0.143009
0.822913 0.016055 0.161825
0.822913 0.016055 0.176221
0.822913 0.016055 0.187274
0.822913 0.016055 0.195855
0.822913 0.016055 0.202562
0.822913 0.016055 0.207846
0.822913 0.016055 0.212029
0.822913 0.016055 0.215348
0.822913 0.016055 0.217993
0.822913 0.016055 0.220099
0.016055 0.016055 0.016055
0.016055 0.016055 0.016055
0.016055 0.016055 0.016055
0.016055 0.016055 0.016055
0.016055 0.016055 0.016055
0.126443 0.016055 0.016055
0.233493 0.016055 0.016055
0.329150 0.016055 0.016055
0.409266 0.016055 0.016055
0.478227 0.016055 0.016055
0.539259 0.016055 0.016055
0.594998 0.016055 0.016055
0.646755 0.016055 0.016055
0.695460 0.016055 0.016055
0.741388 0.016055 0.016055
0.785749 0.016055 0.016055
0.822913 0.016055 0.016055
0.822912 0.016055 0.016055
0.822912 0.016055 0.016055
0.822912 0.016055 0.019544
0.822912 0.016055 0.072178
0.822913 0.016055 0.112179
0.822912 0.016055 0.138643
0.822912 0.016055 0.158496
0.822913 0.016055 0.173675
0.822912 0.016055 0.185309
0.822912 0.016055 0.194323
0.822913 0.016055 0.201362
0.822913 0.016055 0.206900
0.822913 0.016055 0.211276
0.822912 0.016055 0.214751
0.822913 0.016055 0.217511
0.016055 0.073325 0.016055
0.016055 0.073325 0.016055
0.016055 0.073325 0.016055
0.016055 0.026730 0.016055
0.016055 0.017516 0.016055
0.100715 0.016055 0.016055
0.215633 0.016055 0.016055
0.316267 0.016055 0.016055
0.400757 0.016055 0.016055
0.472259 0.016055 0.016055
0.534934 0.016055 0.016055
0.591799 0.016055 0.016055
0.644337 0.016055 0.016055
0.693631 0.016055 0.016055
0.739976 0.016055 0.016055
0.784668 0.016055 0.016055
0.822913 0.016055 0.016055
0.822913 0.016055 0.016055
0.822913 0.016055 0.016055
0.822913 0.016055 0.016055
0.822913 0.016055 0.058094
0.822913 0.016055 0.103699
0.822913 0.016055 0.132579
0.822913 0.016055 0.153891
0.822913 0.016055 0.170145
0.822912 0.016055 0.182594
0.822913 0.016055 0.192211
0.822913 0.016055 0.199708
0.822913 0.016055 0.205594
0.822912 0.016055 0.210243
0.822913 0.016055 0.213930
0.822913 0.016055 0.216859
0.016055 0.170165 0.016055
0.016055 0.170165 0.016055
0.016055 0.170165 0.016055
0.016055 0.137060 0.016055
0.016055 0.128328 0.016055
0.061195 0.117125 0.016055
0.191735 0.102385 0.016055
0.299247 0.081782 0.016055
0.389714 0.052320 0.016055
0.464582 0.021021 0.016055
0.529433 0.016055 0.016055
0.587754 0.016055 0.016055
0.641296 0.016055 0.016055
0.691336 0.016055 0.016055
0.738209 0.016055 0.016055
0.783317 0.016055 0.016055
0.822913 0.016055 0.016055
0.822912 0.016055 0.016055
0.822913 0.016055 0.016055
0.822912 0.016055 0.016055
0.822913 0.016055 0.041577
0.822913 0.016055 0.092436
0.822913 0.016055 0.124921
0.822913 0.016055 0.148089
0.822913 0.016055 0.165706
0.822913 0.016055 0.179186
0.822912 0.016055 0.189568
0.822913 0.016055 0.197643
0.822913 0.016055 0.203970
0.822913 0.016055 0.208958
0.822913 0.016055 0.212908
0.822912 0.016055 0.216043
0.016055 0.257493 0.016055
0.016055 0.257493 0.016055
0.016055 0.257493 0.016055
0.016055 0.233090 0.016055
0.016055 0.226682 0.016055
0.016211 0.218504 0.016055
0.159068 0.208006 0.016055
0.276465 0.194429 0.016055
0.375234 0.176646 0.016055
0.454612 0.153046 0.016055
0.522386 0.121622 0.016055
0.582609 0.074926 0.016055
0.637453 0.016055 0.016055
0.688444 0.016055 0.016055
0.735995 0.016055 0.016055
0.781624 0.016055 0.016055
0.822899 0.016055 0.016055
0.822913 0.016055 0.016055
0.822912 0.016055 0.016055
0.822913 0.016055 0.016055
0.822912 0.016055 0.024039
0.822913 0.016055 0.076923
0.822913 0.016055 0.115051
0.822913 0.016055 0.140751
0.822912 0.016055 0.160102
0.822913 0.016055 0.174902
0.822913 0.016055 0.186254
0.822913 0.016055 0.195058
0.822913 0.016055 0.201939
0.822913 0.016055 0.207353
0.822912 0.016055 0.211638
0.822913 0.016055 0.215031
0.016055 0.339546 0.016055
0.016055 0.339546 0.016055
0.016055 0.339546 0.016055
0.016055 0.321482 0.016055
0.016055 0.316676 0.016055
0.016055 0.310573 0.016055
0.113868 0.302811 0.016055
0.245992 0.292841 0.016055
0.355651 0.279923 0.016055
0.441503 0.263251 0.016055
0.513275 0.241434 0.016055
0.576022 0.212205 0.016055
0.632574 0.171106 0.016055
0.684789 0.111730 0.016055
0.733212 0.017255 0.016055
0.779499 0.016055 0.016055
0.821423 0.016055 0.016055
0.822913 0.016055 0.016055
0.822913 0.016055 0.016055
0.822913 0.016055 0.016055
0.822913 0.016055 0.016055
0.822913 0.016055 0.055643
0.822912 0.016055 0.102071
0.822912 0.016055 0.131444
0.822913 0.016055 0.153025
0.822912 0.016055 0.169483
0.822913 0.016055 0.182083
0.822913 0.016055 0.191816
0.822913 0.016055 0.199400
0.822912 0.016055 0.205350
0.822913 0.016055 0.210050
0.822913 0.016055 0.213771
0.016055 0.410421 0.016055
0.016055 0.410421 0.016055
0.016055 0.410421 0.016055
0.016055 0.397945 0.016055
0.016055 0.394698 0.016055
0.016055 0.390604 0.016055
0.040523 0.385425 0.016055
0.203825 0.378841 0.016055
0.328077 0.370377 0.016055
0.423930 0.359312 0.016055
0.501351 0.344557 0.016055
0.567518 0.324567 0.016055
0.626340 0.296836 0.016055
0.680145 0.258105 0.016055
0.729703 0.202976 0.016055
0.776825 0.116778 0.016055
0.819559 0.016055 0.016055
0.822913 0.016055 0.016055
0.822913 0.016055 0.016055
0.822913 0.016055 0.016055
0.822913 0.016055 0.016055
0.822912 0.016055 0.031561
0.822913 0.016055 0.084079
0.822913 0.016055 0.119505
0.822913 0.016055 0.144042
0.822912 0.016055 0.162611
0.822913 0.016055 0.176820
0.822913 0.016055 0.187736
0.822913 0.016055 0.196215
0.822913 0.016055 0.202844
0.822913 0.016055 0.208068
0.822913 0.016055 0.212199
0.016055 0.473756 0.016055
0.016055 0.473756 0.016055
0.016055 0.473756 0.016055
0.016055 0.464753 0.016055
0.016055 0.462426 0.016055
0.016055 0.459500 0.016055
0.016055 0.455810 0.016055
0.141266 0.451137 0.016055
0.287972 0.445186 0.016055
0.399831 0.437543 0.016055
0.485485 0.427636 0.016055
0.556408 0.414654 0.016055
0.618310 0.397336 0.016055
0.674211 0.373767 0.016055
0.725259 0.339910 0.016055
0.773447 0.288047 0.016055
0.817196 0.207682 0.016055
0.822913 0.051463 0.016055
0.822912 0.016055 0.016055
0.822913 0.016055 0.016055
0.822912 0.016055 0.016055
0.822913 0.016055 0.016055
0.822913 0.016055 0.058084
0.822913 0.016055 0.103687
0.822913 0.016055 0.132568
0.822913 0.016055 0.153881
0.822913 0.016055 0.170137
0.822913 0.016055 0.182586
0.822913 0.016055 0.192205
0.822913 0.016055 0.199703
0.822913 0.016055 0.205589
0.822913 0.016055 0.210234
0.016055 0.531148 0.016055
0.016055 0.531148 0.016055
0.016055 0.531148 0.016055
0.016055 0.524520 0.016055
0.016055 0.522821 0.016055
0.016055 0.520693 0.016055
0.016055 0.518022 0.016055
0.036339 0.514658 0.016055
0.229533 0.510404 0.016055
0.365625 0.504998 0.016055
0.463747 0.498082 0.016055
0.541653 0.489155 0.016055
0.607858 0.477471 0.016055
0.666567 0.461877 0.016055
0.719603 0.440601 0.016055
0.769135 0.410604 0.016055
0.814185 0.366299 0.016055
0.822913 0.258376 0.016055
0.822913 0.117052 0.016055
0.822913 0.016055 0.016055
0.822913 0.016055 0.016055
0.822913 0.016055 0.016055
0.822913 0.016055 0.028512
0.822912 0.016055 0.081284
0.822913 0.016055 0.117739
0.822913 0.016055 0.142733
0.822913 0.016055 0.161611
0.822912 0.016055 0.176055
0.822913 0.016055 0.187144
0.822913 0.016055 0.195753
0.822912 0.016055 0.202482
0.822912 0.016055 0.207777
0.016055 0.584467 0.016055
0.016055 0.584467 0.016055
0.016055 0.584467 0.016055
0.016055 0.579493 0.016055
0.016055 0.578223 0.016055
0.016055 0.576638 0.016055
0.016055 0.574652 0.016055
0.016055 0.572161 0.016055
0.137125 0.569025 0.016055
0.312487 0.565063 0.016055
0.432828 0.560031 0.016055
0.521621 0.553600 0.016055
0.594038 0.545307 0.016055
0.656600 0.534497 0.016055
0.712359 0.520192 0.016055
0.763602 0.500844 0.016055
0.810326 0.473825 0.016055
0.822913 0.399799 0.016055
0.822912 0.290507 0.016055
0.822912 0.157295 0.016055
0.822913 0.016055 0.016055
0.822913 0.016055 0.016055
0.822912 0.016055 0.016055
0.822913 0.016055 0.048822
0.822913 0.016055 0.097658
0.822912 0.016055 0.128412
0.822913 0.016055 0.150725
0.822913 0.016055 0.167718
0.822913 0.016055 0.180729
0.822912 0.016055 0.190766
0.822912 0.016055 0.198577
0.822913 0.016055 0.204697
0.016055 0.634530 0.016055
0.016055 0.634530 0.016055
0.016055 0.634530 0.016055
0.016055 0.630742 0.016055
0.016055 0.629779 0.016055
0.016055 0.628579 0.016055
0.016055 0.627080 0.016055
0.016055 0.625205 0.016055
0.016055 0.622854 0.016055
0.225685 0.619897 0.016055
0.386497 0.616165 0.016055
0.493507 0.611435 0.016055
0.575308 0.605403 0.016055
0.643424 0.597643 0.016055
0.702950 0.587542 0.016055
0.756470 0.574184 0.016055
0.805344 0.556169 0.016055
0.822913 0.501567 0.016055
0.822912 0.416536 0.016055
0.822913 0.313673 0.016055
0.822913 0.186372 0.016055
0.822913 0.027289 0.016055
0.822912 0.016055 0.016055
0.822913 0.016055 0.016055
0.822913 0.016055 0.067691
0.822912 0.016055 0.109525
0.822912 0.016055 0.136712
0.822912 0.016055 0.157029
0.822912 0.016055 0.172548
0.822913 0.016055 0.184438
0.822913 0.016055 0.193648
0.822912 0.016055 0.200824
0.016055 0.682156 0.016055
0.016055 0.682156 0.016055
0.016055 0.682156 0.016055
0.016055 0.679256 0.016055
0.016055 0.678521 0.016055
0.016055 0.677606 0.016055
0.016055 0.676464 0.016055
0.016055 0.675038 0.016055
0.016055 0.673254 0.016055
0.062889 0.671018 0.016055
0.308811 0.668205 0.016055
0.451704 0.664653 0.016055
0.549106 0.660146 0.016055
0.625664 0.654393 0.016055
0.690468 0.646999 0.016055
0.747248 0.637402 0.016055
0.798857 0.624763 0.016055
0.822912 0.584173 0.016055
0.822912 0.511099 0.016055
0.822913 0.428882 0.016055
0.822913 0.330597 0.016055
0.822912 0.207644 0.016055
0.822913 0.054071 0.016055
0.822913 0.016055 0.016055
0.822912 0.016055 0.029796
0.822912 0.016055 0.082479
0.822912 0.016055 0.118490
0.822913 0.016055 0.143286
0.822913 0.016055 0.162032
0.822913 0.016055 0.176377
0.822912 0.016055 0.187393
0.822912 0.016055 0.195940
0.016055 0.727296 0.016055
0.016055 0.727296 0.016055
0.016055 0.727296 0.016055
0.016055 0.725065 0.016055
0.016055 0.724502 0.016055
0.016055 0.723800 0.016055
0.016055 0.722927 0.016055
0.016055 0.721839 0.016055
0.016055 0.720483 0.016055
0.016055 0.718789 0.016055
0.160436 0.716667 0.016055
0.383374 0.714005 0.016055
0.510624 0.710649 0.016055
0.601014 0.706398 0.016055
0.673568 0.700971 0.016055
0.735159 0.693973 0.016055
0.790245 0.684856 0.016055
0.822913 0.656541 0.016055
0.822913 0.589852 0.016055
0.822913 0.518322 0.016055
0.822913 0.438187 0.016055
0.822912 0.343107 0.016055
0.822913 0.223555 0.016055
0.822912 0.078200 0.016055
0.822913 0.016055 0.016055
0.822912 0.016055 0.042689
0.822913 0.016055 0.093276
0.822913 0.016055 0.125471
0.822913 0.016055 0.148496
0.822912 0.016055 0.166015
0.822913 0.016055 0.179423
0.822913 0.016055 0.189744
0.016055 0.771206 0.016055
0.016055 0.771206 0.016055
0.016055 0.771206 0.016055
0.016055 0.769460 0.016055
0.016055 0.769018 0.016055
0.016055 0.768469 0.016055
0.016055 0.767785 0.016055
0.016055 0.766932 0.016055
0.016055 0.765869 0.016055
0.016055 0.764540 0.016055
0.016055 0.762876 0.016055
0.247258 0.760790 0.016055
0.448876 0.758168 0.016055
0.565046 0.754865 0.016055
0.650069 0.750694 0.016055
0.718992 0.745403 0.016055
0.778697 0.738623 0.016055
0.822912 0.722852 0.016055
0.822912 0.659871 0.016055
0.822913 0.594218 0.016055
0.822912 0.523871 0.016055
0.822912 0.445298 0.016055
0.822912 0.352569 0.016055
0.822913 0.235631 0.016055
0.822913 0.095567 0.016055
0.822913 0.016055 0.016055
0.822913 0.016055 0.054573
0.822912 0.016055 0.101352
0.822913 0.016055 0.130938
0.822913 0.016055 0.152639
0.822912 0.016055 0.169187
0.822913 0.016055 0.181847
0.016055 0.812246 0.016055
0.016055 0.812246 0.016055
0.016055 0.812246 0.016055
0.016055 0.810987 0.016055
0.016055 0.810669 0.016055
0.016055 0.810273 0.016055
0.016055 0.809780 0.016055
0.016055 0.809166 0.016055
0.016055 0.808400 0.016055
0.016055 0.807443 0.016055
0.016055 0.806245 0.016055
0.016055 0.804742 0.016055
0.329255 0.802853 0.016055
0.508050 0.800469 0.016055
0.615980 0.797437 0.016055
0.696775 0.793555 0.016055
0.763002 0.788557 0.016055
0.818852 0.782087 0.016055
0.822913 0.724584 0.016055
0.822912 0.662457 0.016055
0.822913 0.597611 0.016055
0.822913 0.528179 0.016055
0.822913 0.450794 0.016055
0.822912 0.359808 0.016055
0.822912 0.244982 0.016055
0.822913 0.108068 0.016055
0.822913 0.016055 0.016055
0.822913 0.016055 0.064298
0.822913 0.016055 0.107541
0.822912 0.016055 0.135287
0.822912 0.016055 0.155943
0.822913 0.016055 0.171713
0.016055 0.822912 0.016055
0.016055 0.822912 0.016055
0.016055 0.822912 0.016055
0.016055 0.822912 0.016055
0.016055 0.822912 0.016055
0.016055 0.822913 0.016055
0.016055 0.822913 0.016055
0.016055 0.822912 0.016055
0.016055 0.822912 0.016055
0.016055 0.822913 0.016055
0.016055 0.822913 0.016055
0.016055 0.822913 0.016055
0.016055 0.822913 0.016055
0.379867 0.822913 0.016055
0.544159 0.822912 0.016055
0.649480 0.822912 0.016055
0.730796 0.822913 0.016055
0.799844 0.822912 0.016055
0.822912 0.787230 0.016055
0.822913 0.725939 0.016055
0.822912 0.664482 0.016055
0.822913 0.600268 0.016055
0.822913 0.531551 0.016055
0.822912 0.455086 0.016055
0.822913 0.365401 0.016055
0.822913 0.252328 0.016055
0.822913 0.117441 0.016055
0.822913 0.016055 0.019847
0.822913 0.016055 0.072495
0.822913 0.016055 0.112352
0.822913 0.016055 0.138764
0.822913 0.016055 0.158578
0.016055 0.822913 0.016055
0.016055 0.822913 0.016055
0.016055 0.822913 0.016055
0.016055 0.822912 0.016055
0.016055 0.822912 0.016055
0.016055 0.822912 0.016055
0.016055 0.822912 0.016055
0.016055 0.822912 0.016055
0.016055 0.822912 0.016055
0.016055 0.822912 0.016055
0.016055 0.822912 0.016055
0.016055 0.822912 0.016055
0.016055 0.822912 0.016055
0.058477 0.822912 0.016055
0.399129 0.822912 0.016055
0.551640 0.822912 0.016055
0.652907 0.822913 0.016055
0.732229 0.822912 0.016055
0.800117 0.822912 0.016055
0.822912 0.787699 0.016055
0.822913 0.727007 0.016055
0.822912 0.666078 0.016055
0.822912 0.602362 0.016055
0.822913 0.534207 0.016055
0.822913 0.458459 0.016055
0.822913 0.369761 0.016055
0.822913 0.258128 0.016055
0.822912 0.124726 0.016055
0.822912 0.016055 0.025820
0.822912 0.016055 0.078691
0.822913 0.016055 0.116135
0.822912 0.016055 0.141539
0.016055 0.822913 0.016055
0.016055 0.822913 0.016055
0.016055 0.822913 0.016055
0.016055 0.822912 0.016055
0.016055 0.822913 0.016055
0.016055 0.822912 0.016055
0.016055 0.822913 0.016055
0.016055 0.822912 0.016055
0.016055 0.822912 0.016055
0.016055 0.822913 0.016055
0.016055 0.822912 0.016055
0.016055 0.822912 0.016055
0.016055 0.822913 0.016055
0.016055 0.822913 0.016055
0.114416 0.822913 0.016055
0.413230 0.822912 0.016055
0.557346 0.822912 0.016055
0.655568 0.822912 0.016055
0.733353 0.822912 0.016055
0.800332 0.822913 0.016055
0.822913 0.788069 0.016055
0.822913 0.727852 0.016055
0.822913 0.667340 0.016055
0.822912 0.604020 0.016055
0.822912 0.536309 0.016055
0.822912 0.461125 0.016055
0.822913 0.373190 0.016055
0.822912 0.262720 0.016055
0.822912 0.130425 0.016055
0.822912 0.016055 0.030955
0.822912 0.016055 0.083520
0.822913 0.016055 0.119139
0.016055 0.822913 0.016055
0.016055 0.822913 0.016055
0.016055 0.822913 0.016055
0.016055 0.822913 0.016055
0.016055 0.822913 0.016055
0.016055 0.822912 0.016055
0.016055 0.822913 0.016055
0.016055 0.822912 0.016055
0.016055 0.822913 0.016055
0.016055 0.822913 0.016055
0.016055 0.822912 0.016055
0.016055 0.822912 0.016055
0.016055 0.822913 0.016055
0.016055 0.822913 0.016055
0.016055 0.822913 0.016055
0.149390 0.822913 0.016055
0.423766 0.822913 0.016055
0.561750 0.822913 0.016055
0.657650 0.822912 0.016055
0.734238 0.822912 0.016055
0.800502 0.822912 0.016055
0.822912 0.788363 0.016055
0.822912 0.728523 0.016055
0.822912 0.668343 0.016055
0.822912 0.605338 0.016055
0.822913 0.537980 0.016055
0.822912 0.463240 0.016055
0.822913 0.375904 0.016055
0.822912 0.266372 0.016055
0.822912 0.134951 0.016055
0.822912 0.016055 0.035238
0.822913 0.016055 0.087277
0.016055 0.822913 0.016055
0.016055 0.822913 0.016055
0.016055 0.822913 0.016055
0.016055 0.822912 0.016055
0.016055 0.822913 0.016055
0.016055 0.822913 0.016055
0.016055 0.822912 0.016055
0.016055 0.822913 0.016055
0.016055 0.822913 0.016055
0.016055 0.822913 0.016055
0.016055 0.822912 0.016055
0.016055 0.822913 0.016055
0.016055 0.822912 0.016055
0.016055 0.822912 0.016055
0.016055 0.822912 0.016055
0.016055 0.822912 0.016055
0.175079 0.822912 0.016055
0.431789 0.822912 0.016055
0.565183 0.822913 0.016055
0.659290 0.822913 0.016055
0.734940 0.822912 0.016055
0.800637 0.822912 0.016055
0.822913 0.788597 0.016055
0.822913 0.729058 0.016055
0.822912 0.669142 0.016055
0.822912 0.606389 0.016055
0.822912 0.539311 0.016055
0.822913 0.464923 0.016055
0.822913 0.378060 0.016055
0.822912 0.269283 0.016055
0.822913 0.138567 0.016055
0.822913 0.016055 0.038797
0.016055 0.822912 0.016055
0.016055 0.822912 0.016055
0.016055 0.822912 0.016055
0.016055 0.822913 0.016055
0.016055 0.822913 0.016055
0.016055 0.822913 0.016055
0.016055 0.822912 0.016055
0.016055 0.822912 0.016055
0.016055 0.822913 0.016055
0.016055 0.822913 0.016055
0.016055 0.822913 0.016055
0.016055 0.822912 0.016055
0.016055 0.822912 0.016055
0.016055 0.822913 0.016055
0.016055 0.822913 0.016055
0.016055 0.822912 0.016055
0.016055 0.822913 0.016055
0.194152 0.822913 0.016055
0.437970 0.822913 0.016055
0.567878 0.822912 0.016055
0.660587 0.822912 0.016055
0.735497 0.822913 0.016055
0.800744 0.822912 0.016055
0.822912 0.788783 0.016055
0.822912 0.729486 0.016055
0.822912 0.669781 0.016055
0.822912 0.607229 0.016055
0.822913 0.540375 0.016055
0.822913 0.466266 0.016055
0.822912 0.379780 0.016055
0.822912 0.271607 0.016055
0.822913 0.141453 0.016055
0.016055 0.822912 0.016055
0.016055 0.822912 0.016055
0.016055 0.822912 0.016055
0.016055 0.822913 0.016055
0.016055 0.822913 0.016055
0.016055 0.822913 0.016055
0.016055 0.822912 0.016055
0.016055 0.822912 0.016055
0.016055 0.822913 0.016055
0.016055 0.822913 0.016055
0.016055 0.822912 0.016055
0.016055 0.822912 0.016055
0.016055 0.822912 0.016055
0.016055 0.822912 0.016055
0.016055 0.822912 0.016055
0.016055 0.822912 0.016055
0.016055 0.822912 0.016055
0.016055 0.822913 0.016055
0.208541 0.822912 0.016055
0.442778 0.822913 0.016055
0.570005 0.822912 0.016055
0.661617 0.822912 0.016055
0.735941 0.822912 0.016055
0.800830 0.822913 0.016055
0.822912 0.788932 0.016055
0.822913 0.729827 0.016055
0.822913 0.670291 0.016055
0.822912 0.607901 0.016055
0.822913 0.541226 0.016055
0.822912 0.467341 0.016055
0.822912 0.381154 0.016055
0.822913 0.273465 0.016055
0.016055 0.822912 0.016055
0.016055 0.822912 0.016055
0.016055 0.822912 0.016055
0.016055 0.822913 0.016055
0.016055 0.822912 0.016055
0.016055 0.822912 0.016055
0.016055 0.822912 0.016055
0.016055 0.822912 0.016055
0.016055 0.822912 0.016055
0.016055 0.822913 0.016055
0.016055 0.822912 0.016055
0.016055 0.822913 0.016055
0.016055 0.822913 0.016055
0.016055 0.822912 0.016055
0.016055 0.822913 0.016055
0.016055 0.822913 0.016055
0.016055 0.822913 0.016055
0.016055 0.822913 0.016055
0.016055 0.822912 0.016055
0.219566 0.822913 0.016055
0.446544 0.822913 0.016055
0.571693 0.822912 0.016055
0.662438 0.822912 0.016055
0.736297 0.822913 0.016055
0.800899 0.822912 0.016055
0.822913 0.789051 0.016055
0.822912 0.730101 0.016055
0.822912 0.670701 0.016055
0.822913 0.608440 0.016055
0.822912 0.541909 0.016055
0.822912 0.468201 0.016055
0.822912 0.382252 0.016055
0.016055 0.822913 0.016055
0.016055 0.822913 0.016055
0.016055 0.822913 0.016055
0.016055 0.822912 0.016055
0.016055 0.822913 0.016055
0.016055 0.822912 0.016055
0.016055 0.822913 0.016055
0.016055 0.822913 0.016055
0.016055 0.822912 0.016055
0.016055 0.822912 0.016055
0.016055 0.822913 0.016055
0.016055 0.822913 0.016055
0.016055 0.822912 0.016055
0.016055 0.822913 0.016055
0.016055 0.822913 0.016055
0.016055 0.822912 0.016055
0.016055 0.822913 0.016055
0.016055 0.822912 0.016055
0.016055 0.822912 0.016055
0.016055 0.822912 0.016055
0.228087 0.822912 0.016055
0.449512 0.822913 0.016055
0.573035 0.822912 0.016055
0.663094 0.822912 0.016055
0.736581 0.822912 0.016055
0.800954 0.822912 0.016055
0.822913 0.789147 0.016055
0.822912 0.730321 0.016055
0.822913 0.671030 0.016055
0.822912 0.608873 0.016055
0.822913 0.542456 0.016055
0.822913 0.468889 0.016055
0.016055 0.822912 0.016055
0.016055 0.822912 0.016055
0.016055 0.822912 0.016055
0.016055 0.822912 0.016055
0.016055 0.822912 0.016055
0.016055 0.822912 0.016055
0.016055 0.822913 0.016055
0.016055 0.822913 0.016055
0.016055 0.822913 0.016055
0.016055 0.822912 0.016055
0.016055 0.822912 0.016055
0.016055 0.822913 0.016055
0.016055 0.822913 0.016055
0.016055 0.822913 0.016055
0.016055 0.822912 0.016055
0.016055 0.822913 0.016055
0.016055 0.822912 0.016055
0.016055 0.822913 0.016055
0.016055 0.822912 0.016055
0.016055 0.822912 0.016055
0.016055 0.822912 0.016055
0.234734 0.822912 0.016055
0.451865 0.822913 0.016055
0.574105 0.822912 0.016055
0.663618 0.822913 0.016055
0.736809 0.822913 0.016055
0.800998 0.822913 0.016055
0.822912 0.789223 0.016055
0.822912 0.730498 0.016055
0.822913 0.671294 0.016055
0.822912 0.609220 0.016055
0.822913 0.542895 0.016055
0.016055 0.822913 0.016055
0.016055 0.822913 0.016055
0.016055 0.822913 0.016055
0.016055 0.822912 0.016055
0.016055 0.822912 0.016055
0.016055 0.822912 0.016055
0.016055 0.822913 0.016055
0.016055 0.822913 0.016055
0.016055 0.822913 0.016055
0.016055 0.822913 0.016055
0.016055 0.822913 0.016055
0.016055 0.822913 0.016055
0.016055 0.822912 0.016055
0.016055 0.822913 0.016055
0.016055 0.822912 0.016055
0.016055 0.822913 0.016055
0.016055 0.822912 0.016055
0.016055 0.822913 0.016055
0.016055 0.822912 0.016055
0.016055 0.822913 0.016055
0.016055 0.822913 0.016055
0.016055 0.822913 0.016055
0.239974 0.822912 0.016055
