luts/Z-Log2/gain +4/zLog2_zRGB-ax2_32_gain4.cube
TITLE "Generated by ZCAM"
LUT_3D_SIZE 8
DOMAIN_MIN 0.000000 0.000000 0.000000
DOMAIN_MAX 0.903226 0.903226 0.903226
0.016055 0.016055 0.016055
0.121790 0.016055 0.016055
0.440076 0.016055 0.016055
0.656091 0.016055 0.016055
0.822913 0.016055 0.016055
0.822913 0.016055 0.118107
0.822913 0.016055 0.187274
0.822913 0.016055 0.212029
0.016055 0.073325 0.016055
0.016055 0.017516 0.016055
0.400757 0.016055 0.016055
0.644337 0.016055 0.016055
0.822913 0.016055 0.016055
0.822913 0.016055 0.058094
0.822913 0.016055 0.170145
0.822913 0.016055 0.205594
0.016055 0.410421 0.016055
0.016055 0.394698 0.016055
0.328077 0.370377 0.016055
0.626340 0.296836 0.016055
0.819559 0.016055 0.016055
0.822913 0.016055 0.016055
0.822913 0.016055 0.144042
0.822913 0.016055 0.196215
0.016055 0.634530 0.016055
0.016055 0.629779 0.016055
0.016055 0.622854 0.016055
0.575308 0.605403 0.016055
0.805344 0.556169 0.016055
0.822913 0.186372 0.016055
0.822913 0.016055 0.067691
0.822912 0.016055 0.172548
0.016055 0.812246 0.016055
0.016055 0.810669 0.016055
0.016055 0.808400 0.016055
0.329255 0.802853 0.016055
0.763002 0.788557 0.016055
0.822913 0.597611 0.016055
0.822912 0.244982 0.016055
0.822913 0.016055 0.107541
0.016055 0.822913 0.016055
0.016055 0.822913 0.016055
0.016055 0.822913 0.016055
0.016055 0.822913 0.016055
0.423766 0.822913 0.016055
0.800502 0.822912 0.016055
0.822912 0.605338 0.016055
0.822912 0.266372 0.016055
0.016055 0.822912 0.016055
0.016055 0.822912 0.016055
0.016055 0.822912 0.016055
0.016055 0.822913 0.016055
0.016055 0.822913 0.016055
0.446544 0.822913 0.016055
0.800899 0.822912 0.016055
0.822913 0.608440 0.016055
0.016055 0.822913 0.016055
0.016055 0.822912 0.016055
0.016055 0.822912 0.016055
0.016055 0.822912 0.016055
0.016055 0.822912 0.016055
0.016055 0.822912 0.016055
0.455227 0.822912 0.016055
0.801062 0.822912 0.016055
0.016055 0.016055 0.061392
0.085775 0.016055 0.085084
0.430368 0.016055 0.112891
0.653049 0.016055 0.167826
0.822913 0.016055 0.263567
0.822913 0.016055 0.243282
0.822912 0.016055 0.234853
0.822912 0.016055 0.231306
0.016055 0.016055 0.016055
0.016055 0.016055 0.016055
0.388969 0.016055 0.016055
0.641094 0.016055 0.028107
0.822913 0.016055 0.176158
0.822913 0.016055 0.208800
0.822913 0.016055 0.220644
0.822913 0.016055 0.225355
0.016055 0.385697 0.016055
0.016055 0.368028 0.016055
0.310796 0.339761 0.016055
0.622761 0.253576 0.016055
0.818501 0.016055 0.016055
0.822912 0.016055 0.150154
0.822913 0.016055 0.198976
0.822913 0.016055 0.216671
0.016055 0.627159 0.016055
0.016055 0.622214 0.016055
0.016055 0.614998 0.016055
0.570582 0.596770 0.016055
0.804133 0.544821 0.016055
0.822913 0.161654 0.016055
0.822912 0.016055 0.139234
0.822913 0.016055 0.194810
0.016055 0.809806 0.016055
0.016055 0.808192 0.016055
0.016055 0.805873 0.016055
0.312073 0.800204 0.016055
0.761334 0.785555 0.016055
0.822913 0.594146 0.016055
0.822913 0.236907 0.016055
0.822913 0.016055 0.134635
0.016055 0.822913 0.016055
0.016055 0.822913 0.016055
0.016055 0.822913 0.016055
0.016055 0.822913 0.016055
0.420224 0.822912 0.016055
0.801040 0.822913 0.016055
0.822913 0.603975 0.016055
0.822913 0.263201 0.016055
0.016055 0.822912 0.016055
0.016055 0.822913 0.016055
0.016055 0.822913 0.016055
0.016055 0.822913 0.016055
0.016055 0.822913 0.016055
0.445298 0.822912 0.016055
0.801122 0.822912 0.016055
0.822912 0.607879 0.016055
0.016055 0.822912 0.016055
0.016055 0.822913 0.016055
0.016055 0.822913 0.016055
0.016055 0.822913 0.016055
0.016055 0.822912 0.016055
0.016055 0.822913 0.016055
0.454737 0.822912 0.016055
0.801155 0.822912 0.016055
0.016055 0.016055 0.409219
0.026105 0.016055 0.414982
0.415815 0.016055 0.422857
0.648663 0.016055 0.440356
0.822913 0.016055 0.472147
0.822913 0.016055 0.361392
0.822913 0.016055 0.291965
0.822912 0.016055 0.256629
0.016055 0.016055 0.361802
0.016055 0.016055 0.369004
0.371185 0.016055 0.378723
0.636411 0.016055 0.400097
0.822582 0.016055 0.443398
0.822913 0.016055 0.340627
0.822913 0.016055 0.280128
0.822913 0.016055 0.251145
0.016055 0.344785 0.267498
0.016055 0.322551 0.278341
0.284106 0.286689 0.293146
0.617585 0.180637 0.325068
0.816985 0.016055 0.384970
0.822912 0.016055 0.306136
0.822913 0.016055 0.262560
0.822912 0.016055 0.243223
0.016055 0.616221 0.016055
0.016055 0.610978 0.016055
0.016055 0.603315 0.016055
0.563693 0.583831 0.016055
0.802401 0.527541 0.120825
0.822912 0.123311 0.196474
0.822913 0.016055 0.216203
0.822912 0.016055 0.223598
0.016055 0.806263 0.016055
0.016055 0.804598 0.016055
0.016055 0.802206 0.016055
0.285520 0.796344 0.016055
0.758950 0.781202 0.016055
0.822913 0.589100 0.016055
0.822913 0.225108 0.051611
0.822913 0.016055 0.169712
0.016055 0.822913 0.016055
0.016055 0.822913 0.016055
0.016055 0.822912 0.016055
0.016055 0.822913 0.016055
0.415039 0.822912 0.016055
0.801808 0.822912 0.016055
0.822912 0.602026 0.016055
0.822913 0.258667 0.016055
0.016055 0.822913 0.016055
0.016055 0.822913 0.016055
0.016055 0.822913 0.016055
0.016055 0.822913 0.016055
0.016055 0.822912 0.016055
0.443512 0.822913 0.016055
0.801438 0.822912 0.016055
0.822913 0.607084 0.016055
0.016055 0.822913 0.016055
0.016055 0.822913 0.016055
0.016055 0.822913 0.016055
0.016055 0.822913 0.016055
0.016055 0.822913 0.016055
0.016055 0.822913 0.016055
0.454040 0.822912 0.016055
0.801288 0.822912 0.016055
0.016055 0.016055 0.635338
0.016055 0.016055 0.637121
0.376821 0.016055 0.639610
0.637866 0.016055 0.645361
0.822912 0.016055 0.658149
0.822913 0.016055 0.509009
0.822913 0.016055 0.390404
0.822913 0.016055 0.310072
0.016055 0.016055 0.621819
0.016055 0.016055 0.623735
0.321001 0.016055 0.626410
0.624847 0.016055 0.632583
0.819117 0.016055 0.646395
0.822913 0.016055 0.500414
0.822912 0.016055 0.383370
0.822912 0.016055 0.305534
0.016055 0.202925 0.600896
0.016055 0.165240 0.603035
0.210680 0.103407 0.606017
0.604763 0.016055 0.612880
0.813308 0.016055 0.628177
0.822912 0.016055 0.487278
0.822913 0.016055 0.372938
0.822912 0.016055 0.298972
0.016055 0.587533 0.539383
0.016055 0.581395 0.542355
0.016055 0.572356 0.546479
0.546336 0.549082 0.555879
0.798201 0.479277 0.576380
0.822913 0.016055 0.450147
0.822912 0.016055 0.345095
0.822913 0.016055 0.282579
0.016055 0.797434 0.160019
0.016055 0.795632 0.175315
0.016055 0.793035 0.195659
0.212446 0.786669 0.238577
0.753192 0.770398 0.321601
0.822912 0.576407 0.294167
0.822913 0.194805 0.254996
0.822913 0.016055 0.239602
0.016055 0.822912 0.016055
0.016055 0.822912 0.016055
0.016055 0.822912 0.016055
0.016055 0.822912 0.016055
0.401833 0.822913 0.016055
0.803662 0.822912 0.016055
0.822912 0.597310 0.016055
0.822913 0.247692 0.097633
0.016055 0.822912 0.016055
0.016055 0.822913 0.016055
0.016055 0.822913 0.016055
0.016055 0.822912 0.016055
0.016055 0.822913 0.016055
0.439170 0.822912 0.016055
0.802193 0.822912 0.016055
0.822912 0.605186 0.016055
0.016055 0.822913 0.016055
0.016055 0.822912 0.016055
0.016055 0.822912 0.016055
0.016055 0.822912 0.016055
0.016055 0.822913 0.016055
0.016055 0.822913 0.016055
0.452376 0.822913 0.016055
0.801602 0.822912 0.016055
0.016055 0.016055 0.813443
0.016055 0.016055 0.814035
0.239342 0.016055 0.814866
0.609536 0.016055 0.816803
0.814663 0.016055 0.821232
0.822913 0.016055 0.668943
0.822912 0.016055 0.522052
0.822913 0.016055 0.401374
0.016055 0.016055 0.809029
0.016055 0.016055 0.809646
0.139169 0.016055 0.810512
0.594314 0.016055 0.812532
0.810401 0.016055 0.817154
0.822912 0.016055 0.666336
0.822912 0.016055 0.518816
0.822913 0.016055 0.398609
0.016055 0.016055 0.802482
0.016055 0.016055 0.803134
0.016055 0.016055 0.804051
0.570386 0.016055 0.806188
0.804083 0.016055 0.811087
0.822912 0.016055 0.662493
0.822912 0.016055 0.514105
0.822913 0.016055 0.394624
0.016055 0.494474 0.785337
0.016055 0.484373 0.786091
0.016055 0.469096 0.787151
0.497710 0.427237 0.789622
0.787596 0.269913 0.795273
0.822913 0.016055 0.652591
0.822913 0.016055 0.502263
0.822913 0.016055 0.384837
0.016055 0.773600 0.734532
0.016055 0.771451 0.735553
0.016055 0.768355 0.736986
0.016055 0.760775 0.740328
0.738886 0.741506 0.747993
0.822913 0.541201 0.623290
0.822913 0.107339 0.469403
0.822913 0.016055 0.359225
0.016055 0.822912 0.324082
0.016055 0.822913 0.329060
0.016055 0.822913 0.335940
0.016055 0.822912 0.351625
0.364091 0.822913 0.385590
0.808279 0.822912 0.455739
0.822913 0.585492 0.340102
0.822913 0.220153 0.276468
0.016055 0.822913 0.016055
0.016055 0.822913 0.016055
0.016055 0.822912 0.016055
0.016055 0.822913 0.016055
0.016055 0.822912 0.016055
0.428185 0.822913 0.016055
0.804015 0.822913 0.016055
0.822912 0.600597 0.016055
0.016055 0.822912 0.016055
0.016055 0.822913 0.016055
0.016055 0.822912 0.016055
0.016055 0.822913 0.016055
0.016055 0.822912 0.016055
0.016055 0.822913 0.016055
0.448338 0.822912 0.016055
0.802351 0.822912 0.016055
0.016055 0.016055 0.822912
0.016055 0.016055 0.822912
0.016055 0.016055 0.822912
0.352690 0.016055 0.822912
0.630911 0.016055 0.822912
0.816337 0.016055 0.822912
0.822913 0.016055 0.673094
0.822913 0.016055 0.527206
0.016055 0.016055 0.822912
0.016055 0.016055 0.822912
0.016055 0.016055 0.822912
0.329655 0.016055 0.822912
0.627311 0.016055 0.822912
0.816307 0.016055 0.822912
0.822913 0.016055 0.672061
0.822913 0.016055 0.525899
0.016055 0.016055 0.822912
0.016055 0.016055 0.822912
0.016055 0.016055 0.822912
0.291015 0.016055 0.822912
0.621967 0.016055 0.822912
0.816264 0.016055 0.822912
0.822913 0.016055 0.670576
0.822913 0.016055 0.524031
0.016055 0.016055 0.822912
0.016055 0.016055 0.822912
0.016055 0.016055 0.822912
0.165644 0.016055 0.822912
0.607987 0.016055 0.822912
0.816156 0.016055 0.822912
0.822913 0.016055 0.666946
0.822913 0.016055 0.519506
0.016055 0.566701 0.822912
0.016055 0.562948 0.822912
0.016055 0.557536 0.822912
0.016055 0.544202 0.822912
0.564274 0.509150 0.822912
0.815867 0.393667 0.822912
0.822913 0.016055 0.657611
0.822913 0.016055 0.508150
0.016055 0.822912 0.789272
0.016055 0.822912 0.790506
0.016055 0.822912 0.792250
0.016055 0.822912 0.796360
0.197864 0.822913 0.805998
0.814908 0.817239 0.822912
0.822913 0.552992 0.630197
0.822912 0.141057 0.476831
0.016055 0.822913 0.364773
0.016055 0.822912 0.366513
0.016055 0.822913 0.368951
0.016055 0.822912 0.374635
0.016055 0.822912 0.387717
0.397346 0.822912 0.417140
0.808546 0.822912 0.479278
0.822912 0.589116 0.356435
0.016055 0.822912 0.016055
0.016055 0.822912 0.016055
0.016055 0.822912 0.016055
0.016055 0.822912 0.016055
0.016055 0.822913 0.016055
0.016055 0.822912 0.016055
0.438148 0.822912 0.016055
0.804160 0.822912 0.016055
0.016055 0.016055 0.822912
0.016055 0.016055 0.822912
0.016055 0.016055 0.822912
0.016055 0.016055 0.822912
0.383487 0.016055 0.822912
0.636279 0.016055 0.822912
0.816315 0.016055 0.822912
0.822913 0.016055 0.674785
0.016055 0.016055 0.822912
0.016055 0.016055 0.822912
0.016055 0.016055 0.822912
0.016055 0.016055 0.822912
0.375859 0.016055 0.822912
0.634864 0.016055 0.822912
0.816302 0.016055 0.822912
0.822913 0.016055 0.674360
0.016055 0.016055 0.822913
0.016055 0.016055 0.822912
0.016055 0.016055 0.822912
0.016055 0.016055 0.822912
0.364428 0.016055 0.822912
0.632824 0.016055 0.822912
0.816285 0.016055 0.822912
0.822912 0.016055 0.673754
0.016055 0.016055 0.822912
0.016055 0.016055 0.822912
0.016055 0.016055 0.822912
0.016055 0.016055 0.822913
0.333443 0.016055 0.822912
0.627809 0.016055 0.822912
0.816242 0.016055 0.822912
0.822913 0.016055 0.672302
0.016055 0.016055 0.822912
0.016055 0.016055 0.822912
0.016055 0.016055 0.822912
0.016055 0.016055 0.822912
0.232074 0.016055 0.822912
0.614735 0.016055 0.822912
0.816135 0.016055 0.822912
0.822913 0.016055 0.668755
0.016055 0.577193 0.822912
0.016055 0.575721 0.822912
0.016055 0.573624 0.822912
0.016055 0.568591 0.822912
0.016055 0.556233 0.822912
0.574451 0.524008 0.822912
0.815849 0.421532 0.822912
0.822912 0.016055 0.659647
0.016055 0.822912 0.790184
0.016055 0.822913 0.790694
0.016055 0.822913 0.791414
0.016055 0.822912 0.793116
0.016055 0.822913 0.797126
0.271227 0.822912 0.806532
0.814908 0.817239 0.822912
0.822913 0.557652 0.632975
0.016055 0.822912 0.379247
0.016055 0.822913 0.379937
0.016055 0.822913 0.380907
0.016055 0.822912 0.383192
0.016055 0.822913 0.388548
0.016055 0.822913 0.400959
0.409696 0.822912 0.428869
0.808655 0.822912 0.488149
0.016055 0.016055 0.822912
0.016055 0.016055 0.822912
0.016055 0.016055 0.822912
0.016055 0.016055 0.822912
0.016055 0.016055 0.822912
0.394975 0.016055 0.822912
0.638452 0.016055 0.822912
0.816306 0.016055 0.822912
0.016055 0.016055 0.822912
0.016055 0.016055 0.822912
0.016055 0.016055 0.822912
0.016055 0.016055 0.822912
0.016055 0.016055 0.822912
0.391985 0.016055 0.822912
0.637871 0.016055 0.822912
0.816301 0.016055 0.822912
0.016055 0.016055 0.822912
0.016055 0.016055 0.822912
0.016055 0.016055 0.822912
0.016055 0.016055 0.822912
0.016055 0.016055 0.822912
0.387672 0.016055 0.822912
0.637043 0.016055 0.822912
0.816293 0.016055 0.822912
0.016055 0.016055 0.822912
0.016055 0.016055 0.822912
0.016055 0.016055 0.822912
0.016055 0.016055 0.822912
0.016055 0.016055 0.822912
0.377059 0.016055 0.822912
0.635055 0.016055 0.822912
0.816275 0.016055 0.822912
0.016055 0.016055 0.822912
0.016055 0.016055 0.822912
0.016055 0.016055 0.822912
0.016055 0.016055 0.822912
0.016055 0.016055 0.822912
0.348741 0.016055 0.822912
0.630170 0.016055 0.822912
0.816232 0.016055 0.822912
0.016055 0.016055 0.822912
0.016055 0.016055 0.822912
0.016055 0.016055 0.822912
0.016055 0.016055 0.822912
0.016055 0.016055 0.822912
0.255603 0.016055 0.822912
0.617453 0.016055 0.822912
0.816126 0.016055 0.822912
0.016055 0.581344 0.822912
0.016055 0.580740 0.822912
0.016055 0.579883 0.822912
0.016055 0.577846 0.822912
0.016055 0.572958 0.822912
0.016055 0.560969 0.822912
0.578485 0.529808 0.822912
0.815842 0.432011 0.822912
0.016055 0.822913 0.790557
0.016055 0.822912 0.790770
0.016055 0.822912 0.791072
0.016055 0.822913 0.791785
0.016055 0.822912 0.793470
0.016055 0.822913 0.797440
0.297276 0.822912 0.806750
0.814908 0.817239 0.822912
