luts/Z-Log2/gain +4/zLog2_zRGB-ax2_32_gain4.cube
TITLE "Generated by ZCAM"
LUT_3D_SIZE 5
DOMAIN_MIN 0.000000 0.000000 0.000000
DOMAIN_MAX 0.903226 0.903226 0.903226
0.016055 0.016055 0.016055
0.373310 0.016055 0.016055
0.746915 0.016055 0.016055
0.822913 0.016055 0.143009
0.822913 0.016055 0.212029
0.016055 0.339546 0.016055
0.245992 0.292841 0.016055
0.733212 0.017255 0.016055
0.822913 0.016055 0.055643
0.822913 0.016055 0.199400
0.016055 0.727296 0.016055
0.016055 0.721839 0.016055
0.673568 0.700971 0.016055
0.822912 0.343107 0.016055
0.822913 0.016055 0.148496
0.016055 0.822913 0.016055
0.016055 0.822913 0.016055
0.016055 0.822912 0.016055
0.800637 0.822912 0.016055
0.822913 0.378060 0.016055
0.016055 0.822913 0.016055
0.016055 0.822913 0.016055
0.016055 0.822913 0.016055
0.016055 0.822912 0.016055
0.801062 0.822912 0.016055
0.016055 0.016055 0.337049
0.346138 0.016055 0.352687
0.743382 0.016055 0.399872
0.822913 0.016055 0.310822
0.822913 0.016055 0.248320
0.016055 0.263616 0.179735
0.199959 0.201938 0.206901
0.729404 0.016055 0.287701
0.822913 0.016055 0.267125
0.822913 0.016055 0.237331
0.016055 0.718825 0.016055
0.016055 0.713127 0.016055
0.668191 0.691085 0.016055
0.822913 0.321201 0.016055
0.822912 0.016055 0.193653
0.016055 0.822912 0.016055
0.016055 0.822912 0.016055
0.016055 0.822913 0.016055
0.801475 0.822912 0.016055
0.822913 0.374321 0.016055
0.016055 0.822913 0.016055
0.016055 0.822912 0.016055
0.016055 0.822912 0.016055
0.016055 0.822913 0.016055
0.801243 0.822912 0.016055
0.016055 0.016055 0.728423
0.209993 0.016055 0.730463
0.730187 0.016055 0.737569
0.822912 0.016055 0.551841
0.822913 0.016055 0.351275
0.016055 0.016055 0.712887
0.016055 0.016055 0.715096
0.715158 0.016055 0.722783
0.822913 0.016055 0.541586
0.822913 0.016055 0.344108
0.016055 0.684811 0.642214
0.016055 0.677803 0.645530
0.647534 0.650231 0.656904
0.822912 0.221053 0.496294
0.822913 0.016055 0.315727
0.016055 0.822912 0.016055
0.016055 0.822912 0.016055
0.016055 0.822912 0.016055
0.804565 0.822912 0.016055
0.822912 0.360267 0.115357
0.016055 0.822913 0.016055
0.016055 0.822912 0.016055
0.016055 0.822913 0.016055
0.016055 0.822913 0.016055
0.801896 0.822913 0.016055
0.016055 0.016055 0.822912
0.016055 0.016055 0.822912
0.446623 0.016055 0.822912
0.816330 0.016055 0.822912
0.822912 0.016055 0.562609
0.016055 0.016055 0.822912
0.016055 0.016055 0.822912
0.425492 0.016055 0.822912
0.816283 0.016055 0.822912
0.822913 0.016055 0.560598
0.016055 0.118836 0.822912
0.016055 0.081873 0.822912
0.314137 0.016055 0.822912
0.816102 0.016055 0.822912
0.822913 0.016055 0.553125
0.016055 0.822913 0.789582
0.016055 0.822912 0.791497
0.016055 0.822913 0.798311
0.814908 0.817239 0.822912
0.822913 0.278704 0.512367
0.016055 0.822913 0.016055
0.016055 0.822912 0.016055
0.016055 0.822912 0.016055
0.016055 0.822913 0.016055
0.804928 0.822912 0.016055
0.016055 0.016055 0.822912
0.016055 0.016055 0.822912
0.016055 0.016055 0.822912
0.466885 0.016055 0.822912
0.816306 0.016055 0.822912
0.016055 0.016055 0.822912
0.016055 0.016055 0.822912
0.016055 0.016055 0.822912
0.463030 0.016055 0.822912
0.816296 0.016055 0.822912
0.016055 0.016055 0.822912
0.016055 0.016055 0.822912
0.016055 0.016055 0.822912
0.448358 0.016055 0.822912
0.816259 0.016055 0.822912
0.016055 0.204040 0.822912
0.016055 0.198372 0.822912
0.016055 0.177228 0.822912
0.356873 0.056147 0.822912
0.816080 0.016055 0.822912
0.016055 0.822913 0.790557
0.016055 0.822912 0.790971
0.016055 0.822913 0.792450
0.016055 0.822912 0.799084
0.814908 0.817239 0.822912
