luts/Z-Log2/gain +4/zLog2_zRGB-ax2_32_gain4_desatuation.cube
TITLE "Generated by ZCAM"
LUT_3D_SIZE 8
DOMAIN_MIN 0.000000 0.000000 0.000000
DOMAIN_MAX 0.903226 0.903226 0.903226
0.016055 0.016055 0.016055
0.023639 0.017727 0.017727
0.382228 -0.057180 -0.057180
0.615679 -0.103870 -0.103870
0.797662 -0.013044 -0.013044
0.918088 0.163519 0.163519
0.972504 0.259159 0.464383
0.988611 0.289361 0.676238
0.016055 0.016055 0.016055
0.016055 0.016055 0.016055
0.357196 -0.052173 -0.052173
0.608467 -0.102427 -0.102427
0.795200 -0.016149 -0.016149
0.917563 0.162645 0.162645
0.972420 0.259004 0.434688
0.988611 0.289361 0.668784
-0.053379 0.363227 -0.053379
-0.051424 0.353448 -0.051424
0.310135 0.338689 -0.048472
0.597781 0.239120 -0.100290
0.791628 0.145782 -0.020619
0.916811 0.161394 0.161394
0.972301 0.258783 0.385465
0.988611 0.289361 0.657512
-0.101252 0.602590 -0.101252
-0.100692 0.599790 -0.100692
0.091891 0.595761 -0.099886
0.566509 0.585867 -0.097907
0.782765 0.546304 -0.031526
0.914982 0.549147 0.158358
0.972015 0.258256 0.258256
0.988611 0.289361 0.626564
-0.026357 0.786992 -0.026357
-0.027558 0.786014 -0.027558
-0.029265 0.784620 -0.029265
0.460509 0.781272 -0.033337
0.758351 0.773066 -0.043161
0.910352 0.775571 0.150723
0.971319 0.759740 0.256972
0.988611 0.369892 0.504150
0.154468 0.912628 0.154468
0.154112 0.912412 0.154112
0.153607 0.912106 0.153607
0.152402 0.911373 0.152402
0.720893 0.909599 0.149490
0.898600 0.905157 0.142243
0.969537 0.912160 0.253690
0.988611 0.890583 0.289361
0.255326 0.970426 0.255326
0.255261 0.970391 0.255261
0.255169 0.970341 0.255169
0.254952 0.970223 0.254952
0.254431 0.969940 0.254431
0.880975 0.969253 0.253167
0.965221 0.967526 0.250000
0.988611 0.969951 0.289361
0.289361 0.988611 0.289361
0.289361 0.988611 0.289361
0.289361 0.988611 0.289361
0.289361 0.988611 0.289361
0.289361 0.988611 0.289361
0.289361 0.988611 0.289361
0.956657 0.988611 0.289361
0.988204 0.988611 0.289361
0.016055 0.016055 0.016055
0.016055 0.016055 0.016055
0.375910 -0.055916 -0.052134
0.613794 -0.103493 -0.058978
0.797015 -0.013862 0.107862
0.917950 0.163289 0.368048
0.972482 0.259118 0.568326
0.988611 0.289361 0.709878
0.016055 0.016055 0.016055
0.016055 0.016055 0.016055
0.349931 -0.050720 -0.050720
0.606509 -0.102036 -0.102036
0.794539 -0.016980 0.029157
0.917423 0.162412 0.330968
0.972398 0.258963 0.553217
0.988611 0.289361 0.704126
-0.050320 0.347931 -0.050320
-0.048194 0.337298 -0.048194
0.302844 0.321231 -0.044980
0.595707 0.214543 -0.099875
0.790946 0.112171 -0.021467
0.916669 0.161157 0.266996
0.972278 0.258742 0.529077
0.988611 0.289361 0.695539
-0.100386 0.598258 -0.100386
-0.099812 0.595391 -0.099812
0.075541 0.591262 -0.098986
0.564557 0.581112 -0.096956
0.782037 0.540265 -0.032410
0.914834 0.541979 0.158113
0.971992 0.258214 0.449949
0.988611 0.289361 0.672733
-0.028210 0.785482 -0.028210
-0.029420 0.784493 -0.029420
-0.031137 0.783084 -0.031137
0.455681 0.779702 -0.035234
0.757530 0.771407 -0.045120
0.910188 0.773902 0.150455
0.971295 0.757709 0.256927
0.988611 0.343209 0.596258
0.153919 0.912295 0.153919
0.153561 0.912078 0.153561
0.153053 0.911769 0.153053
0.151840 0.911032 0.151840
0.719634 0.909246 0.148911
0.898366 0.904773 0.141621
0.969511 0.911800 0.253641
0.988611 0.890016 0.289361
0.255226 0.970372 0.255226
0.255161 0.970337 0.255161
0.255069 0.970287 0.255069
0.254851 0.970168 0.254851
0.254328 0.969884 0.254328
0.880670 0.969195 0.253061
0.965179 0.967463 0.249884
0.988611 0.969892 0.289361
0.289361 0.988611 0.289361
0.289361 0.988611 0.289361
0.289361 0.988611 0.289361
0.289361 0.988611 0.289361
0.289361 0.988611 0.289361
0.289361 0.988611 0.289361
0.956605 0.988611 0.289361
0.988201 0.988611 0.289361
-0.053229 -0.053229 0.362473
-0.053953 -0.053953 0.366097
0.365730 -0.054953 0.371095
0.611099 -0.102954 0.336675
0.796094 -0.015024 0.391566
0.917753 0.162961 0.531060
0.972450 0.259060 0.648057
0.988611 0.289361 0.746408
-0.047465 -0.047465 0.333655
-0.048309 -0.048309 0.337874
0.338265 -0.049473 0.343694
0.603707 -0.101475 0.307402
0.793597 -0.018160 0.366414
0.917224 0.162081 0.515786
0.972366 0.258904 0.639519
0.988611 0.289361 0.742049
-0.045536 0.324010 0.276781
-0.043129 0.311973 0.285449
0.291804 0.293303 0.297075
0.592735 0.177085 0.257410
0.789976 0.058184 0.325345
0.916467 0.160821 0.491623
0.972247 0.258683 0.626531
0.988611 0.289361 0.735637
-0.099125 0.591958 0.028772
-0.098532 0.588988 0.039556
0.051272 0.584708 0.054450
0.561776 0.574177 0.088194
0.781003 0.531408 0.187544
0.914623 0.531271 0.416790
0.971960 0.258154 0.590266
0.988611 0.289361 0.719130
-0.030850 0.783320 -0.030850
-0.032071 0.782317 -0.032071
-0.033803 0.780887 -0.033803
0.448673 0.777458 -0.037932
0.756372 0.769027 -0.047914
0.909957 0.771517 0.150076
0.971262 0.754783 0.435694
0.988611 0.297538 0.669444
0.153138 0.911821 0.153138
0.152777 0.911601 0.152777
0.152264 0.911289 0.152264
0.151041 0.910545 0.151041
0.717838 0.908742 0.148086
0.898034 0.904227 0.140735
0.969473 0.911287 0.253572
0.988611 0.889207 0.289361
0.255084 0.970295 0.255084
0.255019 0.970260 0.255019
0.254927 0.970210 0.254927
0.254708 0.970090 0.254708
0.254182 0.969805 0.254182
0.880238 0.969113 0.252910
0.965119 0.967373 0.249719
0.988611 0.969808 0.289361
0.289361 0.988611 0.289361
0.289361 0.988611 0.289361
0.289361 0.988611 0.289361
0.289361 0.988611 0.289361
0.289361 0.988611 0.289361
0.289361 0.988611 0.289361
0.956532 0.988611 0.289361
0.988197 0.988611 0.289361
-0.101348 -0.101348 0.603070
-0.101560 -0.101560 0.604130
0.289931 -0.101858 0.605618
0.603672 -0.102552 0.609088
0.793888 -0.017796 0.609348
0.917286 0.162183 0.680446
0.972376 0.258922 0.747138
0.988611 0.289361 0.805485
-0.099767 -0.099767 0.595164
-0.099988 -0.099988 0.596270
0.253830 -0.100298 0.597823
0.596009 -0.101022 0.601439
0.791343 -0.020974 0.601041
0.916751 0.161294 0.674519
0.972291 0.258766 0.743008
0.988611 0.289361 0.802769
-0.097408 0.189917 0.583372
-0.097645 0.171492 0.584553
0.193298 0.143944 0.586208
0.584601 0.068473 0.590061
0.787655 -0.025541 0.588675
0.915985 0.160022 0.665762
0.972171 0.258544 0.736942
0.988611 0.289361 0.798837
-0.095961 0.576137 0.547280
-0.095313 0.572897 0.549603
-0.015186 0.568221 0.552884
0.554451 0.556027 0.559980
0.778531 0.508819 0.555896
0.914122 0.502860 0.643029
0.971883 0.258012 0.721451
0.988611 0.289361 0.789081
-0.037177 0.778086 0.424711
-0.038420 0.777049 0.426786
-0.040183 0.775573 0.429680
0.431184 0.772021 0.436348
0.753653 0.763244 0.451235
0.909405 0.765732 0.572198
0.971181 0.747600 0.676227
0.988611 0.289361 0.762394
0.151265 0.910681 0.151265
0.150896 0.910457 0.150896
0.150373 0.910138 0.150373
0.149125 0.909376 0.149125
0.713509 0.907532 0.146110
0.897244 0.902916 0.138614
0.969383 0.910055 0.398550
0.988611 0.887254 0.661343
0.254748 0.970112 0.254748
0.254682 0.970076 0.254682
0.254588 0.970025 0.254588
0.254366 0.969905 0.254366
0.253836 0.969616 0.253836
0.879205 0.968918 0.252552
0.964976 0.967159 0.249327
0.988611 0.969607 0.289361
0.289361 0.988611 0.289361
0.289361 0.988611 0.289361
0.289361 0.988611 0.289361
0.289361 0.988611 0.289361
0.289361 0.988611 0.289361
0.289361 0.988611 0.289361
0.956358 0.988611 0.289361
0.988188 0.988611 0.289361
-0.025437 -0.025437 0.787739
-0.024980 -0.024980 0.788110
0.244460 -0.024334 0.788633
0.578046 -0.022815 0.789860
0.788314 -0.019265 0.792714
0.916161 0.160314 0.817937
0.972199 0.258595 0.853494
0.988611 0.289361 0.881683
-0.028794 -0.028794 0.785005
-0.028331 -0.028331 0.785384
0.198950 -0.027677 0.785917
0.568429 -0.026138 0.787170
0.785637 -0.022538 0.790084
0.915613 0.159405 0.815655
0.972113 0.258437 0.851814
0.988611 0.289361 0.880509
-0.033605 -0.033605 0.781051
-0.033134 -0.033134 0.781440
0.121544 -0.032469 0.781988
0.553991 -0.030905 0.783275
0.781768 -0.027241 0.786273
0.914828 0.158103 0.812338
0.971992 0.258212 0.849382
0.988611 0.289361 0.878816
-0.045262 0.512963 0.771286
-0.044772 0.508674 0.771702
-0.044082 0.502457 0.772287
0.515166 0.486982 0.773659
0.772223 0.445023 0.776844
0.912916 0.408562 0.804073
0.971700 0.257674 0.843356
0.988611 0.289361 0.874631
-0.052673 0.764935 0.743657
-0.053986 0.763798 0.744253
-0.055849 0.762178 0.745105
0.383725 0.758286 0.747161
0.747010 0.748406 0.751913
0.908078 0.751169 0.782107
0.970990 0.728908 0.827267
0.988611 0.289361 0.863479
0.146684 0.907884 0.699847
0.146298 0.907647 0.700368
0.145749 0.907311 0.701099
0.144441 0.906508 0.702806
0.702788 0.904564 0.706731
0.895345 0.899702 0.715459
0.969169 0.907024 0.777706
0.988611 0.882407 0.828490
0.253936 0.969671 0.253936
0.253868 0.969634 0.253868
0.253772 0.969582 0.253772
0.253545 0.969458 0.253545
0.253003 0.969164 0.253003
0.876705 0.968448 0.251691
0.964634 0.966643 0.278958
0.988611 0.969123 0.640079
0.289361 0.988611 0.289361
0.289361 0.988611 0.289361
0.289361 0.988611 0.289361
0.289361 0.988611 0.289361
0.289361 0.988611 0.289361
0.289361 0.988611 0.289361
0.955941 0.988611 0.289361
0.988166 0.988611 0.289361
0.155237 0.155237 0.913094
0.155372 0.155372 0.913176
0.155562 0.155562 0.913291
0.600286 0.156011 0.913563
0.796763 0.157060 0.914198
0.913751 0.159489 0.915664
0.971772 0.257806 0.932312
0.988611 0.289361 0.943503
0.154249 0.154249 0.912495
0.154385 0.154385 0.912578
0.154578 0.154578 0.912695
0.590711 0.155031 0.912969
0.794078 0.156092 0.913612
0.913169 0.158549 0.915097
0.971684 0.257644 0.931888
0.988611 0.289361 0.943179
0.152833 0.152833 0.911635
0.152972 0.152972 0.911720
0.153167 0.153167 0.911838
0.576197 0.153628 0.912118
0.790177 0.154706 0.912772
0.912334 0.157203 0.914284
0.971559 0.257413 0.931282
0.988611 0.289361 0.942716
0.149398 0.437975 0.909543
0.149542 0.429369 0.909631
0.149745 0.416390 0.909755
0.536083 0.381359 0.910046
0.780483 0.272296 0.910728
0.910304 0.153934 0.912304
0.971259 0.256861 0.929806
0.988611 0.289361 0.941593
0.140770 0.753713 0.904249
0.140927 0.752570 0.904345
0.141147 0.750941 0.904481
0.372736 0.747024 0.904802
0.754972 0.737380 0.905552
0.905170 0.711543 0.907287
0.970527 0.671158 0.926068
0.988611 0.289361 0.938774
0.134975 0.900660 0.891009
0.134544 0.900392 0.891074
0.133933 0.900011 0.891165
0.132475 0.899103 0.891381
0.674267 0.896902 0.891891
0.890922 0.891615 0.893338
0.968655 0.899132 0.915672
0.988611 0.869345 0.930953
0.251945 0.968587 0.868280
0.251873 0.968548 0.868437
0.251772 0.968493 0.868659
0.251533 0.968362 0.869179
0.250960 0.968050 0.870388
0.870457 0.967291 0.873147
0.963798 0.965361 0.879175
0.988611 0.967917 0.903334
0.289361 0.988611 0.289361
0.289361 0.988611 0.289361
0.289361 0.988611 0.289361
0.289361 0.988611 0.289361
0.289361 0.988611 0.289361
0.289361 0.988611 0.289361
0.954928 0.988611 0.289361
0.988113 0.988608 0.571153
0.255678 0.255678 0.970618
0.255703 0.255703 0.970631
0.255737 0.255737 0.970650
0.505365 0.255819 0.970694
0.795862 0.256010 0.970798
0.922474 0.256457 0.971040
0.970937 0.257488 0.971599
0.988611 0.289361 0.977276
0.255500 0.255500 0.970521
0.255524 0.255524 0.970534
0.255559 0.255559 0.970553
0.482575 0.255641 0.970597
0.793085 0.255834 0.970702
0.921939 0.256284 0.970946
0.970843 0.257320 0.971508
0.988611 0.289361 0.977215
0.255246 0.255246 0.970383
0.255270 0.255270 0.970396
0.255305 0.255305 0.970415
0.444269 0.255388 0.970460
0.789066 0.255582 0.970565
0.921172 0.256036 0.970812
0.970711 0.257081 0.971379
0.988611 0.289361 0.977129
0.254635 0.254635 0.970051
0.254661 0.254661 0.970065
0.254697 0.254697 0.970084
0.317429 0.254781 0.970130
0.779106 0.254979 0.970238
0.919309 0.255443 0.970490
0.970391 0.256509 0.971069
0.988611 0.289361 0.976924
0.253146 0.689521 0.969241
0.253173 0.687363 0.969256
0.253210 0.684255 0.969276
0.253298 0.676613 0.969324
0.752138 0.656674 0.969437
0.914604 0.594182 0.969701
0.969611 0.255111 0.970310
0.988611 0.289361 0.976423
0.249369 0.900929 0.967182
0.249399 0.900659 0.967198
0.249440 0.900274 0.967220
0.249538 0.899354 0.967274
0.652998 0.897118 0.967399
0.901460 0.891459 0.967693
0.967625 0.875585 0.968368
0.988611 0.824614 0.975140
0.246748 0.965748 0.962270
0.246666 0.965703 0.962275
0.246548 0.965639 0.962282
0.246270 0.965486 0.962299
0.245602 0.965120 0.962338
0.853184 0.964224 0.962421
0.961864 0.962124 0.962767
0.988611 0.964696 0.971477
0.289361 0.988611 0.951140
0.289361 0.988611 0.951173
0.289361 0.988611 0.951221
0.289361 0.988611 0.951334
0.289361 0.988611 0.951599
0.289361 0.988611 0.952215
0.952362 0.988611 0.953617
0.987892 0.988275 0.956531
0.289361 0.289361 0.988611
0.289361 0.289361 0.988611
0.289361 0.289361 0.988611
0.289361 0.289361 0.988611
0.703963 0.289361 0.988611
0.913655 0.289361 0.988611
0.973723 0.289361 0.988611
0.988611 0.289361 0.988611
0.289361 0.289361 0.988611
0.289361 0.289361 0.988611
0.289361 0.289361 0.988611
0.289361 0.289361 0.988611
0.698076 0.289361 0.988611
0.912979 0.289361 0.988611
0.973644 0.289361 0.988611
0.988611 0.289361 0.988611
0.289361 0.289361 0.988611
0.289361 0.289361 0.988611
0.289361 0.289361 0.988611
0.289361 0.289361 0.988611
0.689281 0.289361 0.988611
0.912010 0.289361 0.988611
0.973531 0.289361 0.988611
0.988611 0.289361 0.988611
0.289361 0.289361 0.988611
0.289361 0.289361 0.988611
0.289361 0.289361 0.988611
0.289361 0.289361 0.988611
0.665879 0.289361 0.988611
0.909645 0.289361 0.988611
0.973261 0.289361 0.988611
0.988611 0.289361 0.988611
0.289361 0.289361 0.988611
0.289361 0.289361 0.988611
0.289361 0.289361 0.988611
0.289361 0.289361 0.988611
0.586599 0.289361 0.988611
0.903611 0.289361 0.988611
0.972600 0.289361 0.988611
0.988611 0.289361 0.988611
0.289361 0.840204 0.988611
0.289361 0.839477 0.988611
0.289361 0.838442 0.988611
0.289361 0.835959 0.988611
0.289361 0.829845 0.988611
0.886315 0.813964 0.988611
0.970890 0.766573 0.988611
0.988611 0.289361 0.988611
0.289361 0.965706 0.988611
0.289361 0.965657 0.988611
0.289361 0.965587 0.988611
0.289361 0.965421 0.988611
0.289361 0.965024 0.988611
0.812464 0.964050 0.988611
0.965835 0.961551 0.988611
0.988611 0.954458 0.988611
0.288913 0.988375 0.987526
0.288904 0.988370 0.987526
0.288890 0.988363 0.987527
0.288859 0.988347 0.987528
0.288784 0.988307 0.987530
0.288604 0.988213 0.987534
0.944908 0.987982 0.987543
0.987386 0.987450 0.987608
