luts/Z-Log2/gain +4/zLog2_zRGB-ax2_32_gain4_desatuation.cube
TITLE "Generated by ZCAM"
LUT_3D_SIZE 5
DOMAIN_MIN 0.000000 0.000000 0.000000
DOMAIN_MAX 0.903226 0.903226 0.903226
0.016055 0.016055 0.016055
0.305555 -0.041845 -0.041845
0.710627 -0.110557 -0.110557
0.936461 0.194708 0.194708
0.988611 0.289361 0.676238
-0.028193 0.282908 -0.028193
0.227166 0.255190 -0.010340
0.702427 0.017913 -0.118443
0.935805 0.193574 0.193574
0.988611 0.289361 0.661396
-0.120523 0.698947 -0.120523
-0.119887 0.695764 -0.119887
0.666350 0.683869 -0.117508
0.933371 0.677076 0.189384
0.988611 0.289361 0.589698
0.187265 0.932136 0.187265
0.186808 0.931870 0.186808
0.398339 0.930902 0.185153
0.921181 0.926218 0.177181
0.988611 0.921963 0.289361
0.289361 0.988611 0.289361
0.289361 0.988611 0.289361
0.289361 0.988611 0.289361
0.777588 0.988611 0.289361
0.988204 0.988611 0.289361
-0.027088 -0.027088 0.281320
0.286371 -0.034324 0.291462
0.708493 -0.112631 0.253367
0.936288 0.194409 0.528098
0.988611 0.289361 0.735233
-0.001473 0.239264 0.193491
0.206459 0.207446 0.209938
0.700183 -0.080217 0.162907
0.935629 0.193271 0.494223
0.988611 0.289361 0.725865
-0.119537 0.694016 -0.119537
-0.118881 0.690734 -0.118881
0.664149 0.678466 -0.116427
0.933185 0.670582 0.269913
0.988611 0.289361 0.685802
0.186560 0.931725 0.186560
0.186099 0.931455 0.186099
0.381378 0.930477 0.184427
0.920880 0.925739 0.176371
0.988611 0.921339 0.289361
0.289361 0.988611 0.289361
0.289361 0.988611 0.289361
0.289361 0.988611 0.289361
0.775898 0.988611 0.289361
0.988198 0.988611 0.289361
-0.120655 -0.120655 0.699607
0.114265 -0.119976 0.700806
0.699806 -0.115981 0.705012
0.935665 0.193333 0.763828
0.988611 0.289361 0.843359
-0.118853 -0.118853 0.690596
-0.013556 -0.119107 0.691864
0.691017 -0.119997 0.696313
0.934996 0.192179 0.757125
0.988611 0.289361 0.839481
-0.115758 0.675119 0.649646
-0.115024 0.671451 0.652255
0.655503 0.657050 0.660928
0.932511 0.644881 0.730326
0.988611 0.289361 0.824370
0.183984 0.930218 0.256508
0.183506 0.929938 0.270316
0.310288 0.928920 0.314086
0.919790 0.923988 0.447796
0.988611 0.919041 0.717696
0.289361 0.988611 0.289361
0.289361 0.988611 0.289361
0.289361 0.988611 0.289361
0.769659 0.988611 0.289361
0.988179 0.988611 0.289361
0.187911 0.187911 0.932513
0.188084 0.188084 0.932614
0.711225 0.188698 0.932972
0.933079 0.191402 0.934545
0.988611 0.289361 0.954340
0.186639 0.186639 0.931771
0.186815 0.186815 0.931874
0.701689 0.187440 0.932238
0.932359 0.190190 0.933840
0.988611 0.289361 0.953912
0.181905 0.619857 0.928999
0.182094 0.614014 0.929110
0.661985 0.591133 0.929501
0.929674 0.399816 0.931218
0.988611 0.289361 0.952321
0.171121 0.922628 0.915144
0.170556 0.922292 0.915212
0.168507 0.921071 0.915451
0.914831 0.915378 0.916732
0.988611 0.907138 0.943777
0.289361 0.988611 0.713653
0.289361 0.988611 0.715103
0.289361 0.988611 0.720158
0.736957 0.988611 0.740837
0.988075 0.988551 0.806529
0.289361 0.289361 0.988611
0.289361 0.289361 0.988611
0.289361 0.289361 0.988611
0.936434 0.289361 0.988611
0.988611 0.289361 0.988611
0.289361 0.289361 0.988611
0.289361 0.289361 0.988611
0.289361 0.289361 0.988611
0.935664 0.289361 0.988611
0.988611 0.289361 0.988611
0.289361 0.289361 0.988611
0.289361 0.289361 0.988611
0.289361 0.289361 0.988611
0.932759 0.289361 0.988611
0.988611 0.289361 0.988611
0.289361 0.896185 0.988611
0.289361 0.895532 0.988611
0.289361 0.893144 0.988611
0.916233 0.881153 0.988611
0.988611 0.778428 0.988611
0.288913 0.988375 0.987526
0.288895 0.988366 0.987527
0.288829 0.988331 0.987528
0.288528 0.988173 0.987536
0.987386 0.987450 0.987608
